;FLAVOR:Marlin
;TIME:8376
;Filament used: 5.04204m
;Layer height: 0.2
;MINX:85.588
;MINY:30.686
;MINZ:0.2
;MAXX:146.112
;MAXY:189.289
;MAXZ:3.2
;Generated with Cura_SteamEngine 4.13.1
M140 S62
M105
M190 S62
M104 S200
M105
M109 S200
M82 ;absolute extrusion mode
; Script based on an original created by tjjfvi (https://github.com/tjjfvi)
; An up-to-date version of the tjjfvi's original script can be found
; here:  https://csi.t6.fyi/
; Note - This script will only work in Cura V4.2 and above!
; --- Global Settings
; layer_height = 0.2
; smooth_spiralized_contours = True
; magic_mesh_surface_mode = normal
; machine_extruder_count = 1
; --- Single Extruder Settings
; speed_z_hop = 5
; retraction_amount = 6.5
; retraction_hop = 0.2
; retraction_hop_enabled = False
; retraction_enable = True
; retraction_speed = 25
; retraction_retract_speed = 25
; retraction_prime_speed = 25
; speed_travel = 150.0

; Ender 3 Custom Start G-code
G92 E0 ; Reset Extruder
G28 ; Home all axes
G1 Z2.0 F3000 ; Move Z Axis up little to prevent scratching of Heat Bed
G1 X0.1 Y20 Z0.3 F5000.0 ; Move to start position
G1 X0.1 Y200.0 Z0.3 F1500.0 E15 ; Draw the first line
G1 X0.4 Y200.0 Z0.3 F5000.0 ; Move to side a little
G1 X0.4 Y20 Z0.3 F1500.0 E30 ; Draw the second line
G92 E0 ; Reset Extruder
G1 Z2.0 F3000 ; Move Z Axis up little to prevent scratching of Heat Bed
G1 X5 Y20 Z0.3 F5000.0 ; Move over to prevent blob squish
G92 E0
G92 E0
G1 F1500 E-6.5
;LAYER_COUNT:16
;LAYER:0
M107
G0 F6000 X86.22 Y35.415 Z0.2
;TYPE:SKIRT
G1 F1500 E0
G1 F1200 X86.568 Y34.706 E0.02627
G1 X86.986 Y34.035 E0.05256
G1 X87.469 Y33.411 E0.07881
G1 X88.013 Y32.838 E0.10509
G1 X88.611 Y32.323 E0.13134
G1 X89.259 Y31.872 E0.15759
G1 X89.95 Y31.488 E0.18389
G1 X90.675 Y31.176 E0.21014
G1 X91.428 Y30.939 E0.2364
G1 X92.202 Y30.78 E0.26268
G1 X92.987 Y30.699 E0.28892
G1 X93.389 Y30.689 E0.3023
G1 X103.212 Y30.689 E0.62901
G1 X104.001 Y30.729 E0.65529
G1 X104.149 Y30.752 E0.66027
G1 X104.687 Y30.696 E0.67826
G1 X105.089 Y30.686 E0.69164
G1 X114.912 Y30.686 E1.01835
G1 X115.701 Y30.726 E1.04463
G1 X115.86 Y30.75 E1.04997
G1 X116.387 Y30.696 E1.06759
G1 X116.789 Y30.686 E1.08097
G1 X126.612 Y30.686 E1.40768
G1 X127.401 Y30.726 E1.43396
G1 X127.56 Y30.75 E1.43931
G1 X128.087 Y30.696 E1.45693
G1 X128.489 Y30.686 E1.4703
G1 X138.312 Y30.686 E1.79702
G1 X139.101 Y30.726 E1.82329
G1 X139.881 Y30.845 E1.84954
G1 X140.646 Y31.043 E1.87582
G1 X141.386 Y31.317 E1.90206
G1 X142.095 Y31.665 E1.92833
G1 X142.766 Y32.083 E1.95463
G1 X143.39 Y32.566 E1.98087
G1 X143.963 Y33.109 E2.00713
G1 X144.478 Y33.708 E2.0334
G1 X144.929 Y34.356 E2.05966
G1 X145.313 Y35.047 E2.08595
G1 X145.625 Y35.772 E2.1122
G1 X145.862 Y36.525 E2.13846
G1 X146.021 Y37.299 E2.16474
G1 X146.102 Y38.084 E2.19099
G1 X146.112 Y38.486 E2.20436
G1 X146.111 Y181.486 E6.96056
G1 X146.071 Y182.275 E6.98684
G1 X145.952 Y183.055 E7.01308
G1 X145.754 Y183.82 E7.03937
G1 X145.48 Y184.56 E7.06561
G1 X145.132 Y185.269 E7.09188
G1 X144.714 Y185.94 E7.11817
G1 X144.231 Y186.564 E7.14442
G1 X143.687 Y187.137 E7.1707
G1 X143.089 Y187.652 E7.19695
G1 X142.441 Y188.103 E7.22321
G1 X141.75 Y188.487 E7.2495
G1 X141.025 Y188.799 E7.27575
G1 X140.272 Y189.036 E7.30201
G1 X139.498 Y189.195 E7.32829
G1 X138.713 Y189.276 E7.35453
G1 X138.311 Y189.286 E7.36791
G1 X128.488 Y189.286 E7.69462
G1 X127.699 Y189.246 E7.7209
G1 X127.54 Y189.222 E7.72625
G1 X127.013 Y189.276 E7.74387
G1 X126.611 Y189.286 E7.75724
G1 X116.788 Y189.286 E8.08396
G1 X115.999 Y189.246 E8.11023
G1 X115.84 Y189.222 E8.11558
G1 X115.313 Y189.276 E8.1332
G1 X114.911 Y189.286 E8.14658
G1 X105.088 Y189.286 E8.47329
G1 X104.299 Y189.246 E8.49957
G1 X104.151 Y189.223 E8.50455
G1 X103.613 Y189.279 E8.52254
G1 X103.211 Y189.289 E8.53591
G1 X93.388 Y189.289 E8.86263
G1 X92.599 Y189.249 E8.8889
G1 X91.819 Y189.13 E8.91515
G1 X91.054 Y188.932 E8.94143
G1 X90.314 Y188.658 E8.96767
G1 X89.605 Y188.31 E8.99394
G1 X88.934 Y187.892 E9.02024
G1 X88.31 Y187.409 E9.04648
G1 X87.737 Y186.866 E9.07274
G1 X87.222 Y186.267 E9.09901
G1 X86.771 Y185.619 E9.12527
G1 X86.387 Y184.928 E9.15156
G1 X86.075 Y184.203 E9.17782
G1 X85.838 Y183.45 E9.20407
G1 X85.679 Y182.676 E9.23035
G1 X85.598 Y181.891 E9.2566
G1 X85.588 Y181.489 E9.26998
G1 X85.589 Y38.489 E14.02617
G1 X85.629 Y37.7 E14.05245
G1 X85.748 Y36.92 E14.07869
G1 X85.946 Y36.155 E14.10498
G1 X86.22 Y35.415 E14.13122
G0 F6000 X86.62 Y35.499
G1 F1200 X86.967 Y34.812 E14.15682
G1 X87.383 Y34.166 E14.18238
G1 X87.864 Y33.566 E14.20795
G1 X88.405 Y33.019 E14.23354
G1 X89 Y32.531 E14.25914
G1 X89.642 Y32.108 E14.28471
G1 X90.325 Y31.753 E14.31031
G1 X91.041 Y31.472 E14.33589
G1 X91.782 Y31.266 E14.36147
G1 X92.54 Y31.138 E14.38704
G1 X93.389 Y31.089 E14.41533
G1 X103.212 Y31.089 E14.74204
G1 X103.98 Y31.129 E14.76762
G1 X104.24 Y31.135 E14.77627
G1 X105.089 Y31.086 E14.80455
G1 X114.912 Y31.086 E15.13127
G1 X115.68 Y31.126 E15.15685
G1 X115.94 Y31.135 E15.1655
G1 X116.789 Y31.086 E15.19378
G1 X126.612 Y31.086 E15.5205
G1 X127.38 Y31.126 E15.54608
G1 X127.64 Y31.135 E15.55473
G1 X128.489 Y31.086 E15.58301
G1 X138.312 Y31.086 E15.90973
G1 X139.08 Y31.126 E15.93531
G1 X139.84 Y31.245 E15.96089
G1 X140.583 Y31.443 E15.98647
G1 X141.302 Y31.717 E16.01206
G1 X141.988 Y32.064 E16.03763
G1 X142.635 Y32.48 E16.06321
G1 X143.235 Y32.961 E16.08879
G1 X143.782 Y33.502 E16.11438
G1 X144.27 Y34.097 E16.13997
G1 X144.693 Y34.739 E16.16554
G1 X145.048 Y35.422 E16.19114
G1 X145.329 Y36.137 E16.2167
G1 X145.535 Y36.879 E16.24231
G1 X145.663 Y37.637 E16.26788
G1 X145.712 Y38.486 E16.29616
G1 X145.711 Y181.486 E21.05236
G1 X145.671 Y182.254 E21.07794
G1 X145.552 Y183.014 E21.10352
G1 X145.354 Y183.757 E21.1291
G1 X145.08 Y184.476 E21.15469
G1 X144.733 Y185.163 E21.18029
G1 X144.317 Y185.809 E21.20585
G1 X143.836 Y186.409 E21.23142
G1 X143.295 Y186.956 E21.25701
G1 X142.7 Y187.444 E21.28261
G1 X142.058 Y187.867 E21.30818
G1 X141.375 Y188.222 E21.33378
G1 X140.659 Y188.503 E21.35936
G1 X139.918 Y188.709 E21.38494
G1 X139.16 Y188.837 E21.41051
G1 X138.311 Y188.886 E21.4388
G1 X128.488 Y188.886 E21.76551
G1 X127.72 Y188.846 E21.79109
G1 X127.46 Y188.837 E21.79974
G1 X126.611 Y188.886 E21.82803
G1 X116.788 Y188.886 E22.15474
G1 X116.02 Y188.846 E22.18032
G1 X115.76 Y188.837 E22.18897
G1 X114.911 Y188.886 E22.21726
G1 X105.088 Y188.886 E22.54397
G1 X104.32 Y188.846 E22.56955
G1 X104.06 Y188.84 E22.5782
G1 X103.211 Y188.889 E22.60648
G1 X93.388 Y188.889 E22.9332
G1 X92.62 Y188.849 E22.95878
G1 X91.86 Y188.73 E22.98436
G1 X91.117 Y188.532 E23.00994
G1 X90.398 Y188.258 E23.03553
G1 X89.712 Y187.911 E23.0611
G1 X89.065 Y187.495 E23.08668
G1 X88.465 Y187.014 E23.11226
G1 X87.918 Y186.473 E23.13785
G1 X87.43 Y185.878 E23.16344
G1 X87.007 Y185.236 E23.18901
G1 X86.652 Y184.553 E23.21461
G1 X86.371 Y183.838 E23.24017
G1 X86.165 Y183.096 E23.26578
G1 X86.037 Y182.338 E23.29135
G1 X85.988 Y181.489 E23.31963
G1 X85.989 Y38.489 E28.07583
G1 X86.029 Y37.721 E28.10141
G1 X86.148 Y36.961 E28.12699
G1 X86.346 Y36.218 E28.15257
G1 X86.62 Y35.499 E28.17816
G0 F6000 X87.019 Y35.586
G1 F1200 X87.366 Y34.923 E28.20305
G1 X87.781 Y34.3 E28.22795
G1 X88.26 Y33.726 E28.25281
G1 X88.797 Y33.205 E28.2777
G1 X89.387 Y32.746 E28.30256
G1 X90.023 Y32.351 E28.32746
G1 X90.697 Y32.027 E28.35234
G1 X91.402 Y31.777 E28.37721
G1 X92.13 Y31.603 E28.40211
G1 X92.872 Y31.508 E28.42699
G1 X93.389 Y31.489 E28.4442
G1 X103.212 Y31.489 E28.77091
G1 X103.959 Y31.529 E28.79579
G1 X104.147 Y31.559 E28.80212
G1 X104.572 Y31.505 E28.81637
G1 X105.089 Y31.486 E28.83358
G1 X114.912 Y31.486 E29.1603
G1 X115.659 Y31.526 E29.18518
G1 X115.858 Y31.558 E29.19188
G1 X116.272 Y31.505 E29.20576
G1 X116.789 Y31.486 E29.22297
G1 X126.612 Y31.486 E29.54968
G1 X127.359 Y31.526 E29.57456
G1 X127.558 Y31.558 E29.58127
G1 X127.972 Y31.505 E29.59515
G1 X128.489 Y31.486 E29.61236
G1 X138.312 Y31.486 E29.93907
G1 X139.059 Y31.526 E29.96395
G1 X139.797 Y31.645 E29.98882
G1 X140.519 Y31.843 E30.01372
G1 X141.215 Y32.116 E30.03858
G1 X141.878 Y32.463 E30.06347
G1 X142.501 Y32.878 E30.08837
G1 X143.075 Y33.357 E30.11323
G1 X143.596 Y33.894 E30.13812
G1 X144.055 Y34.484 E30.16298
G1 X144.45 Y35.12 E30.18788
G1 X144.774 Y35.794 E30.21276
G1 X145.024 Y36.499 E30.23764
G1 X145.198 Y37.227 E30.26253
G1 X145.293 Y37.969 E30.28741
G1 X145.312 Y38.486 E30.30462
G1 X145.311 Y181.486 E35.06082
G1 X145.271 Y182.233 E35.0857
G1 X145.152 Y182.972 E35.11059
G1 X144.954 Y183.693 E35.13546
G1 X144.681 Y184.389 E35.16033
G1 X144.334 Y185.052 E35.18522
G1 X143.919 Y185.675 E35.21012
G1 X143.44 Y186.249 E35.23498
G1 X142.903 Y186.77 E35.25987
G1 X142.313 Y187.229 E35.28473
G1 X141.677 Y187.624 E35.30963
G1 X141.003 Y187.948 E35.3345
G1 X140.298 Y188.198 E35.35938
G1 X139.57 Y188.372 E35.38428
G1 X138.828 Y188.467 E35.40916
G1 X138.311 Y188.486 E35.42637
G1 X128.488 Y188.486 E35.75308
G1 X127.741 Y188.446 E35.77796
G1 X127.542 Y188.414 E35.78466
G1 X127.128 Y188.467 E35.79855
G1 X126.611 Y188.486 E35.81575
G1 X116.788 Y188.486 E36.14247
G1 X116.041 Y188.446 E36.16735
G1 X115.842 Y188.414 E36.17405
G1 X115.428 Y188.467 E36.18793
G1 X114.911 Y188.486 E36.20514
G1 X105.088 Y188.486 E36.53186
G1 X104.341 Y188.446 E36.55674
G1 X104.153 Y188.416 E36.56307
G1 X103.728 Y188.47 E36.57732
G1 X103.211 Y188.489 E36.59453
G1 X93.388 Y188.489 E36.92124
G1 X92.641 Y188.449 E36.94612
G1 X91.903 Y188.33 E36.97098
G1 X91.181 Y188.132 E36.99588
G1 X90.485 Y187.859 E37.02075
G1 X89.822 Y187.512 E37.04564
G1 X89.199 Y187.097 E37.07054
G1 X88.625 Y186.618 E37.0954
G1 X88.104 Y186.081 E37.12029
G1 X87.645 Y185.491 E37.14515
G1 X87.25 Y184.855 E37.17005
G1 X86.926 Y184.181 E37.19492
G1 X86.676 Y183.476 E37.2198
G1 X86.502 Y182.748 E37.2447
G1 X86.407 Y182.006 E37.26958
G1 X86.388 Y181.489 E37.28679
G1 X86.389 Y38.489 E42.04299
G1 X86.429 Y37.742 E42.06787
G1 X86.548 Y37.003 E42.09276
G1 X86.746 Y36.282 E42.11763
G1 X87.019 Y35.586 E42.1425
G0 F6000 X87.419 Y35.675
G1 F1200 X87.764 Y35.036 E42.16665
G1 X88.178 Y34.439 E42.19081
G1 X88.654 Y33.891 E42.21496
G1 X89.188 Y33.398 E42.23913
G1 X89.773 Y32.968 E42.26328
G1 X90.402 Y32.604 E42.28745
G1 X91.067 Y32.311 E42.31162
G1 X91.76 Y32.093 E42.33578
G1 X92.472 Y31.953 E42.35991
G1 X93.389 Y31.889 E42.39049
G1 X103.212 Y31.889 E42.7172
G1 X103.937 Y31.929 E42.74135
G1 X104.172 Y31.95 E42.7492
G1 X105.089 Y31.886 E42.77977
G1 X114.912 Y31.886 E43.10649
G1 X115.637 Y31.926 E43.13064
G1 X115.872 Y31.95 E43.1385
G1 X116.789 Y31.886 E43.16907
G1 X126.612 Y31.886 E43.49578
G1 X127.337 Y31.926 E43.51993
G1 X127.572 Y31.95 E43.52779
G1 X128.489 Y31.886 E43.55836
G1 X138.312 Y31.886 E43.88508
G1 X139.037 Y31.926 E43.90923
G1 X139.754 Y32.045 E43.9334
G1 X140.453 Y32.243 E43.95757
G1 X141.126 Y32.516 E43.98172
G1 X141.765 Y32.861 E44.00587
G1 X142.362 Y33.275 E44.03004
G1 X142.91 Y33.751 E44.05418
G1 X143.403 Y34.285 E44.07835
G1 X143.833 Y34.87 E44.1025
G1 X144.197 Y35.499 E44.12667
G1 X144.49 Y36.164 E44.15084
G1 X144.708 Y36.857 E44.175
G1 X144.848 Y37.569 E44.19914
G1 X144.912 Y38.486 E44.22971
G1 X144.911 Y181.486 E48.98591
G1 X144.871 Y182.211 E49.01006
G1 X144.752 Y182.928 E49.03424
G1 X144.554 Y183.627 E49.0584
G1 X144.281 Y184.3 E49.08256
G1 X143.936 Y184.939 E49.10671
G1 X143.522 Y185.536 E49.13087
G1 X143.046 Y186.084 E49.15501
G1 X142.512 Y186.577 E49.17919
G1 X141.927 Y187.007 E49.20334
G1 X141.298 Y187.371 E49.22751
G1 X140.633 Y187.664 E49.25168
G1 X139.94 Y187.882 E49.27584
G1 X139.228 Y188.022 E49.29997
G1 X138.311 Y188.086 E49.33055
G1 X128.488 Y188.086 E49.65726
G1 X127.763 Y188.046 E49.68141
G1 X127.528 Y188.022 E49.68927
G1 X126.611 Y188.086 E49.71984
G1 X116.788 Y188.086 E50.04656
G1 X116.063 Y188.046 E50.07071
G1 X115.828 Y188.022 E50.07856
G1 X114.911 Y188.086 E50.10914
G1 X105.088 Y188.086 E50.43585
G1 X104.363 Y188.046 E50.46
G1 X104.128 Y188.025 E50.46785
G1 X103.211 Y188.089 E50.49842
G1 X93.388 Y188.089 E50.82514
G1 X92.663 Y188.049 E50.84929
G1 X91.946 Y187.93 E50.87346
G1 X91.247 Y187.732 E50.89763
G1 X90.574 Y187.459 E50.92178
G1 X89.935 Y187.114 E50.94593
G1 X89.338 Y186.7 E50.9701
G1 X88.79 Y186.224 E50.99424
G1 X88.297 Y185.69 E51.01841
G1 X87.867 Y185.105 E51.04256
G1 X87.503 Y184.476 E51.06673
G1 X87.21 Y183.811 E51.0909
G1 X86.992 Y183.118 E51.11506
G1 X86.852 Y182.406 E51.1392
G1 X86.788 Y181.489 E51.16977
G1 X86.789 Y38.489 E55.92597
G1 X86.829 Y37.764 E55.95012
G1 X86.948 Y37.047 E55.9743
G1 X87.146 Y36.348 E55.99846
G1 X87.419 Y35.675 E56.02262
G0 F6000 X87.818 Y35.767
G1 F1200 X88.163 Y35.153 E56.04604
G1 X88.574 Y34.583 E56.06941
G1 X89.048 Y34.062 E56.09284
G1 X89.578 Y33.598 E56.11627
G1 X90.157 Y33.198 E56.13967
G1 X90.778 Y32.866 E56.1631
G1 X91.432 Y32.606 E56.1865
G1 X92.112 Y32.422 E56.20993
G1 X92.808 Y32.316 E56.23335
G1 X93.389 Y32.289 E56.25269
G1 X103.212 Y32.289 E56.57941
G1 X103.915 Y32.329 E56.60283
G1 X104.145 Y32.368 E56.61059
G1 X104.508 Y32.313 E56.6228
G1 X105.089 Y32.286 E56.64214
G1 X114.912 Y32.286 E56.96886
G1 X115.615 Y32.326 E56.99228
G1 X115.854 Y32.367 E57.00034
G1 X116.208 Y32.313 E57.01225
G1 X116.789 Y32.286 E57.0316
G1 X126.612 Y32.286 E57.35831
G1 X127.315 Y32.326 E57.38173
G1 X127.554 Y32.367 E57.3898
G1 X127.908 Y32.313 E57.40171
G1 X128.489 Y32.286 E57.42105
G1 X138.312 Y32.286 E57.74777
G1 X139.015 Y32.326 E57.77119
G1 X139.709 Y32.445 E57.79461
G1 X140.384 Y32.643 E57.818
G1 X141.033 Y32.915 E57.84141
G1 X141.647 Y33.26 E57.86483
G1 X142.218 Y33.671 E57.88823
G1 X142.739 Y34.145 E57.91166
G1 X143.203 Y34.675 E57.93509
G1 X143.603 Y35.254 E57.95849
G1 X143.935 Y35.875 E57.98192
G1 X144.195 Y36.529 E58.00532
G1 X144.379 Y37.209 E58.02875
G1 X144.485 Y37.905 E58.05217
G1 X144.512 Y38.486 E58.07151
G1 X144.511 Y181.486 E62.82771
G1 X144.471 Y182.189 E62.85113
G1 X144.352 Y182.883 E62.87455
G1 X144.154 Y183.558 E62.89795
G1 X143.882 Y184.208 E62.92139
G1 X143.537 Y184.822 E62.94481
G1 X143.126 Y185.392 E62.96818
G1 X142.652 Y185.913 E62.99161
G1 X142.122 Y186.377 E63.01504
G1 X141.543 Y186.777 E63.03844
G1 X140.922 Y187.109 E63.06187
G1 X140.268 Y187.369 E63.08527
G1 X139.588 Y187.553 E63.1087
G1 X138.892 Y187.659 E63.13212
G1 X138.311 Y187.686 E63.15147
G1 X128.488 Y187.686 E63.47818
G1 X127.785 Y187.646 E63.5016
G1 X127.546 Y187.605 E63.50966
G1 X127.192 Y187.659 E63.52157
G1 X126.611 Y187.686 E63.54092
G1 X116.788 Y187.686 E63.86763
G1 X116.085 Y187.646 E63.89105
G1 X115.846 Y187.605 E63.89912
G1 X115.492 Y187.659 E63.91103
G1 X114.911 Y187.686 E63.93037
G1 X105.088 Y187.686 E64.25709
G1 X104.385 Y187.646 E64.28051
G1 X104.155 Y187.607 E64.28827
G1 X103.792 Y187.662 E64.30048
G1 X103.211 Y187.689 E64.31982
G1 X93.388 Y187.689 E64.64654
G1 X92.685 Y187.649 E64.66996
G1 X91.991 Y187.53 E64.69338
G1 X91.316 Y187.332 E64.71677
G1 X90.667 Y187.06 E64.74018
G1 X90.053 Y186.715 E64.7636
G1 X89.482 Y186.304 E64.787
G1 X88.961 Y185.83 E64.81043
G1 X88.497 Y185.3 E64.83386
G1 X88.097 Y184.721 E64.85726
G1 X87.765 Y184.1 E64.88069
G1 X87.505 Y183.446 E64.90409
G1 X87.321 Y182.766 E64.92752
G1 X87.215 Y182.07 E64.95094
G1 X87.188 Y181.489 E64.97029
G1 X87.189 Y38.489 E69.72648
G1 X87.229 Y37.786 E69.7499
G1 X87.348 Y37.092 E69.77332
G1 X87.546 Y36.417 E69.79672
G1 X87.818 Y35.767 E69.82016
G0 F6000 X87.945 Y36.487
G1 F1200 X88.218 Y35.863 E69.84281
G1 X88.561 Y35.275 E69.86545
G1 X88.971 Y34.731 E69.88811
G1 X89.442 Y34.24 E69.91074
G1 X89.967 Y33.806 E69.93339
G1 X90.539 Y33.437 E69.95603
G1 X91.151 Y33.138 E69.97869
G1 X91.793 Y32.913 E70.00131
G1 X92.458 Y32.764 E70.02398
G1 X93.389 Y32.689 E70.05505
G1 X103.212 Y32.689 E70.38176
G1 X103.892 Y32.729 E70.40442
G1 X104.158 Y32.761 E70.41333
G1 X105.089 Y32.686 E70.44439
G1 X114.912 Y32.686 E70.77111
G1 X115.592 Y32.726 E70.79376
G1 X115.858 Y32.761 E70.80269
G1 X116.789 Y32.686 E70.83375
G1 X126.612 Y32.686 E71.16047
G1 X127.292 Y32.726 E71.18312
G1 X127.558 Y32.761 E71.19205
G1 X128.489 Y32.686 E71.22311
G1 X138.312 Y32.686 E71.54983
G1 X138.992 Y32.726 E71.57248
G1 X139.662 Y32.845 E71.59511
G1 X140.314 Y33.042 E71.61777
G1 X140.938 Y33.314 E71.64041
G1 X141.526 Y33.658 E71.66307
G1 X142.07 Y34.068 E71.68572
