;FLAVOR:Marlin
;TIME:2891
;Filament used: 1.38196m
;Layer height: 0.2
;MINX:83.1
;MINY:83.452
;MINZ:0.2
;MAXX:136.9
;MAXY:136.548
;MAXZ:20.6
;Generated with Cura_SteamEngine 4.13.1
M140 S62
M105
M190 S62
M104 S200
M105
M109 S200
M82 ;absolute extrusion mode
; Script based on an original created by tjjfvi (https://github.com/tjjfvi)
; An up-to-date version of the tjjfvi's original script can be found
; here:  https://csi.t6.fyi/
; Note - This script will only work in Cura V4.2 and above!
; --- Global Settings
; layer_height = 0.2
; smooth_spiralized_contours = True
; magic_mesh_surface_mode = normal
; machine_extruder_count = 1
; --- Single Extruder Settings
; speed_z_hop = 5
; retraction_amount = 6.5
; retraction_hop = 0.2
; retraction_hop_enabled = False
; retraction_enable = True
; retraction_speed = 25
; retraction_retract_speed = 25
; retraction_prime_speed = 25
; speed_travel = 150.0

; Ender 3 Custom Start G-code
G92 E0 ; Reset Extruder
G28 ; Home all axes
G1 Z2.0 F3000 ; Move Z Axis up little to prevent scratching of Heat Bed
G1 X0.1 Y20 Z0.3 F5000.0 ; Move to start position
G1 X0.1 Y200.0 Z0.3 F1500.0 E15 ; Draw the first line
G1 X0.4 Y200.0 Z0.3 F5000.0 ; Move to side a little
G1 X0.4 Y20 Z0.3 F1500.0 E30 ; Draw the second line
G92 E0 ; Reset Extruder
G1 Z2.0 F3000 ; Move Z Axis up little to prevent scratching of Heat Bed
G1 X5 Y20 Z0.3 F5000.0 ; Move over to prevent blob squish
G92 E0
G92 E0
G1 F1500 E-6.5
;LAYER_COUNT:103
;LAYER:0
M107
G0 F6000 X91.856 Y90.196 Z0.2
;TYPE:SKIRT
G1 F1500 E0
G1 F1200 X92.584 Y89.5 E0.0335
G1 X92.889 Y89.244 E0.04674
G1 X93.042 Y89.119 E0.05331
G1 X93.471 Y88.778 E0.07154
G1 X93.751 Y88.561 E0.08332
G1 X94.399 Y88.109 E0.1096
G1 X95.223 Y87.661 E0.1408
G1 X95.441 Y87.559 E0.1488
G1 X96.173 Y87.261 E0.17509
G1 X96.93 Y87.039 E0.20133
G1 X97.707 Y86.894 E0.22762
G1 X98.451 Y86.83 E0.25245
G1 X98.778 Y86.822 E0.26333
G1 X99.1 Y86.43 E0.2802
G1 X99.659 Y85.872 E0.30647
G1 X100.272 Y85.374 E0.33274
G1 X101.001 Y84.901 E0.36165
G1 X101.207 Y84.783 E0.36954
G1 X102.161 Y84.32 E0.40481
G1 X102.208 Y84.301 E0.4065
G1 X103.172 Y83.982 E0.44027
G1 X103.515 Y83.893 E0.45206
G1 X103.746 Y83.837 E0.45996
G1 X104.318 Y83.708 E0.47947
G1 X104.665 Y83.634 E0.49127
G1 X105.445 Y83.508 E0.51755
G1 X106.356 Y83.462 E0.54788
G1 X106.599 Y83.464 E0.55597
G1 X107.388 Y83.511 E0.58226
G1 X108.167 Y83.637 E0.6085
G1 X108.93 Y83.841 E0.63477
G1 X109.694 Y84.132 E0.66196
G1 X109.95 Y84.248 E0.67131
G1 X110.413 Y84.032 E0.6883
G1 X111.159 Y83.773 E0.71457
G1 X111.928 Y83.591 E0.74085
G1 X112.778 Y83.482 E0.76935
G1 X113.013 Y83.465 E0.77719
G1 X113.908 Y83.452 E0.80696
G1 X113.955 Y83.454 E0.80853
G1 X114.741 Y83.528 E0.83478
G1 X115.156 Y83.599 E0.84879
G1 X115.55 Y83.678 E0.86215
G1 X116.092 Y83.799 E0.88062
G1 X116.32 Y83.853 E0.88842
G1 X116.707 Y83.951 E0.90169
G1 X117.461 Y84.183 E0.92793
G1 X118.149 Y84.471 E0.95274
G1 X118.365 Y84.574 E0.9607
G1 X119.06 Y84.95 E0.98698
G1 X119.713 Y85.394 E1.01324
G1 X120.318 Y85.902 E1.03952
G1 X120.973 Y86.59 E1.07112
G1 X121.13 Y86.777 E1.07924
G1 X121.596 Y86.781 E1.09474
G1 X122.381 Y86.867 E1.121
G1 X123.153 Y87.033 E1.14726
G1 X123.92 Y87.281 E1.17408
G1 X124.145 Y87.367 E1.18209
G1 X125.176 Y87.85 E1.21996
G1 X125.217 Y87.873 E1.22152
G1 X126.103 Y88.452 E1.25672
G1 X126.422 Y88.693 E1.27002
G1 X126.601 Y88.833 E1.27758
G1 X127.019 Y89.169 E1.29541
G1 X127.295 Y89.396 E1.3073
G1 X127.878 Y89.928 E1.33355
G1 X128.456 Y90.579 E1.36251
G1 X128.604 Y90.766 E1.37044
G1 X129.062 Y91.41 E1.39672
G1 X129.453 Y92.096 E1.42298
G1 X129.772 Y92.818 E1.44924
G1 X130.027 Y93.607 E1.47682
G1 X130.102 Y93.904 E1.487
G1 X130.565 Y94.135 E1.50421
G1 X131.232 Y94.557 E1.53047
G1 X131.853 Y95.045 E1.55674
G1 X132.422 Y95.594 E1.58303
G1 X132.585 Y95.768 E1.59096
G1 X133.095 Y96.371 E1.61723
G1 X133.385 Y96.777 E1.63382
G1 X133.853 Y97.567 E1.66436
G1 X134.036 Y97.922 E1.67765
G1 X134.274 Y98.408 E1.69565
G1 X134.339 Y98.544 E1.70066
G1 X134.523 Y98.942 E1.71524
G1 X134.818 Y99.674 E1.74149
G1 X135.065 Y100.557 E1.77199
G1 X135.117 Y100.796 E1.78013
G1 X135.245 Y101.575 E1.80638
G1 X135.294 Y102.363 E1.83264
G1 X135.264 Y103.152 E1.8589
G1 X135.15 Y103.952 E1.88578
G1 X135.096 Y104.22 E1.89487
G1 X135.445 Y104.678 E1.91402
G1 X135.857 Y105.351 E1.94027
G1 X136.2 Y106.063 E1.96656
G1 X136.447 Y106.736 E1.9904
G1 X136.519 Y106.964 E1.99835
G1 X136.783 Y108.081 E2.03653
G1 X136.791 Y108.131 E2.03821
G1 X136.887 Y109.166 E2.07278
G1 X136.897 Y109.562 E2.08596
G1 X136.9 Y110.141 E2.10522
G1 X136.89 Y110.713 E2.12424
G1 X136.834 Y111.501 E2.15052
G1 X136.698 Y112.285 E2.17698
G1 X136.645 Y112.518 E2.18493
G1 X136.431 Y113.278 E2.21119
G1 X136.141 Y114.013 E2.23747
G1 X135.779 Y114.714 E2.26371
G1 X135.314 Y115.422 E2.29189
G1 X135.118 Y115.681 E2.30269
G1 X135.227 Y116.195 E2.32017
G1 X135.311 Y116.98 E2.34642
G1 X135.316 Y117.77 E2.3727
G1 X135.236 Y118.589 E2.40007
G1 X135.2 Y118.827 E2.40808
G1 X135.065 Y119.512 E2.4313
G1 X135.054 Y119.557 E2.43284
G1 X134.828 Y120.314 E2.45911
G1 X134.588 Y120.911 E2.48051
G1 X134.423 Y121.277 E2.49387
G1 X134.174 Y121.8 E2.51313
G1 X134.101 Y121.95 E2.51868
G1 X133.922 Y122.304 E2.53188
G1 X133.53 Y122.989 E2.55813
G1 X133.011 Y123.707 E2.58759
G1 X132.858 Y123.895 E2.59565
G1 X132.329 Y124.482 E2.62194
G1 X131.744 Y125.012 E2.64819
G1 X131.108 Y125.48 E2.67445
G1 X130.452 Y125.869 E2.69982
G1 X130.166 Y126.015 E2.7105
G1 X130.03 Y126.561 E2.72922
G1 X129.763 Y127.304 E2.75548
G1 X129.422 Y128.016 E2.78173
G1 X129.02 Y128.677 E2.80746
G1 X128.889 Y128.87 E2.81522
G1 X128.178 Y129.767 E2.85329
G1 X128.144 Y129.804 E2.85496
G1 X127.416 Y130.5 E2.88846
G1 X127.111 Y130.756 E2.90171
G1 X126.958 Y130.881 E2.90828
G1 X126.529 Y131.222 E2.9265
G1 X126.249 Y131.439 E2.93829
G1 X125.601 Y131.891 E2.96456
G1 X124.777 Y132.339 E2.99576
G1 X124.559 Y132.441 E3.00376
G1 X123.827 Y132.739 E3.03005
G1 X123.07 Y132.961 E3.05629
G1 X122.293 Y133.106 E3.08258
G1 X121.549 Y133.17 E3.10742
G1 X121.222 Y133.178 E3.1183
G1 X120.9 Y133.57 E3.13517
G1 X120.341 Y134.128 E3.16144
G1 X119.728 Y134.626 E3.18771
G1 X118.999 Y135.099 E3.21661
G1 X118.793 Y135.217 E3.22451
G1 X117.839 Y135.68 E3.25978
G1 X117.792 Y135.699 E3.26146
G1 X116.828 Y136.018 E3.29523
G1 X116.485 Y136.107 E3.30702
G1 X116.254 Y136.163 E3.31493
G1 X115.682 Y136.292 E3.33443
G1 X115.335 Y136.366 E3.34623
G1 X114.555 Y136.492 E3.37251
G1 X113.644 Y136.538 E3.40285
G1 X113.401 Y136.536 E3.41093
G1 X112.612 Y136.489 E3.43722
G1 X111.833 Y136.363 E3.46346
G1 X111.07 Y136.159 E3.48973
G1 X110.306 Y135.868 E3.51693
G1 X110.05 Y135.752 E3.52627
G1 X109.587 Y135.968 E3.54327
G1 X108.841 Y136.227 E3.56953
G1 X108.072 Y136.409 E3.59581
G1 X107.222 Y136.518 E3.62432
G1 X106.987 Y136.535 E3.63215
G1 X106.092 Y136.548 E3.66192
G1 X106.045 Y136.546 E3.66349
G1 X105.259 Y136.472 E3.68975
G1 X104.844 Y136.401 E3.70375
G1 X104.45 Y136.322 E3.71712
G1 X103.908 Y136.201 E3.73559
G1 X103.68 Y136.147 E3.74338
G1 X103.293 Y136.049 E3.75666
G1 X102.539 Y135.817 E3.7829
G1 X101.851 Y135.529 E3.8077
G1 X101.635 Y135.426 E3.81566
G1 X100.94 Y135.05 E3.84194
G1 X100.287 Y134.606 E3.86821
G1 X99.682 Y134.098 E3.89448
G1 X99.027 Y133.41 E3.92608
G1 X98.87 Y133.223 E3.9342
G1 X98.404 Y133.219 E3.9497
G1 X97.619 Y133.133 E3.97596
G1 X96.847 Y132.967 E4.00223
G1 X96.074 Y132.716 E4.02926
G1 X95.847 Y132.629 E4.03735
G1 X95.124 Y132.31 E4.06363
G1 X94.692 Y132.074 E4.08
G1 X93.908 Y131.555 E4.11127
G1 X93.588 Y131.314 E4.1246
G1 X93.399 Y131.167 E4.13256
G1 X92.981 Y130.831 E4.1504
G1 X92.705 Y130.604 E4.16228
G1 X92.122 Y130.072 E4.18854
G1 X91.544 Y129.421 E4.21749
G1 X91.396 Y129.234 E4.22542
G1 X90.938 Y128.59 E4.25171
G1 X90.547 Y127.904 E4.27797
G1 X90.228 Y127.182 E4.30422
G1 X89.973 Y126.393 E4.3318
G1 X89.898 Y126.096 E4.34199
G1 X89.435 Y125.865 E4.3592
G1 X88.768 Y125.443 E4.38545
G1 X88.147 Y124.955 E4.41172
G1 X87.578 Y124.406 E4.43802
G1 X87.415 Y124.232 E4.44595
G1 X86.905 Y123.629 E4.47221
G1 X86.617 Y123.226 E4.48869
G1 X86.589 Y123.184 E4.49037
G1 X86.146 Y122.431 E4.51943
G1 X85.964 Y122.078 E4.53263
G1 X85.726 Y121.592 E4.55063
G1 X85.474 Y121.05 E4.57051
G1 X85.18 Y120.317 E4.59678
G1 X84.937 Y119.449 E4.62676
G1 X84.885 Y119.211 E4.63486
G1 X84.755 Y118.432 E4.66113
G1 X84.706 Y117.644 E4.68739
G1 X84.736 Y116.855 E4.71365
G1 X84.85 Y116.048 E4.74076
G1 X84.904 Y115.78 E4.74985
G1 X84.546 Y115.308 E4.76956
G1 X84.134 Y114.634 E4.79583
G1 X83.793 Y113.922 E4.82209
G1 X83.541 Y113.229 E4.84661
G1 X83.471 Y113.004 E4.85445
G1 X83.217 Y111.919 E4.89151
G1 X83.209 Y111.869 E4.8932
G1 X83.113 Y110.834 E4.92777
G1 X83.103 Y110.438 E4.94094
G1 X83.1 Y109.859 E4.9602
G1 X83.11 Y109.287 E4.97923
G1 X83.166 Y108.499 E5.00551
G1 X83.302 Y107.715 E5.03197
G1 X83.355 Y107.482 E5.03992
G1 X83.569 Y106.722 E5.06618
G1 X83.859 Y105.987 E5.09246
G1 X84.221 Y105.286 E5.1187
G1 X84.686 Y104.578 E5.14687
G1 X84.882 Y104.319 E5.15768
G1 X84.773 Y103.805 E5.17515
G1 X84.689 Y103.02 E5.20141
G1 X84.684 Y102.23 E5.22769
G1 X84.764 Y101.411 E5.25506
G1 X84.8 Y101.173 E5.26306
G1 X84.935 Y100.488 E5.28628
G1 X84.946 Y100.443 E5.28782
G1 X85.172 Y99.686 E5.3141
G1 X85.412 Y99.089 E5.3355
G1 X85.577 Y98.723 E5.34885
G1 X85.826 Y98.2 E5.36812
G1 X85.899 Y98.05 E5.37367
G1 X86.078 Y97.696 E5.38686
G1 X86.47 Y97.011 E5.41311
G1 X86.989 Y96.293 E5.44258
G1 X87.142 Y96.105 E5.45064
G1 X87.671 Y95.518 E5.47692
G1 X88.256 Y94.988 E5.50318
G1 X88.892 Y94.52 E5.52944
G1 X89.548 Y94.131 E5.55481
G1 X89.834 Y93.985 E5.56549
G1 X89.97 Y93.439 E5.5842
G1 X90.237 Y92.696 E5.61046
G1 X90.578 Y91.984 E5.63672
G1 X90.98 Y91.323 E5.66245
G1 X91.111 Y91.13 E5.67021
G1 X91.822 Y90.233 E5.70828
G1 X91.856 Y90.196 E5.70995
G0 F6000 X92.15 Y90.467
G1 F1200 X92.842 Y89.806 E5.74178
G1 X93.291 Y89.431 E5.76124
G1 X93.636 Y89.156 E5.77591
G1 X93.996 Y88.877 E5.79106
G1 X94.628 Y88.438 E5.81665
G1 X95.393 Y88.023 E5.8456
G1 X95.611 Y87.921 E5.8536
G1 X96.324 Y87.632 E5.87919
G1 X97.062 Y87.418 E5.90475
G1 X97.819 Y87.282 E5.93033
G1 X98.466 Y87.229 E5.95192
G1 X98.703 Y87.22 E5.95981
G1 X98.966 Y87.224 E5.96856
G1 X99.409 Y86.684 E5.99179
G1 X99.956 Y86.143 E6.01738
G1 X100.556 Y85.662 E6.04296
G1 X101.2 Y85.248 E6.06842
G1 X101.406 Y85.13 E6.07632
G1 X102.311 Y84.69 E6.10978
G1 X102.358 Y84.671 E6.11147
G1 X103.272 Y84.369 E6.14349
G1 X103.615 Y84.28 E6.15527
G1 X103.835 Y84.227 E6.1628
G1 X104.402 Y84.099 E6.18213
G1 X104.749 Y84.025 E6.19393
G1 X105.508 Y83.904 E6.2195
G1 X106.353 Y83.862 E6.24764
G1 X106.596 Y83.864 E6.25572
G1 X107.364 Y83.911 E6.28131
G1 X108.122 Y84.036 E6.30686
G1 X108.864 Y84.24 E6.33246
G1 X109.532 Y84.498 E6.35627
G1 X109.942 Y84.692 E6.37136
G1 X110.582 Y84.396 E6.39481
G1 X111.31 Y84.146 E6.42041
G1 X112.059 Y83.974 E6.44597
G1 X112.807 Y83.881 E6.47104
G1 X113.042 Y83.864 E6.47888
G1 X113.891 Y83.852 E6.50712
G1 X113.938 Y83.854 E6.50869
G1 X115.078 Y83.991 E6.54688
G1 X115.472 Y84.07 E6.56024
G1 X116.006 Y84.189 E6.57844
G1 X116.222 Y84.24 E6.58582
G1 X116.609 Y84.338 E6.5991
G1 X117.343 Y84.566 E6.62466
G1 X117.977 Y84.833 E6.64754
G1 X118.193 Y84.936 E6.6555
G1 X118.869 Y85.302 E6.68107
G1 X119.504 Y85.737 E6.70667
G1 X120.089 Y86.236 E6.73224
G1 X120.668 Y86.847 E6.76024
G1 X120.932 Y87.175 E6.77424
G1 X121.592 Y87.181 E6.7962
G1 X122.356 Y87.268 E6.82177
G1 X123.107 Y87.435 E6.84736
G1 X123.777 Y87.655 E6.87082
G1 X124.002 Y87.741 E6.87883
G1 X124.98 Y88.199 E6.91475
G1 X125.021 Y88.222 E6.91631
G1 X125.862 Y88.772 E6.94973
G1 X126.181 Y89.013 E6.96303
G1 X126.351 Y89.145 E6.97019
G1 X126.765 Y89.478 E6.98786
G1 X127.041 Y89.705 E6.99974
G1 X127.608 Y90.224 E7.02531
G1 X128.143 Y90.828 E7.05215
G1 X128.291 Y91.015 E7.06008
G1 X128.736 Y91.642 E7.08565
G1 X129.114 Y92.312 E7.11124
G1 X129.42 Y93.017 E7.1368
G1 X129.641 Y93.71 E7.16099
G1 X129.751 Y94.175 E7.17689
G1 X130.385 Y94.493 E7.20048
G1 X131.033 Y94.907 E7.22605
G1 X131.635 Y95.386 E7.25164
G1 X132.131 Y95.868 E7.27464
G1 X132.294 Y96.042 E7.28257
G1 X132.789 Y96.63 E7.30814
G1 X133.053 Y97.001 E7.32328
G1 X133.497 Y97.75 E7.35224
G1 X133.759 Y98.261 E7.37134
G1 X133.976 Y98.712 E7.38799
G1 X134.16 Y99.11 E7.40257
G1 X134.446 Y99.824 E7.42815
G1 X134.674 Y100.642 E7.4564
G1 X134.726 Y100.881 E7.46453
G1 X134.85 Y101.64 E7.49011
G1 X134.895 Y102.408 E7.5157
G1 X134.86 Y103.176 E7.54127
G1 X134.757 Y103.876 E7.5648
G1 X134.661 Y104.31 E7.57959
G1 X135.126 Y104.92 E7.6051
G1 X135.525 Y105.578 E7.63069
G1 X135.854 Y106.273 E7.65627
G1 X136.066 Y106.857 E7.67693
G1 X136.138 Y107.085 E7.68488
G1 X136.388 Y108.144 E7.72107
G1 X136.396 Y108.194 E7.72276
G1 X136.487 Y109.176 E7.75556
G1 X136.497 Y109.572 E7.76874
G1 X136.5 Y110.142 E7.78769
G1 X136.49 Y110.705 E7.80642
G1 X136.435 Y111.472 E7.832
G1 X136.308 Y112.196 E7.85645
G1 X136.255 Y112.429 E7.86439
G1 X136.045 Y113.169 E7.88998
G1 X135.76 Y113.884 E7.91558
G1 X135.403 Y114.565 E7.94115
G1 X134.992 Y115.184 E7.96587
G1 X134.848 Y115.379 E7.97393
G1 X134.687 Y115.574 E7.98234
G1 X134.835 Y116.278 E8.00627
G1 X134.914 Y117.043 E8.03184
G1 X134.914 Y117.812 E8.05742
G1 X134.841 Y118.529 E8.08139
G1 X134.805 Y118.767 E8.0894
G1 X134.676 Y119.417 E8.11144
G1 X134.665 Y119.462 E8.11298
G1 X134.444 Y120.199 E8.13857
G1 X134.223 Y120.746 E8.15819
G1 X133.986 Y121.268 E8.17726
G1 X133.744 Y121.769 E8.19577
G1 X133.565 Y122.123 E8.20896
G1 X133.182 Y122.791 E8.23457
G1 X132.701 Y123.455 E8.26184
G1 X132.548 Y123.643 E8.2699
G1 X132.032 Y124.214 E8.2955
G1 X131.459 Y124.727 E8.32108
G1 X130.837 Y125.179 E8.34665
G1 X130.265 Y125.515 E8.36872
G1 X130.053 Y125.627 E8.37669
G1 X129.824 Y125.733 E8.38509
G1 X129.641 Y126.464 E8.41015
G1 X129.378 Y127.186 E8.43571
G1 X129.041 Y127.878 E8.46131
G1 X128.689 Y128.452 E8.4837
G1 X128.558 Y128.645 E8.49146
G1 X127.884 Y129.496 E8.52757
G1 X127.85 Y129.533 E8.52924
G1 X127.158 Y130.194 E8.56107
G1 X126.709 Y130.569 E8.58052
G1 X126.364 Y130.844 E8.5952
G1 X126.004 Y131.123 E8.61035
G1 X125.372 Y131.562 E8.63594
G1 X124.607 Y131.977 E8.66489
G1 X124.389 Y132.079 E8.67289
G1 X123.676 Y132.368 E8.69848
G1 X122.938 Y132.582 E8.72404
G1 X122.181 Y132.718 E8.74962
G1 X121.534 Y132.771 E8.77121
G1 X121.297 Y132.78 E8.7791
G1 X121.034 Y132.776 E8.78785
G1 X120.591 Y133.316 E8.81108
G1 X120.044 Y133.857 E8.83667
G1 X119.444 Y134.338 E8.86224
G1 X118.8 Y134.752 E8.88771
G1 X118.594 Y134.87 E8.8956
G1 X117.689 Y135.31 E8.92907
G1 X117.642 Y135.329 E8.93076
G1 X116.728 Y135.631 E8.96278
G1 X116.385 Y135.72 E8.97456
G1 X116.165 Y135.773 E8.98209
G1 X115.598 Y135.901 E9.00142
G1 X115.251 Y135.975 E9.01322
G1 X114.492 Y136.096 E9.03878
G1 X113.647 Y136.138 E9.06692
G1 X113.404 Y136.136 E9.07501
G1 X112.636 Y136.089 E9.1006
G1 X111.878 Y135.964 E9.12615
G1 X111.136 Y135.76 E9.15174
G1 X110.468 Y135.502 E9.17556
G1 X110.058 Y135.308 E9.19065
G1 X109.418 Y135.604 E9.2141
G1 X108.69 Y135.854 E9.2397
G1 X107.941 Y136.026 E9.26526
G1 X107.193 Y136.119 E9.29033
G1 X106.958 Y136.136 E9.29817
G1 X106.109 Y136.148 E9.32641
G1 X106.062 Y136.146 E9.32797
G1 X104.922 Y136.009 E9.36616
G1 X104.528 Y135.93 E9.37953
G1 X103.994 Y135.811 E9.39773
G1 X103.778 Y135.76 E9.40511
G1 X103.391 Y135.662 E9.41839
G1 X102.657 Y135.434 E9.44395
G1 X102.023 Y135.167 E9.46683
G1 X101.807 Y135.064 E9.47479
G1 X101.131 Y134.698 E9.50036
G1 X100.496 Y134.263 E9.52596
G1 X99.911 Y133.764 E9.55153
G1 X99.332 Y133.153 E9.57953
G1 X99.068 Y132.825 E9.59353
G1 X98.408 Y132.819 E9.61549
G1 X97.644 Y132.732 E9.64106
G1 X96.893 Y132.565 E9.66665
G1 X96.217 Y132.343 E9.69031
G1 X95.99 Y132.256 E9.6984
G1 X95.287 Y131.944 E9.72398
G1 X94.892 Y131.728 E9.73895
G1 X94.148 Y131.235 E9.76864
G1 X93.828 Y130.994 E9.78196
G1 X93.649 Y130.855 E9.7895
G1 X93.235 Y130.522 E9.80717
G1 X92.959 Y130.295 E9.81906
G1 X92.392 Y129.776 E9.84462
G1 X91.857 Y129.172 E9.87146
G1 X91.709 Y128.985 E9.87939
G1 X91.264 Y128.358 E9.90497
G1 X90.886 Y127.688 E9.93055
G1 X90.58 Y126.983 E9.95611
G1 X90.359 Y126.29 E9.98031
G1 X90.249 Y125.825 E9.9962
G1 X89.615 Y125.507 E10.01979
G1 X88.967 Y125.093 E10.04537
G1 X88.365 Y124.614 E10.07095
