;FLAVOR:Marlin
;TIME:1155
;Filament used: 0.616885m
;Layer height: 0.2
;MINX:69.5
;MINY:90.886
;MINZ:0.2
;MAXX:150.5
;MAXY:129.096
;MAXZ:5
;Generated with Cura_SteamEngine 4.13.1
M140 S65
M105
M190 S65
M104 S200
M105
M109 S200
M82 ;absolute extrusion mode
; Script based on an original created by tjjfvi (https://github.com/tjjfvi)
; An up-to-date version of the tjjfvi's original script can be found
; here:  https://csi.t6.fyi/
; Note - This script will only work in Cura V4.2 and above!
; --- Global Settings
; layer_height = 0.2
; smooth_spiralized_contours = True
; magic_mesh_surface_mode = normal
; machine_extruder_count = 1
; --- Single Extruder Settings
; speed_z_hop = 5
; retraction_amount = 6.5
; retraction_hop = 0.2
; retraction_hop_enabled = False
; retraction_enable = True
; retraction_speed = 25
; retraction_retract_speed = 25
; retraction_prime_speed = 25
; speed_travel = 150.0

; Ender 3 Custom Start G-code
G92 E0 ; Reset Extruder
G28 ; Home all axes
G1 Z2.0 F3000 ; Move Z Axis up little to prevent scratching of Heat Bed
G1 X0.1 Y20 Z0.3 F5000.0 ; Move to start position
G1 X0.1 Y200.0 Z0.3 F1500.0 E15 ; Draw the first line
G1 X0.4 Y200.0 Z0.3 F5000.0 ; Move to side a little
G1 X0.4 Y20 Z0.3 F1500.0 E30 ; Draw the second line
G92 E0 ; Reset Extruder
G1 Z2.0 F3000 ; Move Z Axis up little to prevent scratching of Heat Bed
G1 X5 Y20 Z0.3 F5000.0 ; Move over to prevent blob squish
G92 E0
G92 E0
G1 F1500 E-6.5
;LAYER_COUNT:25
;LAYER:0
M107
G0 F6000 X73.386 Y93.515 Z0.2
;TYPE:SKIRT
G1 F1500 E0
G1 F1200 X74.126 Y92.939 E0.03119
G1 X74.912 Y92.427 E0.06239
G1 X75.739 Y91.985 E0.09358
G1 X76.601 Y91.615 E0.12478
G1 X77.491 Y91.319 E0.15597
G1 X78.403 Y91.101 E0.18716
G1 X79.33 Y90.96 E0.21835
G1 X80.201 Y90.901 E0.24738
G1 X80.522 Y90.892 E0.25806
G1 X80.828 Y90.888 E0.26824
G1 X91.54 Y90.886 E0.62453
G1 X92.552 Y90.89 E0.65818
G1 X92.776 Y90.888 E0.66564
G1 X103.52 Y90.888 E1.02298
G1 X104.532 Y90.89 E1.05664
G1 X104.776 Y90.888 E1.06476
G1 X115.52 Y90.888 E1.4221
G1 X116.532 Y90.89 E1.45576
G1 X116.776 Y90.888 E1.46388
G1 X127.52 Y90.888 E1.82123
G1 X128.532 Y90.89 E1.85489
G1 X128.776 Y90.888 E1.863
G1 X138.951 Y90.889 E2.20142
G1 X139.649 Y90.899 E2.22464
G1 X140.585 Y90.953 E2.25582
G1 X141.513 Y91.085 E2.287
G1 X142.427 Y91.297 E2.31821
G1 X143.319 Y91.586 E2.34939
G1 X144.184 Y91.949 E2.38059
G1 X145.014 Y92.385 E2.41178
G1 X145.805 Y92.89 E2.44299
G1 X146.549 Y93.461 E2.47418
G1 X147.242 Y94.093 E2.50538
G1 X147.879 Y94.781 E2.53656
G1 X148.454 Y95.522 E2.56776
G1 X148.965 Y96.308 E2.59894
G1 X149.407 Y97.136 E2.63016
G1 X149.776 Y97.998 E2.66135
G1 X150.071 Y98.888 E2.69253
G1 X150.289 Y99.8 E2.72372
G1 X150.429 Y100.728 E2.75493
G1 X150.487 Y101.589 E2.78363
G1 X150.496 Y101.909 E2.79428
G1 X150.5 Y102.218 E2.80456
G1 X150.499 Y109.316 E3.04064
G1 X150.489 Y110.032 E3.06446
G1 X150.404 Y111.251 E3.1051
G1 X150.31 Y111.999 E3.13017
G1 X150.145 Y113.526 E3.18126
G1 X150.1 Y113.824 E3.19128
G1 X149.965 Y115.011 E3.23102
G1 X149.779 Y116.126 E3.26861
G1 X149.66 Y116.661 E3.28684
G1 X149.557 Y117.089 E3.30148
G1 X149.202 Y118.267 E3.34241
G1 X149.083 Y118.595 E3.35401
G1 X148.947 Y118.952 E3.36672
G1 X148.829 Y119.245 E3.37722
G1 X148.39 Y120.199 E3.41215
G1 X148.264 Y120.442 E3.42126
G1 X148.077 Y120.789 E3.43437
G1 X147.868 Y121.159 E3.4485
G1 X147.172 Y122.238 E3.49121
G1 X146.871 Y122.65 E3.50818
G1 X146.65 Y122.943 E3.52038
G1 X146.502 Y123.132 E3.52837
G1 X145.717 Y124.029 E3.56801
G1 X145.444 Y124.309 E3.58102
G1 X145.21 Y124.542 E3.592
G1 X144.975 Y124.769 E3.60287
G1 X144.015 Y125.595 E3.64499
G1 X143.624 Y125.894 E3.66136
G1 X143.34 Y126.104 E3.67311
G1 X143.133 Y126.252 E3.68157
G1 X142.075 Y126.921 E3.72321
G1 X141.659 Y127.152 E3.73903
G1 X141.354 Y127.315 E3.75054
G1 X141.117 Y127.437 E3.7594
G1 X140.27 Y127.828 E3.79043
G1 X140.1 Y127.898 E3.79655
G1 X139.588 Y128.094 E3.81478
G1 X139.165 Y128.244 E3.82971
G1 X138.005 Y128.585 E3.86992
G1 X137.605 Y128.679 E3.88359
G1 X137.295 Y128.747 E3.89414
G1 X136.914 Y128.825 E3.90708
G1 X135.622 Y129.011 E3.95049
G1 X135.118 Y129.053 E3.96732
G1 X134.785 Y129.076 E3.97842
G1 X134.577 Y129.087 E3.98535
G1 X133.643 Y129.096 E4.01641
G1 X133.425 Y129.089 E4.02367
G1 X133.119 Y129.075 E4.03385
G1 X132.669 Y129.048 E4.04885
G1 X132.562 Y129.044 E4.05241
G1 X130.896 Y128.934 E4.10794
G1 X128.388 Y128.839 E4.19142
G1 X125.892 Y128.816 E4.27444
G1 X123.341 Y128.863 E4.3593
G1 X122.968 Y128.88 E4.37172
G1 X122.737 Y128.888 E4.37941
G1 X122.267 Y128.899 E4.39504
G1 X121.689 Y128.897 E4.41427
G1 X121.449 Y128.89 E4.42225
G1 X121.105 Y128.875 E4.43371
G1 X118.869 Y128.732 E4.50823
G1 X116.323 Y128.639 E4.59296
G1 X113.794 Y128.617 E4.67708
G1 X111.249 Y128.667 E4.76175
G1 X110.714 Y128.688 E4.77955
G1 X110.263 Y128.699 E4.79456
G1 X109.686 Y128.698 E4.81375
G1 X109.508 Y128.693 E4.81967
G1 X109.184 Y128.679 E4.83046
G1 X108.382 Y128.632 E4.85718
G1 X107.073 Y128.544 E4.90081
G1 X104.508 Y128.443 E4.98619
G1 X102.018 Y128.415 E5.06902
G1 X99.482 Y128.459 E5.15338
G1 X98.803 Y128.486 E5.17598
G1 X98.265 Y128.499 E5.19388
G1 X97.659 Y128.497 E5.21403
G1 X97.465 Y128.491 E5.22049
G1 X97.182 Y128.478 E5.22991
G1 X96.383 Y128.432 E5.25653
G1 X94.973 Y128.338 E5.30353
G1 X92.425 Y128.24 E5.38834
G1 X89.937 Y128.216 E5.47109
G1 X87.399 Y128.262 E5.55552
G1 X86.998 Y128.278 E5.56887
G1 X86.274 Y128.296 E5.59296
G1 X85.629 Y128.293 E5.61441
G1 X85.422 Y128.286 E5.6213
G1 X84.921 Y128.257 E5.63799
G1 X84.582 Y128.23 E5.6493
G1 X83.291 Y128.05 E5.69266
G1 X82.653 Y127.922 E5.7143
G1 X82.269 Y127.838 E5.72737
G1 X82.08 Y127.793 E5.73384
G1 X80.924 Y127.449 E5.77395
G1 X80.65 Y127.351 E5.78363
G1 X80.344 Y127.237 E5.79449
G1 X80.063 Y127.127 E5.80453
G1 X79.099 Y126.695 E5.83966
G1 X78.882 Y126.585 E5.84775
G1 X78.486 Y126.374 E5.86268
G1 X78.141 Y126.181 E5.87583
G1 X77.081 Y125.506 E5.91762
G1 X76.659 Y125.202 E5.93492
G1 X76.297 Y124.93 E5.94998
G1 X76.125 Y124.795 E5.95725
G1 X75.25 Y124.03 E5.99591
G1 X75.036 Y123.822 E6.00584
G1 X74.814 Y123.6 E6.01628
G1 X74.574 Y123.353 E6.02773
G1 X73.743 Y122.393 E6.06996
G1 X73.47 Y122.038 E6.08486
G1 X73.289 Y121.795 E6.09494
G1 X73.175 Y121.638 E6.10139
G1 X72.473 Y120.54 E6.14474
G1 X72.23 Y120.105 E6.16131
G1 X72.085 Y119.837 E6.17144
G1 X71.971 Y119.619 E6.17963
G1 X71.447 Y118.457 E6.22202
G1 X71.285 Y118.032 E6.23715
G1 X71.205 Y117.815 E6.24484
G1 X70.842 Y116.628 E6.28613
G1 X70.542 Y115.404 E6.32804
G1 X70.156 Y113.782 E6.3835
G1 X69.985 Y113.133 E6.40582
G1 X69.852 Y112.612 E6.4237
G1 X69.659 Y111.694 E6.4549
G1 X69.545 Y110.763 E6.4861
G1 X69.515 Y110.221 E6.50415
G1 X69.505 Y109.888 E6.51523
G1 X69.5 Y109.558 E6.52621
G1 X69.501 Y102.413 E6.76386
G1 X69.51 Y101.748 E6.78598
G1 X69.563 Y100.812 E6.81716
G1 X69.695 Y99.883 E6.84837
G1 X69.906 Y98.969 E6.87957
G1 X70.194 Y98.077 E6.91074
G1 X70.557 Y97.212 E6.94194
G1 X70.992 Y96.381 E6.97314
G1 X71.496 Y95.591 E7.00431
G1 X72.066 Y94.846 E7.03551
G1 X72.698 Y94.152 E7.06673
G1 X73.386 Y93.515 E7.09791
G0 F6000 X73.774 Y93.711
G1 F1200 X74.51 Y93.158 E7.12853
G1 X75.291 Y92.67 E7.15916
G1 X76.111 Y92.252 E7.18977
G1 X76.965 Y91.907 E7.22041
G1 X77.845 Y91.637 E7.25102
G1 X78.745 Y91.445 E7.28163
G1 X79.659 Y91.331 E7.31227
G1 X80.212 Y91.301 E7.33068
G1 X80.533 Y91.292 E7.34137
G1 X80.828 Y91.288 E7.35118
G1 X91.539 Y91.286 E7.70743
G1 X92.554 Y91.29 E7.74119
G1 X92.779 Y91.288 E7.74867
G1 X103.519 Y91.288 E8.10588
G1 X104.534 Y91.29 E8.13964
G1 X104.779 Y91.288 E8.14779
G1 X115.519 Y91.288 E8.50501
G1 X116.534 Y91.29 E8.53877
G1 X116.779 Y91.288 E8.54691
G1 X127.519 Y91.288 E8.90413
G1 X128.534 Y91.29 E8.93789
G1 X128.779 Y91.288 E8.94604
G1 X138.945 Y91.289 E9.28416
G1 X139.643 Y91.299 E9.30738
G1 X140.562 Y91.352 E9.33799
G1 X141.473 Y91.485 E9.36862
G1 X142.369 Y91.696 E9.39923
G1 X143.243 Y91.984 E9.42984
G1 X144.09 Y92.347 E9.46049
G1 X144.901 Y92.782 E9.4911
G1 X145.671 Y93.286 E9.52171
G1 X146.395 Y93.855 E9.55233
G1 X147.067 Y94.485 E9.58297
G1 X147.682 Y95.17 E9.61359
G1 X148.235 Y95.906 E9.64421
G1 X148.722 Y96.687 E9.67482
G1 X149.139 Y97.508 E9.70545
G1 X149.484 Y98.362 E9.73608
G1 X149.753 Y99.242 E9.76669
G1 X149.945 Y100.143 E9.79733
G1 X150.058 Y101.056 E9.82793
G1 X150.087 Y101.6 E9.84604
G1 X150.096 Y101.92 E9.85669
G1 X150.1 Y102.218 E9.8666
G1 X150.099 Y109.31 E10.10249
G1 X150.089 Y110.026 E10.1263
G1 X150.007 Y111.201 E10.16548
G1 X149.918 Y111.906 E10.18911
G1 X149.748 Y113.483 E10.24187
G1 X149.7 Y113.798 E10.25247
G1 X149.567 Y114.966 E10.29156
G1 X149.389 Y116.04 E10.32777
G1 X149.271 Y116.567 E10.34573
G1 X149.168 Y116.995 E10.36038
G1 X148.826 Y118.13 E10.3998
G1 X148.707 Y118.458 E10.41141
G1 X148.576 Y118.803 E10.42368
G1 X148.458 Y119.096 E10.43419
G1 X148.035 Y120.015 E10.46784
G1 X147.909 Y120.258 E10.47694
G1 X147.728 Y120.592 E10.48958
G1 X147.519 Y120.962 E10.50371
G1 X146.849 Y122.002 E10.54486
G1 X146.548 Y122.414 E10.56183
G1 X146.335 Y122.696 E10.57358
G1 X146.187 Y122.885 E10.58157
G1 X145.431 Y123.75 E10.61978
G1 X145.158 Y124.03 E10.63278
G1 X144.932 Y124.254 E10.64337
G1 X144.697 Y124.481 E10.65423
G1 X143.772 Y125.277 E10.69482
G1 X143.381 Y125.576 E10.71119
G1 X143.107 Y125.779 E10.72254
G1 X142.9 Y125.927 E10.731
G1 X141.881 Y126.571 E10.77109
G1 X141.465 Y126.802 E10.78692
G1 X141.17 Y126.96 E10.79805
G1 X140.933 Y127.082 E10.80691
G1 X140.118 Y127.459 E10.83678
G1 X139.948 Y127.529 E10.8429
G1 X139.455 Y127.717 E10.86045
G1 X139.032 Y127.867 E10.87537
G1 X137.914 Y128.196 E10.91413
G1 X137.514 Y128.29 E10.9278
G1 X137.215 Y128.356 E10.93798
G1 X136.834 Y128.434 E10.95092
G1 X135.588 Y128.612 E10.99278
G1 X135.084 Y128.654 E11.0096
G1 X134.764 Y128.676 E11.02027
G1 X134.556 Y128.687 E11.0272
G1 X133.656 Y128.697 E11.05714
G1 X133.438 Y128.69 E11.06439
G1 X133.143 Y128.676 E11.07421
G1 X132.693 Y128.648 E11.08921
G1 X132.589 Y128.645 E11.09267
G1 X130.939 Y128.536 E11.14767
G1 X128.406 Y128.441 E11.23198
G1 X125.853 Y128.416 E11.31689
G1 X123.354 Y128.463 E11.40002
G1 X122.95 Y128.481 E11.41347
G1 X122.258 Y128.499 E11.4365
G1 X121.701 Y128.497 E11.45502
G1 X121.461 Y128.49 E11.46301
G1 X121.129 Y128.476 E11.47406
G1 X118.875 Y128.332 E11.54918
G1 X116.34 Y128.239 E11.63356
G1 X113.79 Y128.217 E11.71837
G1 X111.224 Y128.267 E11.80373
G1 X110.704 Y128.288 E11.82104
G1 X110.253 Y128.299 E11.83605
G1 X109.697 Y128.298 E11.85454
G1 X109.519 Y128.293 E11.86046
G1 X109.207 Y128.279 E11.87085
G1 X108.409 Y128.233 E11.89744
G1 X107.079 Y128.143 E11.94177
G1 X104.529 Y128.043 E12.02665
G1 X102.015 Y128.015 E12.11027
G1 X99.499 Y128.058 E12.19397
G1 X98.98 Y128.08 E12.21125
G1 X98.255 Y128.099 E12.23537
G1 X97.671 Y128.097 E12.25479
G1 X97.477 Y128.091 E12.26125
G1 X97.205 Y128.079 E12.2703
G1 X96.409 Y128.033 E12.29682
G1 X94.979 Y127.937 E12.34449
G1 X92.444 Y127.84 E12.42887
G1 X89.934 Y127.816 E12.51235
G1 X87.375 Y127.863 E12.59748
G1 X86.988 Y127.878 E12.61036
G1 X86.264 Y127.896 E12.63445
G1 X85.643 Y127.893 E12.6551
G1 X85.436 Y127.886 E12.66199
G1 X84.952 Y127.859 E12.67812
G1 X84.613 Y127.832 E12.68943
G1 X83.37 Y127.658 E12.73117
G1 X82.732 Y127.53 E12.75282
G1 X82.362 Y127.449 E12.76541
G1 X82.173 Y127.404 E12.77187
G1 X81.058 Y127.073 E12.81056
G1 X80.784 Y126.975 E12.82024
G1 X80.49 Y126.865 E12.83068
G1 X80.209 Y126.755 E12.84072
G1 X79.28 Y126.339 E12.87457
G1 X79.063 Y126.229 E12.88266
G1 X78.681 Y126.025 E12.89707
G1 X78.336 Y125.832 E12.91021
G1 X77.315 Y125.182 E12.95047
G1 X76.893 Y124.878 E12.96777
G1 X76.544 Y124.615 E12.9823
G1 X76.372 Y124.48 E12.98958
G1 X75.529 Y123.743 E13.02682
G1 X75.315 Y123.535 E13.03674
G1 X75.101 Y123.321 E13.04681
G1 X74.861 Y123.074 E13.05826
G1 X74.06 Y122.149 E13.09896
G1 X73.787 Y121.794 E13.11386
G1 X73.499 Y121.403 E13.13001
G1 X72.822 Y120.344 E13.17181
G1 X72.579 Y119.909 E13.18839
G1 X72.44 Y119.652 E13.1981
G1 X72.326 Y119.434 E13.20629
G1 X71.82 Y118.314 E13.24716
G1 X71.66 Y117.894 E13.26211
G1 X71.58 Y117.677 E13.2698
G1 X71.231 Y116.533 E13.30958
G1 X70.932 Y115.312 E13.3514
G1 X70.549 Y113.704 E13.40637
G1 X70.372 Y113.034 E13.42942
G1 X70.239 Y112.513 E13.44731
G1 X70.051 Y111.612 E13.47792
G1 X69.941 Y110.698 E13.50854
G1 X69.915 Y110.209 E13.52483
G1 X69.905 Y109.876 E13.53591
G1 X69.9 Y109.558 E13.54648
G1 X69.901 Y102.419 E13.78393
G1 X69.91 Y101.754 E13.80605
G1 X69.962 Y100.834 E13.8367
G1 X70.094 Y99.923 E13.86731
G1 X70.305 Y99.027 E13.89793
G1 X70.592 Y98.152 E13.92856
G1 X70.955 Y97.306 E13.95918
G1 X71.389 Y96.494 E13.9898
G1 X71.892 Y95.723 E14.02042
G1 X72.461 Y94.999 E14.05104
G1 X73.089 Y94.327 E14.08164
G1 X73.774 Y93.711 E14.11228
G0 F6000 X74.162 Y93.912
G1 F1200 X74.894 Y93.382 E14.14234
G1 X75.669 Y92.919 E14.17236
G1 X76.482 Y92.526 E14.2024
G1 X77.327 Y92.206 E14.23245
G1 X78.196 Y91.963 E14.26246
G1 X79.084 Y91.797 E14.29251
G1 X80.223 Y91.701 E14.33052
G1 X80.544 Y91.692 E14.3412
G1 X80.828 Y91.688 E14.35065
G1 X91.537 Y91.686 E14.70683
G1 X92.555 Y91.69 E14.74069
G1 X92.782 Y91.688 E14.74824
G1 X103.519 Y91.688 E15.10536
G1 X104.537 Y91.69 E15.13922
G1 X104.782 Y91.688 E15.14737
G1 X115.519 Y91.688 E15.50448
G1 X116.537 Y91.69 E15.53834
G1 X116.782 Y91.688 E15.54649
G1 X127.519 Y91.688 E15.9036
G1 X128.537 Y91.69 E15.93746
G1 X128.782 Y91.688 E15.94561
G1 X138.939 Y91.689 E16.28343
G1 X139.637 Y91.699 E16.30665
G1 X140.539 Y91.752 E16.3367
G1 X141.432 Y91.884 E16.36673
G1 X142.31 Y92.095 E16.39676
G1 X143.166 Y92.383 E16.4268
G1 X143.993 Y92.745 E16.45683
G1 X144.785 Y93.18 E16.48688
G1 X145.536 Y93.682 E16.51692
G1 X146.239 Y94.249 E16.54696
G1 X146.889 Y94.876 E16.577
G1 X147.481 Y95.558 E16.60704
G1 X148.011 Y96.289 E16.63707
G1 X148.473 Y97.065 E16.66711
G1 X148.866 Y97.878 E16.69714
G1 X149.184 Y98.723 E16.72717
G1 X149.427 Y99.593 E16.75721
G1 X149.592 Y100.481 E16.78726
G1 X149.687 Y101.611 E16.82497
G1 X149.696 Y101.931 E16.83562
G1 X149.7 Y102.218 E16.84517
G1 X149.699 Y109.304 E17.08085
G1 X149.689 Y110.02 E17.10466
G1 X149.61 Y111.151 E17.14237
G1 X149.52 Y111.87 E17.16647
G1 X149.35 Y113.44 E17.219
G1 X149.305 Y113.73 E17.22876
G1 X149.17 Y114.921 E17.26862
G1 X148.998 Y115.954 E17.30346
G1 X148.882 Y116.474 E17.32118
G1 X148.779 Y116.902 E17.33582
G1 X148.45 Y117.994 E17.37375
G1 X148.331 Y118.322 E17.38536
G1 X148.205 Y118.653 E17.39713
G1 X148.087 Y118.946 E17.40764
G1 X147.68 Y119.831 E17.44004
G1 X147.554 Y120.074 E17.44914
G1 X147.38 Y120.396 E17.46132
G1 X147.171 Y120.766 E17.47545
G1 X146.526 Y121.766 E17.51503
G1 X146.225 Y122.178 E17.532
G1 X146.02 Y122.45 E17.54333
G1 X145.872 Y122.639 E17.55131
G1 X145.144 Y123.471 E17.58808
G1 X144.871 Y123.751 E17.60109
G1 X144.655 Y123.966 E17.61123
G1 X144.42 Y124.193 E17.62209
G1 X143.529 Y124.959 E17.66117
G1 X143.138 Y125.258 E17.67755
G1 X142.874 Y125.453 E17.68846
G1 X142.667 Y125.601 E17.69693
G1 X141.687 Y126.221 E17.7355
G1 X141.271 Y126.452 E17.75132
G1 X140.987 Y126.604 E17.76204
G1 X140.75 Y126.726 E17.7709
G1 X139.966 Y127.089 E17.79964
G1 X139.796 Y127.159 E17.80575
G1 X139.321 Y127.34 E17.82266
G1 X138.898 Y127.49 E17.83759
G1 X137.822 Y127.807 E17.87489
G1 X137.422 Y127.901 E17.88856
G1 X137.135 Y127.964 E17.89833
G1 X136.754 Y128.042 E17.91127
G1 X135.555 Y128.214 E17.95156
G1 X135.051 Y128.256 E17.96838
G1 X134.743 Y128.277 E17.97864
G1 X134.535 Y128.288 E17.98557
G1 X133.669 Y128.297 E18.01438
G1 X133.451 Y128.29 E18.02163
G1 X133.167 Y128.277 E18.03109
G1 X132.717 Y128.249 E18.04608
G1 X132.615 Y128.246 E18.04948
G1 X130.944 Y128.135 E18.10518
G1 X128.425 Y128.041 E18.18902
G1 X125.849 Y128.016 E18.2747
G1 X123.329 Y128.063 E18.35853
G1 X122.932 Y128.081 E18.37175
G1 X122.249 Y128.099 E18.39447
G1 X121.713 Y128.098 E18.4123
G1 X121.473 Y128.091 E18.42029
G1 X121.153 Y128.076 E18.43094
G1 X120.685 Y128.048 E18.44653
G1 X118.877 Y127.932 E18.50679
G1 X116.359 Y127.839 E18.5906
G1 X113.785 Y127.817 E18.67621
G1 X111.243 Y127.867 E18.76078
G1 X110.695 Y127.888 E18.77902
G1 X110.244 Y127.899 E18.79402
G1 X109.709 Y127.898 E18.81182
G1 X109.531 Y127.893 E18.81774
G1 X109.23 Y127.88 E18.82776
G1 X108.436 Y127.834 E18.85421
