;FLAVOR:Marlin
;TIME:4051
;Filament used: 2.16293m
;Layer height: 0.2
;MINX:83.625
;MINY:83.56
;MINZ:0.2
;MAXX:136.424
;MAXY:136.326
;MAXZ:28.8
;Generated with Cura_SteamEngine 4.13.1
M140 S65
M105
M190 S65
M104 S200
M105
M109 S200
M82 ;absolute extrusion mode
; Script based on an original created by tjjfvi (https://github.com/tjjfvi)
; An up-to-date version of the tjjfvi's original script can be found
; here:  https://csi.t6.fyi/
; Note - This script will only work in Cura V4.2 and above!
; --- Global Settings
; layer_height = 0.2
; smooth_spiralized_contours = True
; magic_mesh_surface_mode = normal
; machine_extruder_count = 1
; --- Single Extruder Settings
; speed_z_hop = 5
; retraction_amount = 6.5
; retraction_hop = 0.2
; retraction_hop_enabled = False
; retraction_enable = True
; retraction_speed = 25
; retraction_retract_speed = 25
; retraction_prime_speed = 25
; speed_travel = 150.0

; Ender 3 Custom Start G-code
G92 E0 ; Reset Extruder
G28 ; Home all axes
G1 Z2.0 F3000 ; Move Z Axis up little to prevent scratching of Heat Bed
G1 X0.1 Y20 Z0.3 F5000.0 ; Move to start position
G1 X0.1 Y200.0 Z0.3 F1500.0 E15 ; Draw the first line
G1 X0.4 Y200.0 Z0.3 F5000.0 ; Move to side a little
G1 X0.4 Y20 Z0.3 F1500.0 E30 ; Draw the second line
G92 E0 ; Reset Extruder
G1 Z2.0 F3000 ; Move Z Axis up little to prevent scratching of Heat Bed
G1 X5 Y20 Z0.3 F5000.0 ; Move over to prevent blob squish
G92 E0
G92 E0
G1 F1500 E-6.5
;LAYER_COUNT:144
;LAYER:0
M107
G0 F6000 X90.315 Y91.877 Z0.2
;TYPE:SKIRT
G1 F1500 E0
G1 F1200 X91.817 Y90.391 E0.07027
G1 X92.251 Y89.97 E0.09038
G1 X92.845 Y89.45 E0.11664
G1 X93.488 Y88.992 E0.1429
G1 X94.175 Y88.602 E0.16917
G1 X94.847 Y88.302 E0.19365
G1 X95.111 Y88.199 E0.20308
G1 X95.86 Y87.95 E0.22933
G1 X96.449 Y87.811 E0.24946
G1 X97.265 Y87.651 E0.27711
G1 X97.389 Y87.498 E0.28366
G1 X97.798 Y87.073 E0.30328
G1 X98.299 Y86.591 E0.32641
G1 X98.918 Y86.055 E0.35364
G1 X99.143 Y85.88 E0.36312
G1 X99.79 Y85.427 E0.38939
G1 X100.48 Y85.043 E0.41565
G1 X101.205 Y84.729 E0.44193
G1 X101.644 Y84.58 E0.45735
G1 X102.635 Y84.276 E0.49183
G1 X103.199 Y84.126 E0.51124
G1 X104.099 Y83.922 E0.54193
G1 X104.626 Y83.789 E0.56001
G1 X105.401 Y83.635 E0.58629
G1 X106.187 Y83.56 E0.61255
G1 X106.977 Y83.564 E0.63883
G1 X107.666 Y83.634 E0.66186
G1 X107.946 Y83.675 E0.67127
G1 X109.037 Y83.916 E0.70843
G1 X109.713 Y84.117 E0.73189
G1 X110.172 Y84.213 E0.74749
G1 X110.393 Y84.136 E0.75527
G1 X111.151 Y83.914 E0.78154
G1 X111.827 Y83.784 E0.80444
G1 X112.106 Y83.743 E0.81382
G1 X112.892 Y83.668 E0.84008
G1 X113.65 Y83.671 E0.86529
G1 X114.486 Y83.715 E0.89313
G1 X115.271 Y83.796 E0.91938
G1 X115.813 Y83.9 E0.93774
G1 X116.824 Y84.131 E0.97223
G1 X117.375 Y84.278 E0.9912
G1 X118.369 Y84.583 E1.02578
G1 X119.111 Y84.853 E1.05204
G1 X119.823 Y85.196 E1.07833
G1 X120.495 Y85.609 E1.10456
G1 X120.917 Y85.92 E1.122
G1 X121.141 Y86.097 E1.13149
G1 X121.707 Y86.59 E1.15646
G1 X122.207 Y87.07 E1.17951
G1 X122.748 Y87.645 E1.20577
G1 X122.764 Y87.665 E1.20662
G1 X123.521 Y87.809 E1.23225
G1 X124.288 Y87.996 E1.25851
G1 X124.967 Y88.232 E1.28242
G1 X125.229 Y88.337 E1.29181
G1 X125.946 Y88.667 E1.31806
G1 X126.626 Y89.069 E1.34433
G1 X127.262 Y89.537 E1.37059
G1 X127.745 Y89.965 E1.39206
G1 X128.179 Y90.384 E1.41212
G1 X129.697 Y91.889 E1.48322
G1 X130.23 Y92.472 E1.50949
G1 X130.7 Y93.107 E1.53577
G1 X131.104 Y93.785 E1.56202
G1 X131.455 Y94.546 E1.58989
G1 X131.562 Y94.815 E1.59952
G1 X131.816 Y95.563 E1.6258
G1 X132.007 Y96.234 E1.649
G1 X132.184 Y97.003 E1.67525
G1 X132.229 Y97.331 E1.68626
G1 X132.888 Y97.89 E1.715
G1 X133.464 Y98.431 E1.74128
G1 X133.905 Y98.932 E1.76348
G1 X134.087 Y99.157 E1.77311
G1 X134.552 Y99.795 E1.79936
G1 X134.95 Y100.477 E1.82563
G1 X135.277 Y101.196 E1.8519
G1 X135.53 Y101.944 E1.87816
G1 X135.706 Y102.714 E1.90443
G1 X135.796 Y103.442 E1.92883
G1 X136.069 Y104.439 E1.96321
G1 X136.239 Y105.21 E1.98947
G1 X136.33 Y105.994 E2.01572
G1 X136.341 Y106.784 E2.042
G1 X136.257 Y107.676 E2.0718
G1 X136.213 Y107.964 E2.08149
G1 X136.054 Y108.738 E2.10777
G1 X135.818 Y109.491 E2.13402
G1 X135.584 Y110.01 E2.15295
G1 X135.601 Y110.046 E2.15428
G1 X135.902 Y110.777 E2.18057
G1 X136.177 Y111.745 E2.21404
G1 X136.251 Y112.09 E2.22578
G1 X136.377 Y112.87 E2.25205
G1 X136.424 Y113.658 E2.27831
G1 X136.391 Y114.447 E2.30458
G1 X136.278 Y115.229 E2.33085
G1 X136.17 Y115.701 E2.34696
G1 X135.691 Y117.531 E2.40988
G1 X135.452 Y118.284 E2.43615
G1 X135.139 Y119.009 E2.46242
G1 X134.754 Y119.698 E2.48867
G1 X134.52 Y120.051 E2.50275
G1 X133.865 Y120.98 E2.54056
G1 X133.578 Y121.361 E2.55643
G1 X133.389 Y121.597 E2.56648
G1 X132.865 Y122.187 E2.59273
G1 X132.284 Y122.722 E2.619
G1 X132.203 Y122.783 E2.62237
G1 X132.087 Y123.455 E2.64505
G1 X131.924 Y124.134 E2.66828
G1 X131.628 Y125.089 E2.70153
G1 X131.521 Y125.37 E2.71153
G1 X131.203 Y126.093 E2.7378
G1 X130.814 Y126.779 E2.76403
G1 X130.357 Y127.424 E2.79032
G1 X129.711 Y128.145 E2.82252
G1 X128.008 Y129.837 E2.90237
G1 X127.421 Y130.365 E2.92863
G1 X126.783 Y130.831 E2.9549
G1 X126.101 Y131.229 E2.98117
G1 X125.383 Y131.557 E3.00742
G1 X124.635 Y131.811 E3.0337
G1 X123.529 Y132.04 E3.07126
G1 X122.823 Y132.133 E3.09495
G1 X122.39 Y132.659 E3.11761
G1 X121.906 Y133.178 E3.14121
G1 X121.47 Y133.61 E3.16162
G1 X121.292 Y133.773 E3.16965
G1 X120.683 Y134.277 E3.19594
G1 X120.027 Y134.716 E3.2222
G1 X119.329 Y135.086 E3.24847
G1 X118.378 Y135.457 E3.28242
G1 X117.465 Y135.746 E3.31428
G1 X116.701 Y135.946 E3.34054
G1 X115.921 Y136.068 E3.3668
G1 X115.257 Y136.107 E3.38892
G1 X115.084 Y136.145 E3.39482
G1 X114.305 Y136.275 E3.42108
G1 X113.517 Y136.326 E3.44735
G1 X112.728 Y136.297 E3.47361
G1 X111.764 Y136.152 E3.50603
G1 X111.523 Y136.1 E3.51423
G1 X110.76 Y135.894 E3.54052
G1 X110.023 Y135.613 E3.56675
G1 X109.994 Y135.598 E3.56784
G1 X109.287 Y135.874 E3.59308
G1 X108.475 Y136.096 E3.62108
G1 X108.235 Y136.148 E3.62925
G1 X107.455 Y136.276 E3.65554
G1 X106.667 Y136.325 E3.6818
G1 X105.878 Y136.293 E3.70806
G1 X104.893 Y136.14 E3.74121
G1 X104.727 Y136.103 E3.74687
G1 X104 Y136.058 E3.7711
G1 X103.221 Y135.93 E3.79735
G1 X102.519 Y135.742 E3.82152
G1 X101.609 Y135.453 E3.85328
G1 X100.869 Y135.176 E3.87956
G1 X100.162 Y134.826 E3.9058
G1 X99.493 Y134.406 E3.93207
G1 X98.698 Y133.767 E3.966
G1 X98.517 Y133.601 E3.97417
G1 X98.089 Y133.177 E3.9942
G1 X97.607 Y132.661 E4.01769
G1 X97.179 Y132.154 E4.03976
G1 X96.74 Y132.084 E4.05454
G1 X95.991 Y131.885 E4.08032
G1 X95.759 Y131.811 E4.08842
G1 X95.019 Y131.533 E4.11471
G1 X94.312 Y131.182 E4.14096
G1 X93.644 Y130.762 E4.16721
G1 X93.022 Y130.275 E4.19348
G1 X92.62 Y129.902 E4.21172
G1 X92.263 Y129.546 E4.22849
G1 X91.873 Y129.347 E4.24305
G1 X91.21 Y128.919 E4.2693
G1 X90.592 Y128.427 E4.29557
G1 X90.028 Y127.874 E4.32184
G1 X89.523 Y127.267 E4.34811
G1 X89.081 Y126.613 E4.37436
G1 X88.708 Y125.917 E4.40063
G1 X88.449 Y125.301 E4.42285
G1 X88.345 Y125.021 E4.43279
G1 X88.078 Y124.147 E4.46318
G1 X87.913 Y123.468 E4.48642
G1 X87.776 Y122.75 E4.51073
G1 X87.427 Y122.462 E4.52578
G1 X86.627 Y121.609 E4.56468
G1 X86.481 Y121.428 E4.57241
G1 X85.866 Y120.679 E4.60465
G1 X85.396 Y120.044 E4.63092
G1 X84.993 Y119.365 E4.65718
G1 X84.661 Y118.648 E4.68346
G1 X84.403 Y117.902 E4.70972
G1 X84.221 Y117.133 E4.736
G1 X84.119 Y116.35 E4.76227
G1 X84.116 Y116.27 E4.76493
G1 X83.875 Y115.347 E4.79666
G1 X83.715 Y114.574 E4.82291
G1 X83.633 Y113.789 E4.84916
G1 X83.631 Y112.999 E4.87544
G1 X83.709 Y112.213 E4.90171
G1 X83.78 Y111.822 E4.91493
G1 X83.887 Y110.812 E4.94871
G1 X84.089 Y109.694 E4.98649
G1 X84.2 Y109.262 E5.00133
G1 X83.989 Y108.67 E5.02223
G1 X83.748 Y107.595 E5.05887
G1 X83.704 Y107.304 E5.06866
G1 X83.625 Y106.518 E5.09494
G1 X83.627 Y105.729 E5.12118
G1 X83.708 Y104.943 E5.14746
G1 X83.896 Y104.069 E5.17719
G1 X84.437 Y102.102 E5.24505
G1 X84.597 Y101.541 E5.26445
G1 X84.852 Y100.793 E5.29073
G1 X85.181 Y100.075 E5.317
G1 X85.581 Y99.394 E5.34327
G1 X86.049 Y98.755 E5.36962
G1 X86.233 Y98.529 E5.37931
G1 X86.762 Y97.943 E5.40557
G1 X87.236 Y97.506 E5.42701
G1 X87.833 Y97 E5.45304
G1 X87.862 Y96.806 E5.45956
G1 X88.001 Y96.233 E5.47917
G1 X88.191 Y95.563 E5.50234
G1 X88.444 Y94.817 E5.52854
G1 X88.551 Y94.547 E5.5382
G1 X88.878 Y93.829 E5.56444
G1 X89.277 Y93.147 E5.59072
G1 X89.743 Y92.509 E5.61699
G1 X90.315 Y91.877 E5.64535
G0 F6000 X90.597 Y92.161
G1 F1200 X92.096 Y90.678 E5.71548
G1 X92.53 Y90.257 E5.73559
G1 X93.109 Y89.751 E5.76116
G1 X93.737 Y89.308 E5.78673
G1 X94.408 Y88.932 E5.81231
G1 X94.992 Y88.675 E5.83353
G1 X95.256 Y88.572 E5.84295
G1 X95.986 Y88.33 E5.86853
G1 X96.526 Y88.204 E5.88698
G1 X97.484 Y88.017 E5.91944
G1 X97.701 Y87.749 E5.93091
G1 X98.076 Y87.361 E5.94886
G1 X98.577 Y86.879 E5.97198
G1 X99.164 Y86.371 E5.9978
G1 X99.389 Y86.196 E6.00728
G1 X100.02 Y85.756 E6.03287
G1 X100.693 Y85.384 E6.05844
G1 X101.762 Y84.962 E6.09667
G1 X102.753 Y84.658 E6.13115
G1 X103.288 Y84.516 E6.14956
G1 X104.199 Y84.31 E6.18062
G1 X104.724 Y84.177 E6.19863
G1 X105.479 Y84.028 E6.22423
G1 X106.245 Y83.958 E6.24981
G1 X107.014 Y83.967 E6.27539
G1 X107.608 Y84.03 E6.29526
G1 X107.888 Y84.071 E6.30467
G1 X108.923 Y84.299 E6.33992
G1 X109.614 Y84.504 E6.36389
G1 X110.2 Y84.627 E6.38381
G1 X110.525 Y84.514 E6.39525
G1 X111.263 Y84.298 E6.42083
G1 X111.885 Y84.18 E6.44189
G1 X112.164 Y84.139 E6.45126
G1 X112.93 Y84.067 E6.47685
G1 X113.629 Y84.07 E6.5001
G1 X114.465 Y84.114 E6.52795
G1 X115.23 Y84.195 E6.55353
G1 X115.724 Y84.29 E6.57027
G1 X116.735 Y84.521 E6.60476
G1 X117.258 Y84.661 E6.62277
G1 X118.252 Y84.966 E6.65735
G1 X118.974 Y85.229 E6.6829
G1 X119.666 Y85.566 E6.7085
G1 X120.318 Y85.973 E6.73407
G1 X120.669 Y86.234 E6.74862
G1 X120.893 Y86.411 E6.75811
G1 X121.43 Y86.879 E6.7818
G1 X121.93 Y87.359 E6.80486
G1 X122.456 Y87.92 E6.83043
G1 X122.543 Y88.03 E6.8351
G1 X123.446 Y88.202 E6.86567
G1 X124.194 Y88.385 E6.89129
G1 X124.818 Y88.603 E6.91327
G1 X125.08 Y88.708 E6.92266
G1 X125.778 Y89.031 E6.94824
G1 X126.439 Y89.424 E6.97382
G1 X127.055 Y89.885 E6.99941
G1 X127.467 Y90.253 E7.01778
G1 X127.97 Y90.74 E7.04107
G1 X129.416 Y92.173 E7.10878
G1 X129.933 Y92.742 E7.13435
G1 X130.389 Y93.362 E7.15994
G1 X130.778 Y94.025 E7.18551
G1 X131.083 Y94.694 E7.20997
G1 X131.19 Y94.963 E7.21959
G1 X131.431 Y95.672 E7.2445
G1 X131.622 Y96.343 E7.26771
G1 X131.794 Y97.093 E7.2933
G1 X131.854 Y97.538 E7.30823
G1 X132.629 Y98.195 E7.34203
G1 X133.189 Y98.723 E7.36762
G1 X133.594 Y99.183 E7.38801
G1 X133.776 Y99.408 E7.39763
G1 X134.228 Y100.03 E7.42321
G1 X134.613 Y100.696 E7.44879
G1 X134.927 Y101.399 E7.4744
G1 X135.166 Y102.13 E7.49998
G1 X135.328 Y102.882 E7.52557
G1 X135.373 Y103.41 E7.54319
G1 X135.683 Y104.544 E7.58229
G1 X135.848 Y105.296 E7.6079
G1 X135.933 Y106.06 E7.63347
G1 X135.939 Y106.829 E7.65904
G1 X135.861 Y107.616 E7.68535
G1 X135.817 Y107.904 E7.69504
G1 X135.662 Y108.657 E7.72061
G1 X135.429 Y109.39 E7.74619
G1 X135.145 Y110.015 E7.76902
G1 X135.24 Y110.217 E7.77645
G1 X135.532 Y110.929 E7.80204
G1 X135.785 Y111.829 E7.83314
G1 X135.859 Y112.174 E7.84487
G1 X135.981 Y112.933 E7.87044
G1 X136.024 Y113.701 E7.89603
G1 X135.987 Y114.47 E7.92163
G1 X135.783 Y115.6 E7.95982
G1 X135.304 Y117.43 E8.02274
G1 X135.071 Y118.163 E8.04832
G1 X134.763 Y118.868 E8.07391
G1 X134.193 Y119.82 E8.11082
G1 X133.538 Y120.749 E8.14862
G1 X133.266 Y121.111 E8.16368
G1 X133.077 Y121.347 E8.17374
G1 X132.566 Y121.921 E8.1993
G1 X131.997 Y122.44 E8.22491
G1 X131.84 Y122.55 E8.23129
G1 X131.698 Y123.361 E8.25868
G1 X131.535 Y124.04 E8.2819
G1 X131.255 Y124.946 E8.31344
G1 X131.148 Y125.227 E8.32344
G1 X130.837 Y125.931 E8.34904
G1 X130.455 Y126.599 E8.37463
G1 X130.006 Y127.223 E8.4002
G1 X129.43 Y127.861 E8.42879
G1 X129.045 Y128.241 E8.44678
G1 X127.726 Y129.553 E8.50866
G1 X127.153 Y130.067 E8.53426
G1 X126.53 Y130.518 E8.55984
G1 X125.864 Y130.902 E8.58541
G1 X125.161 Y131.215 E8.61101
G1 X124.43 Y131.453 E8.63658
G1 X123.477 Y131.643 E8.6689
G1 X122.617 Y131.757 E8.69775
G1 X122.098 Y132.386 E8.72487
G1 X121.614 Y132.905 E8.74848
G1 X121.2 Y133.315 E8.76786
G1 X121.022 Y133.478 E8.77588
G1 X120.428 Y133.968 E8.8015
G1 X119.787 Y134.393 E8.82708
G1 X119.105 Y134.749 E8.85266
G1 X118.257 Y135.076 E8.88289
G1 X117.344 Y135.365 E8.91474
G1 X116.6 Y135.559 E8.94032
G1 X115.839 Y135.674 E8.96592
G1 X115.202 Y135.709 E8.98713
G1 X114.998 Y135.754 E8.99408
G1 X114.239 Y135.88 E9.01967
G1 X113.471 Y135.927 E9.04526
G1 X112.703 Y135.893 E9.07083
G1 X111.848 Y135.761 E9.09961
G1 X111.607 Y135.709 E9.10781
G1 X110.865 Y135.507 E9.13338
G1 X110.147 Y135.23 E9.15898
G1 X109.993 Y135.152 E9.16472
G1 X109.84 Y135.23 E9.17043
G1 X109.122 Y135.507 E9.19603
G1 X108.39 Y135.705 E9.22125
G1 X108.15 Y135.757 E9.22942
G1 X107.391 Y135.881 E9.255
G1 X106.623 Y135.925 E9.28058
G1 X105.855 Y135.889 E9.30616
G1 X104.979 Y135.749 E9.33566
G1 X104.789 Y135.707 E9.34213
G1 X104.025 Y135.658 E9.3676
G1 X103.267 Y135.53 E9.39316
G1 X102.64 Y135.361 E9.41476
G1 X101.73 Y135.072 E9.44652
G1 X101.01 Y134.801 E9.47211
G1 X100.322 Y134.457 E9.49769
G1 X99.674 Y134.044 E9.52325
G1 X98.968 Y133.473 E9.55345
G1 X98.787 Y133.307 E9.56162
G1 X98.381 Y132.904 E9.58064
G1 X97.899 Y132.388 E9.60413
G1 X97.404 Y131.8 E9.62969
G1 X97.394 Y131.784 E9.63032
G1 X96.784 Y131.684 E9.65088
G1 X96.112 Y131.504 E9.67402
G1 X95.88 Y131.43 E9.68212
G1 X95.161 Y131.159 E9.70767
G1 X94.473 Y130.814 E9.73327
G1 X93.825 Y130.4 E9.75885
G1 X93.223 Y129.92 E9.78446
G1 X92.902 Y129.618 E9.79912
G1 X92.501 Y129.218 E9.81795
G1 X92.055 Y128.99 E9.83461
G1 X91.411 Y128.571 E9.86017
G1 X90.813 Y128.087 E9.88576
G1 X90.268 Y127.544 E9.91134
G1 X89.783 Y126.947 E9.93693
G1 X89.363 Y126.303 E9.9625
G1 X89.011 Y125.619 E9.98809
G1 X88.824 Y125.162 E10.00451
G1 X88.72 Y124.882 E10.01444
G1 X88.466 Y124.052 E10.04331
G1 X88.301 Y123.373 E10.06655
G1 X88.159 Y122.618 E10.09211
G1 X88.154 Y122.544 E10.09457
G1 X87.668 Y122.14 E10.11559
G1 X86.938 Y121.358 E10.15117
G1 X86.75 Y121.125 E10.16113
G1 X86.175 Y120.425 E10.19126
G1 X85.718 Y119.806 E10.21685
G1 X85.329 Y119.143 E10.24242
G1 X85.01 Y118.443 E10.268
G1 X84.765 Y117.714 E10.29358
G1 X84.598 Y116.963 E10.31917
G1 X84.509 Y116.19 E10.34505
G1 X84.262 Y115.246 E10.37751
G1 X84.107 Y114.493 E10.40308
G1 X84.03 Y113.728 E10.42865
G1 X84.034 Y112.958 E10.45426
G1 X84.165 Y111.987 E10.48685
G1 X84.285 Y110.854 E10.52474
G1 X84.476 Y109.794 E10.56057
G1 X84.617 Y109.245 E10.57942
G1 X84.361 Y108.517 E10.60508
G1 X84.143 Y107.535 E10.63854
G1 X84.099 Y107.244 E10.64833
G1 X84.024 Y106.479 E10.6739
G1 X84.028 Y105.71 E10.69947
G1 X84.113 Y104.945 E10.72507
G1 X84.281 Y104.175 E10.75129
G1 X84.822 Y102.211 E10.81904
G1 X84.982 Y101.65 E10.83845
G1 X85.231 Y100.923 E10.864
G1 X85.554 Y100.225 E10.88959
G1 X85.948 Y99.564 E10.91518
G1 X86.359 Y99.008 E10.93818
G1 X86.543 Y98.782 E10.94787
G1 X87.059 Y98.211 E10.97347
G1 X87.494 Y97.811 E10.99312
G1 X88.206 Y97.207 E11.02418
G1 X88.258 Y96.866 E11.03565
G1 X88.386 Y96.342 E11.05359
G1 X88.576 Y95.672 E11.07675
G1 X88.816 Y94.965 E11.10159
G1 X88.923 Y94.695 E11.11125
G1 X89.243 Y93.995 E11.13685
G1 X89.634 Y93.333 E11.16242
G1 X90.091 Y92.715 E11.18798
G1 X90.597 Y92.161 E11.21294
G0 F6000 X90.878 Y92.446
G1 F1200 X92.374 Y90.966 E11.28293
G1 X92.808 Y90.545 E11.30304
G1 X93.372 Y90.053 E11.32793
G1 X93.985 Y89.625 E11.3528
G1 X94.641 Y89.264 E11.3777
G1 X95.138 Y89.048 E11.39573
G1 X95.402 Y88.945 E11.40515
G1 X96.112 Y88.71 E11.43003
G1 X96.603 Y88.596 E11.44679
G1 X97.703 Y88.382 E11.48406
G1 X98.012 Y88.001 E11.50038
G1 X98.353 Y87.65 E11.51666
G1 X98.854 Y87.168 E11.53978
G1 X99.409 Y86.687 E11.56421
G1 X99.634 Y86.512 E11.57369
G1 X100.249 Y86.084 E11.59861
G1 X100.905 Y85.725 E11.62348
G1 X101.879 Y85.345 E11.65825
G1 X102.87 Y85.041 E11.69273
G1 X103.376 Y84.906 E11.71015
G1 X104.307 Y84.695 E11.7419
G1 X104.822 Y84.565 E11.75957
G1 X105.556 Y84.421 E11.78444
G1 X106.302 Y84.356 E11.80935
G1 X107.049 Y84.371 E11.8342
G1 X107.55 Y84.426 E11.85096
G1 X107.83 Y84.467 E11.86038
G1 X108.809 Y84.683 E11.89372
G1 X109.515 Y84.893 E11.91822
G1 X110.225 Y85.041 E11.94234
