;FLAVOR:Marlin
;TIME:2599
;Filament used: 1.2255m
;Layer height: 0.2
;MINX:79.905
;MINY:80.26
;MINZ:0.2
;MAXX:140.095
;MAXY:139.74
;MAXZ:20.6
;Generated with Cura_SteamEngine 4.13.1
M140 S62
M105
M190 S62
M104 S200
M105
M109 S200
M82 ;absolute extrusion mode
; Script based on an original created by tjjfvi (https://github.com/tjjfvi)
; An up-to-date version of the tjjfvi's original script can be found
; here:  https://csi.t6.fyi/
; Note - This script will only work in Cura V4.2 and above!
; --- Global Settings
; layer_height = 0.2
; smooth_spiralized_contours = True
; magic_mesh_surface_mode = normal
; machine_extruder_count = 1
; --- Single Extruder Settings
; speed_z_hop = 5
; retraction_amount = 6.5
; retraction_hop = 0.2
; retraction_hop_enabled = False
; retraction_enable = True
; retraction_speed = 25
; retraction_retract_speed = 25
; retraction_prime_speed = 25
; speed_travel = 150.0

; Ender 3 Custom Start G-code
G92 E0 ; Reset Extruder
G28 ; Home all axes
G1 Z2.0 F3000 ; Move Z Axis up little to prevent scratching of Heat Bed
G1 X0.1 Y20 Z0.3 F5000.0 ; Move to start position
G1 X0.1 Y200.0 Z0.3 F1500.0 E15 ; Draw the first line
G1 X0.4 Y200.0 Z0.3 F5000.0 ; Move to side a little
G1 X0.4 Y20 Z0.3 F1500.0 E30 ; Draw the second line
G92 E0 ; Reset Extruder
G1 Z2.0 F3000 ; Move Z Axis up little to prevent scratching of Heat Bed
G1 X5 Y20 Z0.3 F5000.0 ; Move over to prevent blob squish
G92 E0
G92 E0
G1 F1500 E-6.5
;LAYER_COUNT:103
;LAYER:0
M107
G0 F6000 X89.92 Y87.615 Z0.2
;TYPE:SKIRT
G1 F1500 E0
G1 F1200 X90.395 Y87.179 E0.02144
G1 X90.727 Y86.892 E0.03604
G1 X90.933 Y86.719 E0.04499
G1 X91.198 Y86.501 E0.0564
G1 X91.582 Y86.199 E0.07265
G1 X91.931 Y85.937 E0.08716
G1 X92.704 Y85.406 E0.11836
G1 X93.616 Y84.895 E0.15313
G1 X94.035 Y84.694 E0.16858
G1 X95.136 Y84.193 E0.20882
G1 X97.446 Y83.103 E0.29377
G1 X98.919 Y82.346 E0.34885
G1 X100.016 Y81.798 E0.38964
G1 X100.629 Y81.515 E0.4121
G1 X100.916 Y81.393 E0.42247
G1 X101.794 Y81.063 E0.45366
G1 X102.636 Y80.824 E0.48278
G1 X103.352 Y80.651 E0.50728
G1 X103.778 Y80.557 E0.52179
G1 X104.118 Y80.489 E0.53332
G1 X105.044 Y80.344 E0.56449
G1 X105.597 Y80.296 E0.58295
G1 X105.678 Y80.291 E0.58565
G1 X106.607 Y80.273 E0.61656
G1 X107.585 Y80.295 E0.64909
G1 X110.22 Y80.319 E0.73674
G1 X113.093 Y80.26 E0.83231
G1 X113.562 Y80.261 E0.84791
G1 X113.921 Y80.269 E0.85986
G1 X114.857 Y80.33 E0.89105
G1 X115.484 Y80.416 E0.9121
G1 X116.044 Y80.52 E0.93105
G1 X116.461 Y80.609 E0.94523
G1 X116.712 Y80.666 E0.95379
G1 X117.149 Y80.77 E0.96873
G1 X117.543 Y80.87 E0.98225
G1 X118.439 Y81.145 E1.01342
G1 X119.426 Y81.548 E1.04888
G1 X119.623 Y81.64 E1.05612
G1 X119.879 Y81.764 E1.06558
G1 X120.954 Y82.302 E1.10556
G1 X121.587 Y82.629 E1.12926
G1 X123.879 Y83.73 E1.21383
G1 X124.85 Y84.162 E1.24917
G1 X125.84 Y84.617 E1.28541
G1 X126.452 Y84.922 E1.30816
G1 X126.653 Y85.03 E1.31575
G1 X127.46 Y85.509 E1.34696
G1 X128.184 Y86.025 E1.37653
G1 X128.779 Y86.486 E1.40156
G1 X129.163 Y86.797 E1.418
G1 X129.422 Y87.017 E1.4293
G1 X130.111 Y87.654 E1.46051
G1 X130.841 Y88.468 E1.49688
G1 X131.104 Y88.792 E1.51076
G1 X131.37 Y89.133 E1.52514
G1 X131.44 Y89.227 E1.52904
G1 X133.029 Y91.277 E1.61531
G1 X134.616 Y93.21 E1.69849
G1 X134.925 Y93.57 E1.71427
G1 X135.35 Y94.082 E1.7364
G1 X135.918 Y94.829 E1.76761
G1 X136.583 Y95.915 E1.80997
G1 X136.809 Y96.337 E1.82589
G1 X137 Y96.711 E1.83986
G1 X137.174 Y97.068 E1.85307
G1 X137.35 Y97.447 E1.86697
G1 X137.5 Y97.787 E1.87933
G1 X137.842 Y98.66 E1.91051
G1 X138.108 Y99.559 E1.94169
G1 X138.226 Y100.074 E1.95926
G1 X138.448 Y101.159 E1.9961
G1 X138.994 Y103.649 E2.08089
G1 X139.657 Y106.293 E2.17155
G1 X139.74 Y106.642 E2.18348
G1 X139.812 Y106.966 E2.19452
G1 X139.857 Y107.186 E2.20199
G1 X140.005 Y108.112 E2.23318
G1 X140.057 Y108.682 E2.25221
G1 X140.067 Y108.837 E2.25738
G1 X140.089 Y109.392 E2.27585
G1 X140.095 Y109.824 E2.29022
G1 X140.095 Y110.102 E2.29947
G1 X140.087 Y110.604 E2.31617
G1 X140.077 Y110.907 E2.32625
G1 X140.006 Y111.842 E2.35744
G1 X139.887 Y112.611 E2.38332
G1 X139.865 Y112.726 E2.38722
G1 X139.719 Y113.382 E2.40957
G1 X139.511 Y114.196 E2.43751
G1 X138.924 Y116.634 E2.52092
G1 X138.393 Y119.154 E2.60657
G1 X138.323 Y119.527 E2.6192
G1 X138.259 Y119.847 E2.63005
G1 X138.229 Y119.985 E2.63475
G1 X137.991 Y120.892 E2.66593
G1 X137.601 Y121.958 E2.70369
G1 X137.38 Y122.477 E2.72245
G1 X137.233 Y122.806 E2.73444
G1 X137.059 Y123.172 E2.74791
G1 X136.875 Y123.539 E2.76157
G1 X136.747 Y123.786 E2.77082
G1 X136.281 Y124.6 E2.80202
G1 X135.682 Y125.456 E2.83677
G1 X135.395 Y125.827 E2.85237
G1 X135.162 Y126.117 E2.86474
G1 X134.461 Y126.962 E2.90126
G1 X132.832 Y128.986 E2.98767
G1 X132.07 Y129.994 E3.0297
G1 X131.965 Y130.122 E3.03521
G1 X131.17 Y131.158 E3.07864
G1 X130.689 Y131.743 E3.10383
G1 X130.659 Y131.777 E3.10534
G1 X130.009 Y132.453 E3.13653
G1 X129.605 Y132.821 E3.15471
G1 X129.273 Y133.108 E3.1693
G1 X129.067 Y133.281 E3.17825
G1 X128.802 Y133.499 E3.18966
G1 X128.418 Y133.801 E3.20591
G1 X128.069 Y134.063 E3.22043
G1 X127.296 Y134.594 E3.25162
G1 X126.384 Y135.105 E3.28639
G1 X125.965 Y135.306 E3.30184
G1 X124.864 Y135.807 E3.34208
G1 X122.554 Y136.897 E3.42703
G1 X121.081 Y137.654 E3.48211
G1 X119.986 Y138.201 E3.52283
G1 X119.378 Y138.482 E3.5451
G1 X119.089 Y138.605 E3.55555
G1 X118.211 Y138.936 E3.58676
G1 X117.364 Y139.176 E3.61604
G1 X116.648 Y139.349 E3.64054
G1 X116.222 Y139.443 E3.65505
G1 X115.882 Y139.511 E3.66658
G1 X114.956 Y139.656 E3.69775
G1 X114.403 Y139.704 E3.71622
G1 X114.322 Y139.709 E3.71892
G1 X113.393 Y139.727 E3.74982
G1 X112.415 Y139.705 E3.78236
G1 X109.78 Y139.681 E3.87
G1 X106.907 Y139.74 E3.96558
G1 X106.437 Y139.739 E3.98121
G1 X106.079 Y139.731 E3.99312
G1 X105.143 Y139.67 E4.02432
G1 X104.541 Y139.588 E4.04452
G1 X104.468 Y139.576 E4.04698
G1 X103.956 Y139.48 E4.06431
G1 X103.539 Y139.391 E4.07849
G1 X103.288 Y139.334 E4.08705
G1 X102.851 Y139.23 E4.10199
G1 X102.457 Y139.13 E4.11551
G1 X101.561 Y138.855 E4.14669
G1 X100.574 Y138.452 E4.18215
G1 X100.377 Y138.36 E4.18938
G1 X100.121 Y138.236 E4.19884
G1 X99.046 Y137.698 E4.23882
G1 X98.413 Y137.371 E4.26252
G1 X96.121 Y136.27 E4.34709
G1 X95.15 Y135.838 E4.38244
G1 X94.16 Y135.383 E4.41868
G1 X93.548 Y135.078 E4.44142
G1 X93.347 Y134.97 E4.44901
G1 X92.54 Y134.491 E4.48022
G1 X91.814 Y133.974 E4.50986
G1 X91.218 Y133.512 E4.53495
G1 X90.836 Y133.202 E4.55131
G1 X90.577 Y132.982 E4.56261
G1 X89.888 Y132.345 E4.59382
G1 X89.155 Y131.528 E4.63033
G1 X88.893 Y131.205 E4.64416
G1 X88.63 Y130.867 E4.6584
G1 X88.56 Y130.773 E4.6623
G1 X86.971 Y128.723 E4.74857
G1 X85.369 Y126.772 E4.83253
G1 X85.052 Y126.403 E4.84871
G1 X84.639 Y125.904 E4.87026
G1 X84.072 Y125.156 E4.90148
G1 X83.417 Y124.084 E4.94326
G1 X83.192 Y123.664 E4.95911
G1 X82.995 Y123.278 E4.97352
G1 X82.821 Y122.92 E4.98676
G1 X82.674 Y122.605 E4.99832
G1 X82.529 Y122.281 E5.01013
G1 X82.182 Y121.41 E5.04131
G1 X81.934 Y120.599 E5.06952
G1 X81.911 Y120.512 E5.07251
G1 X81.768 Y119.898 E5.09348
G1 X81.561 Y118.88 E5.12803
G1 X81.008 Y116.357 E5.21394
G1 X80.316 Y113.593 E5.30871
G1 X80.268 Y113.393 E5.31555
G1 X80.191 Y113.051 E5.32721
G1 X80.147 Y112.838 E5.33444
G1 X79.997 Y111.913 E5.36561
G1 X79.942 Y111.308 E5.38582
G1 X79.932 Y111.15 E5.39108
G1 X79.911 Y110.608 E5.40912
G1 X79.905 Y110.176 E5.42349
G1 X79.905 Y109.903 E5.43257
G1 X79.913 Y109.369 E5.45033
G1 X79.923 Y109.078 E5.46002
G1 X79.996 Y108.143 E5.49121
G1 X80.113 Y107.389 E5.51659
G1 X80.135 Y107.274 E5.52048
G1 X80.281 Y106.618 E5.54284
G1 X80.489 Y105.804 E5.57078
G1 X81.076 Y103.366 E5.65419
G1 X81.604 Y100.863 E5.73927
G1 X81.681 Y100.451 E5.75321
G1 X81.772 Y100.012 E5.76812
G1 X82.01 Y99.105 E5.79931
G1 X82.401 Y98.039 E5.83707
G1 X82.629 Y97.504 E5.85642
G1 X82.789 Y97.146 E5.86946
G1 X82.933 Y96.844 E5.88059
G1 X83.032 Y96.643 E5.88804
G1 X83.268 Y96.185 E5.90517
G1 X83.736 Y95.373 E5.93635
G1 X84.326 Y94.534 E5.97046
G1 X84.619 Y94.156 E5.98637
G1 X84.847 Y93.871 E5.99851
G1 X85.556 Y93.016 E6.03545
G1 X87.168 Y91.014 E6.12094
G1 X87.93 Y90.006 E6.16297
G1 X88.024 Y89.892 E6.16788
G1 X88.837 Y88.833 E6.21229
G1 X89.276 Y88.297 E6.23533
G1 X89.92 Y87.615 E6.26653
G0 F6000 X90.211 Y87.89
G1 F1200 X90.657 Y87.482 E6.28663
G1 X90.989 Y87.195 E6.30123
G1 X91.187 Y87.028 E6.30984
G1 X91.452 Y86.81 E6.32126
G1 X91.822 Y86.519 E6.33691
G1 X92.171 Y86.257 E6.35143
G1 X92.931 Y85.737 E6.38206
G1 X93.795 Y85.253 E6.415
G1 X94.201 Y85.058 E6.42998
G1 X95.323 Y84.547 E6.47098
G1 X97.621 Y83.463 E6.55549
G1 X99.098 Y82.703 E6.61074
G1 X100.195 Y82.155 E6.65152
G1 X100.785 Y81.883 E6.67313
G1 X101.072 Y81.761 E6.6835
G1 X101.934 Y81.438 E6.71412
G1 X102.729 Y81.212 E6.74161
G1 X103.445 Y81.039 E6.76611
G1 X103.856 Y80.949 E6.7801
G1 X104.196 Y80.881 E6.79164
G1 X105.106 Y80.74 E6.82226
G1 X105.622 Y80.695 E6.83949
G1 X105.703 Y80.69 E6.84219
G1 X106.598 Y80.673 E6.87196
G1 X107.572 Y80.695 E6.90437
G1 X110.225 Y80.719 E6.99261
G1 X113.101 Y80.66 E7.08829
G1 X113.553 Y80.661 E7.10332
G1 X113.912 Y80.669 E7.11526
G1 X114.831 Y80.729 E7.14589
G1 X115.419 Y80.81 E7.16564
G1 X115.961 Y80.911 E7.18397
G1 X116.378 Y81 E7.19816
G1 X116.619 Y81.055 E7.20638
G1 X117.056 Y81.159 E7.22132
G1 X117.442 Y81.257 E7.23456
G1 X118.322 Y81.527 E7.26518
G1 X119.256 Y81.911 E7.29877
G1 X119.453 Y82.003 E7.306
G1 X119.7 Y82.122 E7.31512
G1 X120.771 Y82.657 E7.35494
G1 X121.451 Y83.008 E7.38039
G1 X123.696 Y84.087 E7.46323
G1 X124.683 Y84.526 E7.49916
G1 X125.673 Y84.981 E7.5354
G1 X126.263 Y85.275 E7.55733
G1 X126.464 Y85.383 E7.56492
G1 X127.255 Y85.853 E7.59552
G1 X127.939 Y86.341 E7.62346
G1 X128.534 Y86.802 E7.6485
G1 X128.904 Y87.102 E7.66434
G1 X129.163 Y87.322 E7.67564
G1 X129.838 Y87.948 E7.70626
G1 X130.531 Y88.721 E7.74079
G1 X130.794 Y89.045 E7.75467
G1 X131.05 Y89.373 E7.76851
G1 X131.117 Y89.462 E7.77222
G1 X132.72 Y91.531 E7.85927
G1 X134.321 Y93.481 E7.94319
G1 X134.617 Y93.826 E7.9583
G1 X135.042 Y94.338 E7.98044
G1 X135.599 Y95.071 E8.01106
G1 X136.23 Y96.104 E8.05132
G1 X136.456 Y96.526 E8.06724
G1 X136.64 Y96.886 E8.08069
G1 X136.814 Y97.243 E8.09389
G1 X136.984 Y97.608 E8.10729
G1 X137.134 Y97.948 E8.11965
G1 X137.469 Y98.806 E8.15028
G1 X137.72 Y99.656 E8.17976
G1 X137.834 Y100.154 E8.19675
G1 X138.046 Y101.191 E8.23196
G1 X138.61 Y103.767 E8.31966
G1 X139.304 Y106.535 E8.41458
G1 X139.351 Y106.734 E8.42138
G1 X139.42 Y107.046 E8.43201
G1 X139.465 Y107.266 E8.43948
G1 X139.61 Y108.175 E8.47009
G1 X139.658 Y108.708 E8.48789
G1 X139.668 Y108.863 E8.49306
G1 X139.689 Y109.398 E8.51086
G1 X139.695 Y109.83 E8.52523
G1 X139.695 Y110.097 E8.53411
G1 X139.687 Y110.591 E8.55055
G1 X139.677 Y110.894 E8.56063
G1 X139.607 Y111.812 E8.59125
G1 X139.494 Y112.536 E8.61562
G1 X139.472 Y112.651 E8.61952
G1 X139.331 Y113.283 E8.64106
G1 X139.137 Y114.042 E8.66711
G1 X138.536 Y116.537 E8.75247
G1 X138 Y119.076 E8.83878
G1 X137.93 Y119.454 E8.85156
G1 X137.868 Y119.762 E8.86201
G1 X137.838 Y119.9 E8.86671
G1 X137.604 Y120.79 E8.89732
G1 X137.233 Y121.801 E8.93314
G1 X137.012 Y122.32 E8.9519
G1 X136.87 Y122.637 E8.96345
G1 X136.701 Y122.995 E8.97662
G1 X136.52 Y123.355 E8.99002
G1 X136.392 Y123.602 E8.99927
G1 X135.934 Y124.4 E9.02988
G1 X135.365 Y125.211 E9.06283
G1 X135.078 Y125.582 E9.07843
G1 X134.854 Y125.862 E9.09035
G1 X134.126 Y126.74 E9.12829
G1 X132.529 Y128.724 E9.213
G1 X131.751 Y129.753 E9.2559
G1 X131.655 Y129.868 E9.26089
G1 X130.853 Y130.915 E9.30475
G1 X130.389 Y131.478 E9.32902
G1 X130.359 Y131.512 E9.33053
G1 X129.721 Y132.175 E9.36113
G1 X129.343 Y132.518 E9.37811
G1 X129.011 Y132.805 E9.3927
G1 X128.813 Y132.972 E9.40132
G1 X128.548 Y133.19 E9.41273
G1 X128.178 Y133.481 E9.42839
G1 X127.829 Y133.743 E9.4429
G1 X127.069 Y134.263 E9.47353
G1 X126.205 Y134.747 E9.50647
G1 X125.799 Y134.942 E9.52145
G1 X124.677 Y135.453 E9.56245
G1 X122.379 Y136.537 E9.64696
G1 X120.902 Y137.297 E9.70221
G1 X119.807 Y137.844 E9.74292
G1 X119.221 Y138.114 E9.76438
G1 X118.932 Y138.237 E9.77483
G1 X118.07 Y138.561 E9.80546
G1 X117.271 Y138.788 E9.83308
G1 X116.555 Y138.961 E9.85758
G1 X116.144 Y139.051 E9.87158
G1 X115.804 Y139.119 E9.88311
G1 X114.894 Y139.26 E9.91374
G1 X114.378 Y139.305 E9.93096
G1 X114.297 Y139.31 E9.93366
G1 X113.402 Y139.327 E9.96344
G1 X112.428 Y139.305 E9.99584
G1 X109.775 Y139.281 E10.08408
G1 X106.899 Y139.34 E10.17976
G1 X106.446 Y139.339 E10.19483
G1 X106.088 Y139.331 E10.20674
G1 X105.17 Y139.271 E10.23733
G1 X104.606 Y139.194 E10.25627
G1 X104.533 Y139.182 E10.25873
G1 X104.039 Y139.089 E10.27545
G1 X103.622 Y139 E10.28963
G1 X103.381 Y138.945 E10.29785
G1 X102.944 Y138.841 E10.31279
G1 X102.558 Y138.743 E10.32604
G1 X101.678 Y138.473 E10.35665
G1 X100.744 Y138.089 E10.39024
G1 X100.547 Y137.997 E10.39747
G1 X100.3 Y137.878 E10.40659
G1 X99.229 Y137.343 E10.44641
G1 X98.549 Y136.992 E10.47186
G1 X96.304 Y135.913 E10.55471
G1 X95.317 Y135.474 E10.59064
G1 X94.327 Y135.019 E10.62687
G1 X93.737 Y134.725 E10.6488
G1 X93.536 Y134.617 E10.65639
G1 X92.745 Y134.147 E10.68699
G1 X92.059 Y133.658 E10.71501
G1 X91.463 Y133.196 E10.74009
G1 X91.095 Y132.897 E10.75586
G1 X90.836 Y132.677 E10.76717
G1 X90.161 Y132.051 E10.79778
G1 X89.466 Y131.276 E10.83241
G1 X89.204 Y130.953 E10.84624
G1 X88.95 Y130.627 E10.85999
G1 X88.883 Y130.538 E10.86369
G1 X87.28 Y128.469 E10.95074
G1 X85.678 Y126.519 E11.03468
G1 X85.36 Y126.148 E11.05093
G1 X84.947 Y125.649 E11.07248
G1 X84.391 Y124.914 E11.10313
G1 X83.769 Y123.896 E11.14281
G1 X83.544 Y123.476 E11.15866
G1 X83.354 Y123.104 E11.17255
G1 X83.18 Y122.746 E11.18579
G1 X83.039 Y122.442 E11.19693
G1 X82.894 Y122.118 E11.20874
G1 X82.554 Y121.262 E11.23937
G1 X82.321 Y120.497 E11.26597
G1 X82.298 Y120.41 E11.26897
G1 X82.159 Y119.818 E11.28919
G1 X81.947 Y118.78 E11.32443
G1 X81.393 Y116.247 E11.41067
G1 X80.705 Y113.5 E11.50486
G1 X80.657 Y113.3 E11.5117
G1 X80.583 Y112.97 E11.52294
G1 X80.539 Y112.757 E11.53018
G1 X80.392 Y111.849 E11.56077
G1 X80.341 Y111.283 E11.57967
G1 X80.331 Y111.125 E11.58494
G1 X80.311 Y110.602 E11.60235
G1 X80.305 Y110.17 E11.61672
G1 X80.305 Y109.908 E11.62543
G1 X80.313 Y109.383 E11.64289
G1 X80.323 Y109.092 E11.65258
G1 X80.395 Y108.174 E11.68321
G1 X80.506 Y107.464 E11.70711
G1 X80.528 Y107.349 E11.711
G1 X80.669 Y106.717 E11.73254
G1 X80.863 Y105.958 E11.75859
G1 X81.464 Y103.463 E11.84395
G1 X81.998 Y100.932 E11.92999
G1 X82.074 Y100.525 E11.94376
G1 X82.163 Y100.097 E11.9583
G1 X82.397 Y99.207 E11.9889
G1 X82.769 Y98.196 E12.02473
G1 X82.997 Y97.661 E12.04408
G1 X83.151 Y97.316 E12.05664
G1 X83.292 Y97.02 E12.06755
G1 X83.502 Y96.6 E12.08317
G1 X83.622 Y96.37 E12.09179
G1 X84.083 Y95.573 E12.12242
G1 X84.642 Y94.779 E12.15472
G1 X84.935 Y94.401 E12.17062
G1 X85.155 Y94.127 E12.18231
G1 X85.863 Y93.273 E12.21921
G1 X87.471 Y91.276 E12.30448
G1 X88.249 Y90.247 E12.34739
G1 X88.344 Y90.132 E12.35235
G1 X89.154 Y89.077 E12.39659
G1 X89.579 Y88.559 E12.41887
G1 X90.211 Y87.89 E12.44948
G0 F6000 X90.502 Y88.165
G1 F1200 X90.918 Y87.785 E12.46822
G1 X91.25 Y87.498 E12.48282
G1 X91.441 Y87.337 E12.49113
G1 X91.706 Y87.119 E12.50254
G1 X92.062 Y86.839 E12.51761
G1 X92.411 Y86.577 E12.53212
G1 X93.157 Y86.067 E12.56218
G1 X93.973 Y85.611 E12.59327
G1 X94.367 Y85.422 E12.6078
G1 X95.423 Y84.942 E12.64638
G1 X97.807 Y83.816 E12.73407
G1 X99.277 Y83.061 E12.78904
G1 X100.374 Y82.513 E12.82982
G1 X100.942 Y82.251 E12.85063
G1 X101.229 Y82.129 E12.861
G1 X102.075 Y81.813 E12.89104
G1 X102.823 Y81.601 E12.9169
G1 X103.539 Y81.428 E12.94139
G1 X103.935 Y81.341 E12.95488
G1 X104.275 Y81.273 E12.96641
G1 X105.167 Y81.135 E12.99643
G1 X105.647 Y81.094 E13.01246
G1 X105.728 Y81.089 E13.01516
G1 X106.589 Y81.073 E13.0438
G1 X107.56 Y81.095 E13.0761
G1 X110.229 Y81.119 E13.16488
G1 X113.109 Y81.06 E13.26069
G1 X113.544 Y81.061 E13.27515
G1 X113.903 Y81.069 E13.2871
G1 X114.804 Y81.129 E13.31713
G1 X115.353 Y81.205 E13.33556
G1 X115.425 Y81.217 E13.33799
G1 X115.877 Y81.303 E13.3533
G1 X116.294 Y81.392 E13.36748
G1 X116.527 Y81.444 E13.37542
G1 X116.964 Y81.548 E13.39036
G1 X117.341 Y81.644 E13.4033
G1 X118.204 Y81.91 E13.43333
