;FLAVOR:Marlin
;TIME:7837
;Filament used: 4.40405m
;Layer height: 0.2
;MINX:54.903
;MINY:65.4
;MINZ:0.2
;MAXX:162.393
;MAXY:172.817
;MAXZ:11.6
;Generated with Cura_SteamEngine 4.13.1
M140 S65
M105
M190 S65
M104 S200
M105
M109 S200
M82 ;absolute extrusion mode
; Script based on an original created by tjjfvi (https://github.com/tjjfvi)
; An up-to-date version of the tjjfvi's original script can be found
; here:  https://csi.t6.fyi/
; Note - This script will only work in Cura V4.2 and above!
; --- Global Settings
; layer_height = 0.2
; smooth_spiralized_contours = True
; magic_mesh_surface_mode = normal
; machine_extruder_count = 1
; --- Single Extruder Settings
; speed_z_hop = 5
; retraction_amount = 6.5
; retraction_hop = 0.2
; retraction_hop_enabled = False
; retraction_enable = True
; retraction_speed = 25
; retraction_retract_speed = 25
; retraction_prime_speed = 25
; speed_travel = 150.0

; Ender 3 Custom Start G-code
G92 E0 ; Reset Extruder
G28 ; Home all axes
G1 Z2.0 F3000 ; Move Z Axis up little to prevent scratching of Heat Bed
G1 X0.1 Y20 Z0.3 F5000.0 ; Move to start position
G1 X0.1 Y200.0 Z0.3 F1500.0 E15 ; Draw the first line
G1 X0.4 Y200.0 Z0.3 F5000.0 ; Move to side a little
G1 X0.4 Y20 Z0.3 F1500.0 E30 ; Draw the second line
G92 E0 ; Reset Extruder
G1 Z2.0 F3000 ; Move Z Axis up little to prevent scratching of Heat Bed
G1 X5 Y20 Z0.3 F5000.0 ; Move over to prevent blob squish
G92 E0
G92 E0
G1 F1500 E-6.5
;LAYER_COUNT:58
;LAYER:0
M107
G0 F6000 X64.103 Y74.6 Z0.2
;TYPE:SKIRT
G1 F1500 E0
G1 F1200 X64.103 Y111.831 E1.23831
G1 X64.125 Y113.066 E1.27939
G1 X64.189 Y114.323 E1.32125
G1 X64.299 Y115.587 E1.36345
G1 X64.447 Y116.808 E1.40436
G1 X64.638 Y118.03 E1.4455
G1 X64.874 Y119.259 E1.48712
G1 X65.154 Y120.484 E1.52892
G1 X65.472 Y121.691 E1.57043
G1 X65.832 Y122.883 E1.61185
G1 X66.235 Y124.067 E1.65344
G1 X66.678 Y125.239 E1.69512
G1 X67.156 Y126.378 E1.7362
G1 X67.68 Y127.518 E1.77793
G1 X68.248 Y128.647 E1.81997
G1 X68.85 Y129.752 E1.86182
G1 X69.47 Y130.798 E1.90226
G1 X70.145 Y131.854 E1.94395
G1 X70.853 Y132.88 E1.98541
G1 X71.607 Y133.896 E2.02749
G1 X72.242 Y134.693 E2.06138
G1 X72.292 Y134.698 E2.06305
G1 X72.932 Y134.871 E2.0851
G1 X73.166 Y134.957 E2.0934
G1 X73.668 Y135.184 E2.11172
G1 X74.323 Y135.635 E2.13817
G1 X74.371 Y135.676 E2.14027
G1 X74.632 Y135.92 E2.15215
G1 X76.047 Y137.38 E2.21978
G1 X76.401 Y137.803 E2.23812
G1 X76.717 Y138.326 E2.25845
G1 X76.828 Y138.548 E2.2667
G1 X77.038 Y139.057 E2.28502
G1 X77.172 Y139.591 E2.30333
G1 X77.184 Y139.683 E2.30641
G1 X78 Y140.342 E2.3413
G1 X78.981 Y141.086 E2.38225
G1 X80.051 Y141.835 E2.42569
G1 X81.095 Y142.513 E2.46709
G1 X82.184 Y143.168 E2.50936
G1 X83.299 Y143.787 E2.55178
G1 X84.422 Y144.36 E2.59371
G1 X85.579 Y144.9 E2.63618
G1 X86.731 Y145.389 E2.6778
G1 X87.944 Y145.857 E2.72104
G1 X89.101 Y146.253 E2.76172
G1 X90.318 Y146.625 E2.80404
G1 X91.554 Y146.956 E2.8466
G1 X92.797 Y147.245 E2.88905
G1 X93.993 Y147.476 E2.92956
G1 X95.294 Y147.681 E2.97337
G1 X96.505 Y147.83 E3.01395
G1 X97.788 Y147.942 E3.05678
G1 X99.066 Y148.008 E3.09935
G1 X100.317 Y148.031 E3.14096
G1 X137.606 Y148.031 E4.3812
G1 X137.606 Y110.8 E5.61951
G1 X137.583 Y109.552 E5.66102
G1 X137.517 Y108.277 E5.70349
G1 X137.404 Y106.984 E5.74666
G1 X137.253 Y105.763 E5.78758
G1 X137.052 Y104.496 E5.83024
G1 X136.81 Y103.253 E5.87236
G1 X136.534 Y102.054 E5.91328
G1 X136.202 Y100.818 E5.95585
G1 X135.823 Y99.578 E5.99898
G1 X135.418 Y98.408 E6.04016
G1 X134.96 Y97.218 E6.08257
G1 X134.463 Y96.048 E6.12485
G1 X133.932 Y94.912 E6.16655
G1 X133.357 Y93.784 E6.20866
G1 X132.736 Y92.668 E6.25114
G1 X132.092 Y91.598 E6.29268
G1 X131.394 Y90.524 E6.33528
G1 X130.666 Y89.487 E6.37742
G1 X129.899 Y88.468 E6.41984
G1 X129.251 Y87.673 E6.45396
G1 X128.71 Y87.545 E6.47245
G1 X128.473 Y87.468 E6.48074
G1 X127.963 Y87.26 E6.49905
G1 X127.488 Y86.981 E6.51738
G1 X127.203 Y86.764 E6.52929
G1 X127.153 Y86.722 E6.53146
G1 X126.952 Y86.541 E6.54046
G1 X125.491 Y85.125 E6.60813
G1 X125.125 Y84.714 E6.62643
G1 X124.775 Y84.169 E6.64798
G1 X124.66 Y83.951 E6.65617
G1 X124.439 Y83.446 E6.67451
G1 X124.293 Y82.915 E6.69283
G1 X124.265 Y82.736 E6.69885
G1 X123.445 Y82.083 E6.73372
G1 X122.459 Y81.352 E6.77454
G1 X121.432 Y80.645 E6.81601
G1 X120.369 Y79.964 E6.858
G1 X119.302 Y79.334 E6.89921
G1 X118.206 Y78.735 E6.94075
G1 X117.094 Y78.176 E6.98215
G1 X115.965 Y77.658 E7.02346
G1 X114.779 Y77.16 E7.06625
G1 X113.635 Y76.729 E7.10691
G1 X112.439 Y76.324 E7.1489
G1 X111.262 Y75.968 E7.1898
G1 X110.058 Y75.65 E7.23122
G1 X108.816 Y75.367 E7.27359
G1 X107.611 Y75.137 E7.31439
G1 X106.372 Y74.943 E7.3561
G1 X105.143 Y74.794 E7.39728
G1 X103.893 Y74.687 E7.43901
G1 X102.629 Y74.622 E7.4811
G1 X101.396 Y74.6 E7.52212
G1 X64.103 Y74.6 E8.76249
G0 F6000 X63.703 Y74.2
G1 F1200 X63.703 Y111.831 E10.0141
G1 X63.725 Y113.094 E10.05612
G1 X63.79 Y114.35 E10.09795
G1 X63.899 Y115.609 E10.13998
G1 X64.051 Y116.861 E10.18192
G1 X64.245 Y118.106 E10.22383
G1 X64.482 Y119.34 E10.26563
G1 X64.76 Y120.557 E10.30715
G1 X65.088 Y121.799 E10.34987
G1 X65.459 Y123.027 E10.39254
G1 X65.855 Y124.193 E10.4335
G1 X66.313 Y125.402 E10.4765
G1 X66.792 Y126.546 E10.51775
G1 X67.322 Y127.697 E10.55989
G1 X67.884 Y128.817 E10.60157
G1 X68.501 Y129.947 E10.64439
G1 X69.135 Y131.016 E10.68573
G1 X69.803 Y132.062 E10.72701
G1 X70.549 Y133.143 E10.77069
G1 X71.271 Y134.115 E10.81097
G1 X72.034 Y135.073 E10.8517
G1 X72.249 Y135.097 E10.85889
G1 X72.794 Y135.247 E10.8777
G1 X73.028 Y135.333 E10.88599
G1 X73.502 Y135.549 E10.90331
G1 X74.063 Y135.939 E10.92604
G1 X74.111 Y135.98 E10.92814
G1 X74.344 Y136.199 E10.93877
G1 X75.759 Y137.659 E11.0064
G1 X76.092 Y138.06 E11.02373
G1 X76.359 Y138.504 E11.04096
G1 X76.47 Y138.726 E11.04922
G1 X76.667 Y139.209 E11.06657
G1 X76.801 Y139.889 E11.08962
G1 X77.753 Y140.657 E11.1303
G1 X78.743 Y141.408 E11.17163
G1 X79.825 Y142.166 E11.21557
G1 X80.872 Y142.847 E11.25711
G1 X81.985 Y143.516 E11.30031
G1 X83.102 Y144.136 E11.3428
G1 X84.262 Y144.727 E11.3861
G1 X85.397 Y145.257 E11.42776
G1 X86.584 Y145.761 E11.47065
G1 X87.805 Y146.232 E11.51418
G1 X88.972 Y146.631 E11.5552
G1 X90.215 Y147.011 E11.59843
G1 X91.449 Y147.342 E11.64092
G1 X92.709 Y147.635 E11.68395
G1 X93.968 Y147.878 E11.7266
G1 X95.215 Y148.074 E11.76858
G1 X96.477 Y148.23 E11.81088
G1 X97.759 Y148.341 E11.85368
G1 X99.04 Y148.408 E11.89634
G1 X100.309 Y148.431 E11.93855
G1 X138.006 Y148.431 E13.19236
G1 X138.006 Y110.8 E14.44397
G1 X137.983 Y109.524 E14.48642
G1 X137.916 Y108.25 E14.52885
G1 X137.803 Y106.957 E14.57202
G1 X137.649 Y105.708 E14.61388
G1 X137.447 Y104.429 E14.65694
G1 X137.202 Y103.171 E14.69957
G1 X136.926 Y101.971 E14.74053
G1 X136.582 Y100.688 E14.78471
G1 X136.207 Y99.465 E14.82725
G1 X135.79 Y98.261 E14.86963
G1 X135.329 Y97.062 E14.91236
G1 X134.837 Y95.903 E14.95423
G1 X134.287 Y94.728 E14.99738
G1 X133.716 Y93.607 E15.03923
G1 X133.09 Y92.482 E15.08205
G1 X132.411 Y91.354 E15.12584
G1 X131.737 Y90.317 E15.16697
G1 X131 Y89.267 E15.20964
G1 X130.208 Y88.216 E15.25341
G1 X129.461 Y87.298 E15.29278
G1 X129.355 Y87.29 E15.29631
G1 X128.833 Y87.165 E15.31416
G1 X128.596 Y87.088 E15.32245
G1 X128.115 Y86.889 E15.33977
G1 X127.669 Y86.619 E15.35711
G1 X127.46 Y86.457 E15.3659
G1 X127.231 Y86.253 E15.3761
G1 X125.77 Y84.837 E15.44377
G1 X125.424 Y84.447 E15.46111
G1 X125.129 Y83.982 E15.47943
G1 X125.014 Y83.764 E15.48763
G1 X124.807 Y83.286 E15.50495
G1 X124.645 Y82.581 E15.52901
G1 X124.638 Y82.521 E15.53102
G1 X123.696 Y81.772 E15.57105
G1 X122.689 Y81.025 E15.61275
G1 X121.64 Y80.302 E15.65512
G1 X120.599 Y79.636 E15.69623
G1 X119.483 Y78.977 E15.73933
G1 X118.399 Y78.385 E15.78041
G1 X117.273 Y77.819 E15.82233
G1 X116.118 Y77.288 E15.86461
G1 X114.908 Y76.78 E15.90826
G1 X113.778 Y76.355 E15.94841
G1 X112.593 Y75.954 E15.99002
G1 X111.344 Y75.576 E16.03343
G1 X110.159 Y75.263 E16.07419
G1 X108.923 Y74.981 E16.11636
G1 X107.658 Y74.739 E16.15919
G1 X106.426 Y74.547 E16.20066
G1 X105.196 Y74.398 E16.24187
G1 X103.919 Y74.288 E16.2845
G1 X102.626 Y74.221 E16.32757
G1 X101.403 Y74.2 E16.36825
G1 X63.703 Y74.2 E17.62216
G0 F6000 X63.303 Y73.8
G1 F1200 X63.303 Y111.779 E18.88534
G1 X63.326 Y113.122 E18.93002
G1 X63.391 Y114.374 E18.97172
G1 X63.503 Y115.664 E19.01478
G1 X63.654 Y116.915 E19.05669
G1 X63.853 Y118.187 E19.09952
G1 X64.089 Y119.415 E19.14111
G1 X64.373 Y120.658 E19.18351
G1 X64.702 Y121.908 E19.22651
G1 X65.071 Y123.128 E19.2689
G1 X65.485 Y124.346 E19.31168
G1 X65.943 Y125.555 E19.35469
G1 X66.418 Y126.689 E19.39558
G1 X66.959 Y127.865 E19.43863
G1 X67.534 Y129.008 E19.48119
G1 X68.158 Y130.153 E19.52456
G1 X68.791 Y131.221 E19.56585
G1 X69.482 Y132.302 E19.60852
G1 X70.208 Y133.355 E19.65106
G1 X70.961 Y134.368 E19.69304
G1 X71.766 Y135.379 E19.73603
G1 X71.829 Y135.453 E19.73926
G1 X72.204 Y135.495 E19.75181
G1 X72.656 Y135.622 E19.76743
G1 X72.89 Y135.708 E19.77572
G1 X73.334 Y135.914 E19.792
G1 X73.803 Y136.243 E19.81105
G1 X73.851 Y136.284 E19.81315
G1 X74.057 Y136.477 E19.82254
G1 X75.472 Y137.937 E19.89016
G1 X75.783 Y138.315 E19.90645
G1 X76.001 Y138.683 E19.92067
G1 X76.112 Y138.905 E19.92893
G1 X76.295 Y139.36 E19.94524
G1 X76.419 Y140.006 E19.96712
G1 X76.425 Y140.093 E19.97002
G1 X76.509 Y140.166 E19.97372
G1 X77.49 Y140.958 E20.01565
G1 X78.536 Y141.751 E20.05931
G1 X79.593 Y142.492 E20.10225
G1 X80.67 Y143.192 E20.14497
G1 X81.799 Y143.87 E20.18877
G1 X82.916 Y144.49 E20.23126
G1 X84.055 Y145.072 E20.2738
G1 X85.25 Y145.629 E20.31765
G1 X86.427 Y146.129 E20.36019
G1 X87.658 Y146.604 E20.40407
G1 X88.879 Y147.022 E20.447
G1 X90.104 Y147.396 E20.4896
G1 X91.345 Y147.729 E20.53233
G1 X92.627 Y148.027 E20.57611
G1 X93.891 Y148.27 E20.61892
G1 X95.16 Y148.47 E20.66165
G1 X96.422 Y148.626 E20.70394
G1 X97.732 Y148.74 E20.74768
G1 X99.011 Y148.807 E20.79028
G1 X100.357 Y148.831 E20.83505
G1 X138.406 Y148.831 E22.10057
G1 X138.406 Y110.854 E23.36369
G1 X138.382 Y109.495 E23.40889
G1 X138.315 Y108.223 E23.45126
G1 X138.2 Y106.902 E23.49536
G1 X138.046 Y105.657 E23.53709
G1 X137.842 Y104.369 E23.58046
G1 X137.595 Y103.101 E23.62343
G1 X137.304 Y101.836 E23.6666
G1 X136.974 Y100.604 E23.70902
G1 X136.583 Y99.327 E23.75344
G1 X136.168 Y98.13 E23.79558
G1 X135.701 Y96.915 E23.83887
G1 X135.204 Y95.745 E23.88115
G1 X134.642 Y94.544 E23.92525
G1 X134.059 Y93.399 E23.96799
G1 X133.437 Y92.282 E24.01051
G1 X132.765 Y91.165 E24.05387
G1 X132.055 Y90.072 E24.09722
G1 X131.324 Y89.031 E24.13952
G1 X130.519 Y87.962 E24.18403
G1 X129.735 Y87 E24.22531
G1 X129.659 Y86.913 E24.22915
G1 X129.388 Y86.89 E24.2382
G1 X128.957 Y86.784 E24.25296
G1 X128.72 Y86.707 E24.26125
G1 X128.268 Y86.518 E24.27754
G1 X127.717 Y86.151 E24.29956
G1 X127.509 Y85.966 E24.30882
G1 X126.048 Y84.55 E24.37649
G1 X125.726 Y84.182 E24.39276
G1 X125.483 Y83.796 E24.40793
G1 X125.368 Y83.578 E24.41612
G1 X125.175 Y83.128 E24.43241
G1 X125.042 Y82.534 E24.45266
G1 X125.023 Y82.321 E24.45977
G1 X124.956 Y82.263 E24.46272
G1 X123.93 Y81.447 E24.50632
G1 X122.919 Y80.697 E24.54819
G1 X121.88 Y79.982 E24.59013
G1 X120.795 Y79.287 E24.63299
G1 X119.686 Y78.632 E24.67583
G1 X118.58 Y78.028 E24.71774
G1 X117.441 Y77.455 E24.76015
G1 X116.286 Y76.925 E24.80242
G1 X115.069 Y76.413 E24.84633
G1 X113.903 Y75.975 E24.88776
G1 X112.711 Y75.571 E24.92962
G1 X111.478 Y75.198 E24.97246
G1 X110.232 Y74.869 E25.01533
G1 X109.003 Y74.589 E25.05725
G1 X107.734 Y74.347 E25.10022
G1 X106.479 Y74.15 E25.14247
G1 X105.222 Y73.998 E25.18458
G1 X103.943 Y73.888 E25.22728
G1 X102.684 Y73.823 E25.26921
G1 X101.353 Y73.8 E25.31349
G1 X63.303 Y73.8 E26.57903
G0 F6000 X62.903 Y73.4
G1 F1200 X62.903 Y111.786 E27.85576
G1 X62.926 Y113.119 E27.9001
G1 X62.994 Y114.431 E27.9438
G1 X63.103 Y115.686 E27.9857
G1 X63.258 Y116.968 E28.02865
G1 X63.46 Y118.263 E28.07224
G1 X63.697 Y119.495 E28.11397
G1 X63.986 Y120.759 E28.15709
G1 X64.317 Y122.016 E28.20032
G1 X64.692 Y123.255 E28.24338
G1 X65.102 Y124.463 E28.28581
G1 X65.564 Y125.683 E28.3292
G1 X66.071 Y126.892 E28.3728
G1 X66.601 Y128.044 E28.41498
G1 X67.166 Y129.17 E28.45688
G1 X67.808 Y130.347 E28.50147
G1 X68.448 Y131.425 E28.54317
G1 X69.157 Y132.536 E28.587
G1 X69.881 Y133.586 E28.62943
G1 X70.65 Y134.621 E28.67231
G1 X71.446 Y135.621 E28.71482
G1 X71.631 Y135.837 E28.72428
G1 X71.705 Y135.839 E28.72674
G1 X72.158 Y135.894 E28.74192
G1 X72.518 Y135.998 E28.75438
G1 X72.752 Y136.084 E28.76268
G1 X73.164 Y136.278 E28.77782
G1 X73.544 Y136.547 E28.79331
G1 X73.77 Y136.756 E28.80355
G1 X75.185 Y138.216 E28.87117
G1 X75.472 Y138.569 E28.8863
G1 X75.644 Y138.862 E28.8976
G1 X75.755 Y139.084 E28.90586
G1 X75.922 Y139.508 E28.92101
G1 X76.021 Y140.038 E28.93895
G1 X76.033 Y140.283 E28.9471
G1 X76.247 Y140.47 E28.95656
G1 X77.247 Y141.276 E28.99928
G1 X78.287 Y142.065 E29.04269
G1 X79.367 Y142.822 E29.08656
G1 X80.468 Y143.537 E29.13022
G1 X81.578 Y144.205 E29.17331
G1 X82.741 Y144.85 E29.21754
G1 X83.895 Y145.439 E29.26064
G1 X85.068 Y145.986 E29.30368
G1 X86.28 Y146.501 E29.34748
G1 X87.534 Y146.985 E29.39219
G1 X88.724 Y147.392 E29.43402
G1 X90.009 Y147.784 E29.47871
G1 X91.241 Y148.115 E29.52114
G1 X92.559 Y148.421 E29.56614
G1 X93.814 Y148.663 E29.60865
G1 X95.109 Y148.867 E29.65225
G1 X96.392 Y149.025 E29.69525
G1 X97.707 Y149.14 E29.73915
G1 X98.983 Y149.206 E29.78165
G1 X100.35 Y149.231 E29.82712
G1 X138.806 Y149.231 E31.10617
G1 X138.806 Y110.846 E32.38286
G1 X138.781 Y109.468 E32.4287
G1 X138.715 Y108.198 E32.471
G1 X138.599 Y106.872 E32.51527
G1 X138.442 Y105.602 E32.55783
G1 X138.235 Y104.291 E32.60198
G1 X137.987 Y103.019 E32.64508
G1 X137.696 Y101.752 E32.68832
G1 X137.353 Y100.474 E32.73233
G1 X136.967 Y99.214 E32.77616
G1 X136.546 Y97.999 E32.81893
G1 X136.069 Y96.758 E32.86315
G1 X135.561 Y95.563 E32.90634
G1 X135.021 Y94.407 E32.94877
G1 X134.412 Y93.213 E32.99335
G1 X133.771 Y92.061 E33.0372
G1 X133.098 Y90.942 E33.08063
G1 X132.398 Y89.864 E33.12338
G1 X131.643 Y88.791 E33.16702
G1 X130.842 Y87.726 E33.21134
G1 X130.037 Y86.737 E33.25376
G1 X129.855 Y86.529 E33.26295
G1 X129.423 Y86.49 E33.27738
G1 X129.081 Y86.404 E33.2891
G1 X128.844 Y86.327 E33.29739
G1 X128.424 Y86.149 E33.31256
G1 X127.975 Y85.845 E33.3306
G1 X127.787 Y85.679 E33.33894
G1 X126.326 Y84.263 E33.40661
G1 X126.028 Y83.918 E33.42177
G1 X125.836 Y83.609 E33.43387
G1 X125.721 Y83.391 E33.44207
G1 X125.545 Y82.971 E33.45722
G1 X125.439 Y82.486 E33.47373
G1 X125.414 Y82.196 E33.48341
G1 X125.412 Y82.127 E33.48571
G1 X125.197 Y81.944 E33.4951
G1 X124.182 Y81.136 E33.53825
G1 X123.149 Y80.37 E33.58102
G1 X122.088 Y79.639 E33.62387
G1 X121.013 Y78.952 E33.66631
G1 X119.88 Y78.282 E33.71009
G1 X118.773 Y77.677 E33.75205
G1 X117.62 Y77.098 E33.79496
G1 X116.429 Y76.551 E33.83855
G1 X115.23 Y76.047 E33.88181
G1 X114.028 Y75.595 E33.92452
G1 X112.829 Y75.189 E33.96662
G1 X111.586 Y74.813 E34.00982
G1 X110.333 Y74.482 E34.05292
G1 X109.084 Y74.197 E34.09553
G1 X107.81 Y73.954 E34.13867
G1 X106.532 Y73.754 E34.18169
G1 X105.247 Y73.598 E34.22474
G1 X103.998 Y73.491 E34.26644
G1 X102.681 Y73.423 E34.3103
G1 X101.36 Y73.4 E34.35424
G1 X62.903 Y73.4 E35.63333
G0 F6000 X62.503 Y73
G1 F1200 X62.503 Y111.793 E36.92359
G1 X62.527 Y113.148 E36.96866
G1 X62.593 Y114.427 E37.01126
G1 X62.706 Y115.74 E37.05509
G1 X62.861 Y117.017 E37.09788
G1 X63.064 Y118.315 E37.14157
G1 X63.311 Y119.603 E37.18519
G1 X63.598 Y120.86 E37.22808
G1 X63.929 Y122.116 E37.27128
G1 X64.312 Y123.381 E37.31524
G1 X64.734 Y124.624 E37.3589
G1 X65.184 Y125.811 E37.40112
G1 X65.697 Y127.035 E37.44526
G1 X66.238 Y128.212 E37.48834
G1 X66.838 Y129.405 E37.53276
G1 X67.446 Y130.521 E37.57503
G1 X68.112 Y131.644 E37.61846
G1 X68.815 Y132.744 E37.66187
G1 X69.555 Y133.816 E37.7052
G1 X70.34 Y134.873 E37.74899
G1 X71.139 Y135.877 E37.79167
G1 X71.442 Y136.231 E37.80717
G1 X71.692 Y136.239 E37.81548
G1 X72.108 Y136.293 E37.82944
G1 X72.38 Y136.373 E37.83887
G1 X72.614 Y136.459 E37.84716
G1 X72.992 Y136.64 E37.8611
G1 X73.284 Y136.851 E37.87308
G1 X73.483 Y137.034 E37.88207
G1 X74.898 Y138.494 E37.9497
G1 X75.159 Y138.821 E37.96361
G1 X75.286 Y139.041 E37.97206
