;FLAVOR:Marlin
;TIME:13500
;Filament used: 6.91081m
;Layer height: 0.2
;MINX:18.821
;MINY:68.259
;MINZ:0.2
;MAXX:205.036
;MAXY:177.889
;MAXZ:14.4
;Generated with Cura_SteamEngine 4.13.1
M140 S60
M105
M190 S60
M104 S200
M105
M109 S200
M82 ;absolute extrusion mode
; Script based on an original created by tjjfvi (https://github.com/tjjfvi)
; An up-to-date version of the tjjfvi's original script can be found
; here:  https://csi.t6.fyi/
; Note - This script will only work in Cura V4.2 and above!
; --- Global Settings
; layer_height = 0.2
; smooth_spiralized_contours = True
; magic_mesh_surface_mode = normal
; machine_extruder_count = 1
; --- Single Extruder Settings
; speed_z_hop = 5
; retraction_amount = 6.5
; retraction_hop = 0.2
; retraction_hop_enabled = False
; retraction_enable = True
; retraction_speed = 25
; retraction_retract_speed = 25
; retraction_prime_speed = 25
; speed_travel = 150.0

; Ender 3 Custom Start G-code
G92 E0 ; Reset Extruder
G28 ; Home all axes
G1 Z2.0 F3000 ; Move Z Axis up little to prevent scratching of Heat Bed
G1 X0.1 Y20 Z0.3 F5000.0 ; Move to start position
G1 X0.1 Y200.0 Z0.3 F1500.0 E15 ; Draw the first line
G1 X0.4 Y200.0 Z0.3 F5000.0 ; Move to side a little
G1 X0.4 Y20 Z0.3 F1500.0 E30 ; Draw the second line
G92 E0 ; Reset Extruder
G1 Z2.0 F3000 ; Move Z Axis up little to prevent scratching of Heat Bed
G1 X5 Y20 Z0.3 F5000.0 ; Move over to prevent blob squish
G92 E0
G92 E0
G1 F1500 E-6.5
;LAYER_COUNT:72
;LAYER:0
M107
G0 F6000 X19.996 Y68.37 Z0.2
;TYPE:SKIRT
G1 F1500 E0
G1 F1200 X20.363 Y68.277 E0.01259
G1 X20.619 Y68.259 E0.02113
G1 X166.402 Y68.259 E4.86989
G1 X166.779 Y68.299 E4.8825
G1 X167.139 Y68.417 E4.8951
G1 X167.466 Y68.607 E4.90768
G1 X167.747 Y68.862 E4.9203
G1 X167.967 Y69.171 E4.93292
G1 X168.119 Y69.518 E4.94552
G1 X168.202 Y70.059 E4.96372
G1 X168.202 Y71.659 E5.01694
G1 X168.162 Y72.036 E5.02955
G1 X168.044 Y72.396 E5.04215
G1 X167.854 Y72.723 E5.05472
G1 X167.599 Y73.004 E5.06735
G1 X167.29 Y73.224 E5.07996
G1 X166.943 Y73.376 E5.09256
G1 X166.402 Y73.459 E5.11077
G1 X106.423 Y73.459 E7.10568
G1 X104.372 Y73.483 E7.1739
G1 X102.346 Y73.552 E7.24132
G1 X100.323 Y73.669 E7.30872
G1 X98.312 Y73.832 E7.37582
G1 X96.305 Y74.041 E7.44294
G1 X94.344 Y74.292 E7.50869
G1 X92.327 Y74.598 E7.57655
G1 X90.412 Y74.937 E7.64123
G1 X88.451 Y75.332 E7.70776
G1 X86.513 Y75.77 E7.77385
G1 X84.689 Y76.23 E7.83641
G1 X82.786 Y76.761 E7.90212
G1 X80.922 Y77.334 E7.96698
G1 X79.128 Y77.935 E8.02991
G1 X77.369 Y78.575 E8.09217
G1 X75.646 Y79.255 E8.15378
G1 X73.944 Y79.981 E8.21532
G1 X72.253 Y80.758 E8.27722
G1 X70.661 Y81.545 E8.33628
G1 X69.111 Y82.367 E8.39464
G1 X68.306 Y82.826 E8.42546
G1 X68.294 Y83.059 E8.43322
G1 X68.235 Y83.433 E8.44581
G1 X68.084 Y83.818 E8.45957
G1 X67.958 Y84.054 E8.46847
G1 X67.745 Y84.367 E8.48106
G1 X67.429 Y84.662 E8.49544
G1 X67.281 Y84.766 E8.50145
G1 X65.082 Y86.188 E8.58855
G1 X64.896 Y86.295 E8.59569
G1 X64.49 Y86.458 E8.61024
G1 X64.231 Y86.527 E8.61915
G1 X63.856 Y86.586 E8.63178
G1 X63.648 Y86.594 E8.6387
G1 X62.553 Y86.595 E8.67512
G1 X61.593 Y87.331 E8.71536
G1 X60.314 Y88.382 E8.77042
G1 X59.103 Y89.452 E8.82417
G1 X57.952 Y90.546 E8.87698
G1 X56.841 Y91.685 E8.9299
G1 X55.819 Y92.817 E8.98063
G1 X54.845 Y93.986 E9.03123
G1 X53.954 Y95.151 E9.08002
G1 X53.099 Y96.373 E9.12962
G1 X52.31 Y97.609 E9.17839
G1 X51.607 Y98.829 E9.22522
G1 X50.966 Y100.07 E9.27168
G1 X50.387 Y101.332 E9.31786
G1 X49.867 Y102.622 E9.36412
G1 X49.432 Y103.881 E9.40843
G1 X49.055 Y105.171 E9.45313
G1 X48.744 Y106.48 E9.49788
G1 X48.509 Y107.764 E9.54129
G1 X48.339 Y109.059 E9.58473
G1 X48.236 Y110.373 E9.62857
G1 X48.202 Y111.659 E9.67136
G1 X48.201 Y151.659 E11.00176
G1 X48.161 Y152.036 E11.01437
G1 X48.043 Y152.396 E11.02697
G1 X47.853 Y152.723 E11.03955
G1 X47.597 Y153.004 E11.05219
G1 X47.289 Y153.224 E11.06478
G1 X46.942 Y153.376 E11.07738
G1 X46.401 Y153.459 E11.09559
G1 X42.202 Y153.459 E11.23525
G1 X41.825 Y153.419 E11.24786
G1 X41.465 Y153.301 E11.26046
G1 X41.138 Y153.111 E11.27304
G1 X40.857 Y152.856 E11.28566
G1 X40.637 Y152.547 E11.29827
G1 X40.485 Y152.2 E11.31087
G1 X40.402 Y151.659 E11.32908
G1 X40.403 Y111.603 E12.66135
G1 X40.44 Y110.163 E12.70926
G1 X40.444 Y110.073 E12.71225
G1 X40.553 Y108.634 E12.76025
G1 X40.562 Y108.543 E12.76329
G1 X40.745 Y107.106 E12.81147
G1 X40.758 Y107.02 E12.81437
G1 X41.011 Y105.588 E12.86273
G1 X41.03 Y105.496 E12.86586
G1 X41.359 Y104.072 E12.91447
G1 X41.38 Y103.99 E12.91728
G1 X41.778 Y102.575 E12.96617
G1 X41.804 Y102.492 E12.96906
G1 X42.274 Y101.085 E13.0184
G1 X42.302 Y101.006 E13.02119
G1 X42.841 Y99.612 E13.0709
G1 X42.873 Y99.534 E13.0737
G1 X43.484 Y98.15 E13.12402
G1 X43.52 Y98.074 E13.12682
G1 X44.201 Y96.707 E13.17762
G1 X44.985 Y95.286 E13.23159
G1 X45.026 Y95.216 E13.23429
G1 X45.883 Y93.821 E13.28875
G1 X46.766 Y92.505 E13.34146
G1 X47.76 Y91.148 E13.3974
G1 X47.803 Y91.091 E13.39978
G1 X48.814 Y89.822 E13.45374
G1 X49.297 Y89.195 E13.48007
G1 X49.7 Y88.582 E13.50447
G1 X50.039 Y87.966 E13.52785
G1 X50.32 Y87.343 E13.55058
G1 X50.541 Y86.713 E13.57279
G1 X50.702 Y86.083 E13.59442
G1 X50.803 Y85.458 E13.61547
G1 X50.848 Y84.824 E13.63661
G1 X50.835 Y84.187 E13.65781
G1 X50.765 Y83.573 E13.67836
G1 X50.633 Y82.934 E13.70006
G1 X50.448 Y82.316 E13.72152
G1 X50.198 Y81.687 E13.74403
G1 X49.889 Y81.065 E13.76713
G1 X49.518 Y80.445 E13.79116
G1 X49.088 Y79.84 E13.81585
G1 X48.594 Y79.243 E13.84162
G1 X48.043 Y78.662 E13.86825
G1 X47.439 Y78.103 E13.89563
G1 X46.752 Y77.543 E13.92511
G1 X46.041 Y77.03 E13.95427
G1 X45.263 Y76.536 E13.98492
G1 X44.436 Y76.069 E14.01651
G1 X43.57 Y75.639 E14.04867
G1 X42.66 Y75.243 E14.08167
G1 X41.679 Y74.868 E14.1166
G1 X40.724 Y74.554 E14.15004
G1 X39.68 Y74.262 E14.1861
G1 X38.619 Y74.016 E14.22232
G1 X37.553 Y73.818 E14.25838
G1 X36.487 Y73.663 E14.29421
G1 X35.38 Y73.551 E14.33122
G1 X34.26 Y73.482 E14.36854
G1 X33.116 Y73.459 E14.4066
G1 X21.043 Y73.459 E14.80815
G1 X20.666 Y73.419 E14.82076
G1 X20.306 Y73.301 E14.83336
G1 X19.979 Y73.111 E14.84594
G1 X19.698 Y72.856 E14.85856
G1 X19.478 Y72.547 E14.87117
G1 X19.303 Y72.12 E14.88652
G1 X18.879 Y70.52 E14.94157
G1 X18.821 Y70.146 E14.95416
G1 X18.843 Y69.767 E14.96679
G1 X18.943 Y69.402 E14.97938
G1 X19.118 Y69.066 E14.99198
G1 X19.359 Y68.773 E15.0046
G1 X19.656 Y68.538 E15.01719
G1 X19.996 Y68.37 E15.02981
G0 F6000 X20.081 Y68.767
G1 F1200 X20.402 Y68.676 E15.0409
G1 X20.619 Y68.659 E15.04814
G1 X166.402 Y68.659 E19.8969
G1 X166.734 Y68.699 E19.90803
G1 X167.046 Y68.816 E19.91911
G1 X167.323 Y69.004 E19.93024
G1 X167.546 Y69.252 E19.94134
G1 X167.705 Y69.546 E19.95245
G1 X167.789 Y69.87 E19.96359
G1 X167.802 Y70.059 E19.96989
G1 X167.802 Y71.659 E20.0231
G1 X167.762 Y71.991 E20.03423
G1 X167.645 Y72.303 E20.04531
G1 X167.457 Y72.58 E20.05644
G1 X167.209 Y72.803 E20.06754
G1 X166.915 Y72.962 E20.07865
G1 X166.591 Y73.046 E20.08979
G1 X166.402 Y73.059 E20.09609
G1 X106.418 Y73.059 E22.09116
G1 X104.353 Y73.083 E22.15985
G1 X102.347 Y73.152 E22.22661
G1 X100.286 Y73.271 E22.29527
G1 X98.278 Y73.433 E22.36228
G1 X96.286 Y73.641 E22.42889
G1 X94.252 Y73.901 E22.49709
G1 X92.301 Y74.197 E22.56272
G1 X90.301 Y74.55 E22.63027
G1 X88.385 Y74.937 E22.69529
G1 X86.425 Y75.379 E22.76211
G1 X84.581 Y75.845 E22.82537
G1 X82.649 Y76.384 E22.89209
G1 X80.837 Y76.941 E22.95514
G1 X79.013 Y77.552 E23.01912
G1 X77.207 Y78.209 E23.08303
G1 X75.496 Y78.884 E23.14421
G1 X73.768 Y79.621 E23.20669
G1 X72.109 Y80.383 E23.26741
G1 X70.476 Y81.191 E23.32801
G1 X68.892 Y82.031 E23.38765
G1 X67.916 Y82.587 E23.42501
G1 X67.894 Y83.039 E23.44006
G1 X67.838 Y83.369 E23.45119
G1 X67.731 Y83.629 E23.46054
G1 X67.605 Y83.865 E23.46944
G1 X67.414 Y84.139 E23.48055
G1 X67.193 Y84.338 E23.49044
G1 X67.064 Y84.43 E23.49571
G1 X64.865 Y85.852 E23.58281
G1 X64.703 Y85.945 E23.58902
G1 X64.387 Y86.072 E23.60035
G1 X64.128 Y86.141 E23.60926
G1 X63.837 Y86.186 E23.61906
G1 X63.648 Y86.194 E23.62535
G1 X62.416 Y86.196 E23.66633
G1 X61.361 Y87.004 E23.71052
G1 X60.048 Y88.082 E23.76703
G1 X58.831 Y89.158 E23.82106
G1 X57.659 Y90.272 E23.87484
G1 X56.573 Y91.385 E23.92656
G1 X55.522 Y92.549 E23.97872
G1 X54.526 Y93.745 E24.03049
G1 X53.624 Y94.924 E24.07986
G1 X52.759 Y96.161 E24.13006
G1 X51.978 Y97.384 E24.17833
G1 X51.254 Y98.641 E24.22658
G1 X50.6 Y99.907 E24.27397
G1 X50.022 Y101.168 E24.32011
G1 X49.496 Y102.473 E24.3669
G1 X49.049 Y103.765 E24.41238
G1 X48.668 Y105.071 E24.45762
G1 X48.35 Y106.407 E24.5033
G1 X48.113 Y107.699 E24.54699
G1 X47.941 Y109.014 E24.5911
G1 X47.837 Y110.34 E24.63534
G1 X47.802 Y111.695 E24.68042
G1 X47.801 Y151.659 E26.00963
G1 X47.761 Y151.991 E26.02075
G1 X47.644 Y152.304 E26.03186
G1 X47.456 Y152.58 E26.04297
G1 X47.208 Y152.803 E26.05406
G1 X46.914 Y152.962 E26.06518
G1 X46.59 Y153.046 E26.07631
G1 X46.401 Y153.059 E26.08262
G1 X42.202 Y153.059 E26.22227
G1 X41.87 Y153.019 E26.2334
G1 X41.558 Y152.902 E26.24448
G1 X41.281 Y152.714 E26.25561
G1 X41.058 Y152.466 E26.26671
G1 X40.899 Y152.172 E26.27782
G1 X40.815 Y151.848 E26.28896
G1 X40.802 Y151.659 E26.29526
G1 X40.802 Y111.613 E27.62719
G1 X40.839 Y110.173 E27.6751
G1 X40.952 Y108.664 E27.72543
G1 X40.959 Y108.593 E27.72781
G1 X41.152 Y107.089 E27.77824
G1 X41.405 Y105.657 E27.82661
G1 X41.749 Y104.162 E27.87763
G1 X41.765 Y104.098 E27.87982
G1 X42.163 Y102.683 E27.92871
G1 X42.183 Y102.618 E27.93097
G1 X42.653 Y101.211 E27.98031
G1 X42.675 Y101.15 E27.98247
G1 X43.214 Y99.756 E28.03218
G1 X43.85 Y98.312 E28.08466
G1 X44.559 Y96.886 E28.13763
G1 X45.335 Y95.48 E28.19104
G1 X45.367 Y95.425 E28.19316
G1 X46.215 Y94.044 E28.24706
G1 X47.098 Y92.728 E28.29977
G1 X48.082 Y91.385 E28.35514
G1 X49.112 Y90.09 E28.41018
G1 X49.627 Y89.421 E28.43826
G1 X50.047 Y88.782 E28.46369
G1 X50.389 Y88.16 E28.4873
G1 X50.696 Y87.48 E28.51211
G1 X50.924 Y86.829 E28.53506
G1 X51.094 Y86.168 E28.55776
G1 X51.201 Y85.506 E28.58006
G1 X51.249 Y84.833 E28.6025
G1 X51.234 Y84.166 E28.62469
G1 X51.159 Y83.504 E28.64685
G1 X51.022 Y82.841 E28.66937
G1 X50.824 Y82.18 E28.69232
G1 X50.565 Y81.526 E28.71571
G1 X50.237 Y80.866 E28.74023
G1 X49.856 Y80.229 E28.76491
G1 X49.408 Y79.599 E28.79063
G1 X48.895 Y78.98 E28.81737
G1 X48.329 Y78.383 E28.84473
G1 X47.689 Y77.791 E28.87372
G1 X47.009 Y77.237 E28.9029
G1 X46.263 Y76.699 E28.93349
G1 X45.465 Y76.192 E28.96493
G1 X44.616 Y75.712 E28.99737
G1 X43.745 Y75.28 E29.02971
G1 X42.792 Y74.865 E29.06428
G1 X41.84 Y74.501 E29.09818
G1 X40.83 Y74.168 E29.13355
G1 X39.781 Y73.876 E29.16977
G1 X38.696 Y73.623 E29.20682
G1 X37.609 Y73.422 E29.24359
G1 X36.538 Y73.266 E29.27959
G1 X35.395 Y73.151 E29.3178
G1 X34.291 Y73.083 E29.35458
G1 X33.125 Y73.059 E29.39337
G1 X21.043 Y73.059 E29.79522
G1 X20.711 Y73.019 E29.80635
G1 X20.399 Y72.902 E29.81743
G1 X20.122 Y72.714 E29.82856
G1 X19.899 Y72.466 E29.83966
G1 X19.69 Y72.018 E29.8561
G1 X19.266 Y70.418 E29.91115
G1 X19.219 Y70.087 E29.92227
G1 X19.253 Y69.754 E29.9334
G1 X19.364 Y69.439 E29.94451
G1 X19.546 Y69.16 E29.95559
G1 X19.79 Y68.931 E29.96672
G1 X20.081 Y68.767 E29.97783
G0 F6000 X20.216 Y69.144
G1 F1200 X20.619 Y69.059 E29.99153
G1 X166.402 Y69.059 E34.84029
G1 X166.681 Y69.099 E34.84967
G1 X166.938 Y69.215 E34.85904
G1 X167.153 Y69.398 E34.86844
G1 X167.307 Y69.634 E34.87781
G1 X167.39 Y69.904 E34.8872
G1 X167.402 Y70.059 E34.89237
G1 X167.402 Y71.659 E34.94559
G1 X167.362 Y71.938 E34.95496
G1 X167.246 Y72.195 E34.96434
G1 X167.063 Y72.41 E34.97373
G1 X166.827 Y72.564 E34.98311
G1 X166.557 Y72.647 E34.9925
G1 X166.402 Y72.659 E34.99767
G1 X106.414 Y72.659 E36.99288
G1 X104.345 Y72.683 E37.0617
G1 X102.316 Y72.752 E37.12922
G1 X100.286 Y72.87 E37.19686
G1 X98.249 Y73.035 E37.26483
G1 X96.212 Y73.247 E37.33295
G1 X94.224 Y73.501 E37.3996
G1 X92.217 Y73.806 E37.46712
G1 X90.231 Y74.157 E37.5342
G1 X88.281 Y74.549 E37.60036
G1 X86.361 Y74.984 E37.66584
G1 X84.45 Y75.466 E37.73139
G1 X82.567 Y75.991 E37.7964
G1 X80.687 Y76.569 E37.86182
G1 X78.886 Y77.172 E37.92499
G1 X77.07 Y77.833 E37.98927
G1 X75.339 Y78.516 E38.05116
G1 X73.621 Y79.249 E38.11329
G1 X71.919 Y80.03 E38.17557
G1 X70.282 Y80.84 E38.23632
G1 X68.714 Y81.672 E38.29536
G1 X67.528 Y82.348 E38.34076
G1 X67.495 Y83.019 E38.3631
G1 X67.441 Y83.296 E38.37249
G1 X67.378 Y83.441 E38.37775
G1 X67.252 Y83.677 E38.38665
G1 X67.085 Y83.905 E38.39605
G1 X66.847 Y84.094 E38.40616
G1 X64.648 Y85.516 E38.49325
G1 X64.284 Y85.685 E38.5066
G1 X64.025 Y85.754 E38.51552
G1 X63.695 Y85.793 E38.52657
G1 X62.281 Y85.796 E38.5736
G1 X61.107 Y86.695 E38.62278
G1 X59.785 Y87.781 E38.67968
G1 X58.576 Y88.849 E38.73334
G1 X57.38 Y89.985 E38.7882
G1 X56.265 Y91.129 E38.84133
G1 X55.212 Y92.295 E38.89359
G1 X54.218 Y93.489 E38.94526
G1 X53.295 Y94.695 E38.99577
G1 X52.442 Y95.914 E39.04526
G1 X51.627 Y97.192 E39.09567
G1 X50.915 Y98.427 E39.14309
G1 X50.24 Y99.735 E39.19204
G1 X49.653 Y101.014 E39.23885
G1 X49.119 Y102.338 E39.28633
G1 X48.668 Y103.642 E39.33222
G1 X48.281 Y104.968 E39.37817
G1 X47.96 Y106.318 E39.42432
G1 X47.714 Y107.662 E39.46976
G1 X47.543 Y108.969 E39.5136
G1 X47.437 Y110.317 E39.55858
G1 X47.402 Y111.685 E39.60409
G1 X47.401 Y151.659 E40.93363
G1 X47.361 Y151.938 E40.94301
G1 X47.245 Y152.195 E40.95239
G1 X47.062 Y152.41 E40.96178
G1 X46.826 Y152.564 E40.97115
G1 X46.556 Y152.647 E40.98054
G1 X46.401 Y152.659 E40.98571
G1 X42.202 Y152.659 E41.12537
G1 X41.923 Y152.619 E41.13475
G1 X41.666 Y152.503 E41.14413
G1 X41.451 Y152.32 E41.15352
G1 X41.297 Y152.084 E41.16289
G1 X41.214 Y151.814 E41.17228
G1 X41.202 Y151.659 E41.17746
G1 X41.202 Y111.623 E42.50906
G1 X41.239 Y110.183 E42.55697
G1 X41.351 Y108.694 E42.60663
G1 X41.539 Y107.207 E42.65648
G1 X41.799 Y105.727 E42.70646
G1 X42.15 Y104.206 E42.75838
G1 X42.548 Y102.791 E42.80727
G1 X43.048 Y101.294 E42.85977
G1 X43.605 Y99.857 E42.91102
G1 X44.236 Y98.431 E42.96289
G1 X44.937 Y97.026 E43.01511
G1 X45.708 Y95.634 E43.06804
G1 X46.548 Y94.267 E43.1214
G1 X47.455 Y92.917 E43.1755
G1 X48.429 Y91.59 E43.23025
G1 X49.429 Y90.334 E43.28365
G1 X49.952 Y89.654 E43.31218
G1 X50.388 Y88.991 E43.33857
G1 X50.752 Y88.329 E43.3637
G1 X51.065 Y87.637 E43.38896
G1 X51.307 Y86.945 E43.41334
G1 X51.487 Y86.245 E43.43738
G1 X51.599 Y85.552 E43.46073
G1 X51.649 Y84.842 E43.4844
G1 X51.634 Y84.145 E43.50759
G1 X51.553 Y83.433 E43.53142
G1 X51.412 Y82.748 E43.55468
G1 X51.201 Y82.044 E43.57913
G1 X50.933 Y81.369 E43.60328
G1 X50.586 Y80.67 E43.62924
G1 X50.195 Y80.016 E43.65458
G1 X49.722 Y79.352 E43.6817
G1 X49.197 Y78.716 E43.70913
G1 X48.601 Y78.089 E43.7379
G1 X47.956 Y77.493 E43.76711
G1 X47.248 Y76.915 E43.79751
G1 X46.486 Y76.366 E43.82875
G1 X45.682 Y75.855 E43.86043
G1 X44.812 Y75.364 E43.89366
G1 X43.896 Y74.909 E43.92767
G1 X42.948 Y74.496 E43.96207
G1 X41.968 Y74.122 E43.99696
G1 X40.942 Y73.784 E44.03288
G1 X39.887 Y73.489 E44.06932
G1 X38.768 Y73.229 E44.10753
G1 X37.716 Y73.034 E44.14312
G1 X36.566 Y72.867 E44.18177
G1 X35.433 Y72.752 E44.21964
G1 X34.3 Y72.683 E44.2574
G1 X33.133 Y72.659 E44.29622
G1 X21.043 Y72.659 E44.69833
G1 X20.764 Y72.619 E44.70771
G1 X20.507 Y72.503 E44.71709
G1 X20.292 Y72.32 E44.72648
G1 X20.138 Y72.084 E44.73585
G1 X20.076 Y71.915 E44.74184
G1 X19.652 Y70.315 E44.79689
G1 X19.619 Y70.035 E44.80627
G1 X19.666 Y69.757 E44.81565
G1 X19.788 Y69.502 E44.82505
G1 X19.977 Y69.293 E44.83442
G1 X20.216 Y69.144 E44.84379
G0 F6000 X20.404 Y69.499
G1 F1200 X20.619 Y69.459 E44.85106
G1 X166.402 Y69.459 E49.69982
G1 X166.617 Y69.499 E49.7071
G1 X166.803 Y69.612 E49.71434
G1 X166.936 Y69.785 E49.72159
G1 X167.002 Y70.059 E49.73097
G1 X167.002 Y71.659 E49.78418
G1 X166.962 Y71.874 E49.79146
G1 X166.849 Y72.06 E49.7987
G1 X166.676 Y72.193 E49.80595
G1 X166.402 Y72.259 E49.81533
G1 X106.409 Y72.259 E51.8107
G1 X104.354 Y72.283 E51.87906
G1 X102.287 Y72.354 E51.94785
G1 X100.242 Y72.472 E52.01598
G1 X98.213 Y72.636 E52.08368
G1 X96.17 Y72.849 E52.152
G1 X94.155 Y73.106 E52.21956
G1 X92.162 Y73.409 E52.28661
G1 X90.162 Y73.763 E52.35417
G1 X88.201 Y74.158 E52.4207
G1 X86.263 Y74.596 E52.48678
G1 X84.352 Y75.078 E52.55233
G1 X82.449 Y75.609 E52.61804
G1 X80.569 Y76.187 E52.68346
