;FLAVOR:Marlin
;TIME:13416
;Filament used: 8.84659m
;Layer height: 0.2
;MINX:68.512
;MINY:68.779
;MINZ:0.2
;MAXX:149.428
;MAXY:151.228
;MAXZ:36.4
;Generated with Cura_SteamEngine 4.13.1
M140 S65
M105
M190 S65
M104 S200
M105
M109 S200
M82 ;absolute extrusion mode
; Script based on an original created by tjjfvi (https://github.com/tjjfvi)
; An up-to-date version of the tjjfvi's original script can be found
; here:  https://csi.t6.fyi/
; Note - This script will only work in Cura V4.2 and above!
; --- Global Settings
; layer_height = 0.2
; smooth_spiralized_contours = True
; magic_mesh_surface_mode = normal
; machine_extruder_count = 1
; --- Single Extruder Settings
; speed_z_hop = 5
; retraction_amount = 6.5
; retraction_hop = 0.2
; retraction_hop_enabled = False
; retraction_enable = True
; retraction_speed = 25
; retraction_retract_speed = 25
; retraction_prime_speed = 25
; speed_travel = 150.0

; Ender 3 Custom Start G-code
G92 E0 ; Reset Extruder
G28 ; Home all axes
G1 Z2.0 F3000 ; Move Z Axis up little to prevent scratching of Heat Bed
G1 X0.1 Y20 Z0.3 F5000.0 ; Move to start position
G1 X0.1 Y200.0 Z0.3 F1500.0 E15 ; Draw the first line
G1 X0.4 Y200.0 Z0.3 F5000.0 ; Move to side a little
G1 X0.4 Y20 Z0.3 F1500.0 E30 ; Draw the second line
G92 E0 ; Reset Extruder
G1 Z2.0 F3000 ; Move Z Axis up little to prevent scratching of Heat Bed
G1 X5 Y20 Z0.3 F5000.0 ; Move over to prevent blob squish
G92 E0
G92 E0
G1 F1500 E-6.5
;LAYER_COUNT:183
;LAYER:0
M107
G0 F6000 X69.763 Y70.004 Z0.2
;TYPE:SKIRT
G1 F1500 E0
G1 F1200 X70.18 Y69.644 E0.01832
G1 X70.644 Y69.347 E0.03665
G1 X71.124 Y69.13 E0.05417
G1 X71.422 Y69.019 E0.06474
G1 X71.951 Y68.865 E0.08307
G1 X72.748 Y68.78 E0.10973
G1 X134.748 Y68.779 E2.17186
G1 X135.297 Y68.819 E2.19016
G1 X136.093 Y69.025 E2.21751
G1 X136.389 Y69.137 E2.22804
G1 X136.889 Y69.369 E2.24637
G1 X137.428 Y69.732 E2.26798
G1 X137.832 Y70.106 E2.2863
G1 X138.178 Y70.535 E2.30463
G1 X138.55 Y71.21 E2.33026
G1 X138.679 Y71.513 E2.34121
G1 X138.858 Y72.035 E2.35957
G1 X138.959 Y72.576 E2.37787
G1 X138.983 Y73.003 E2.3921
G1 X138.979 Y96.014 E3.15745
G1 X142.989 Y97.474 E3.29938
G1 X143.408 Y97.656 E3.31458
G1 X144.697 Y98.31 E3.36265
G1 X145.169 Y98.595 E3.38099
G1 X145.468 Y98.829 E3.39362
G1 X146.578 Y99.792 E3.4425
G1 X146.967 Y100.182 E3.46082
G1 X147.199 Y100.494 E3.47375
G1 X147.204 Y100.491 E3.47394
G1 X148.036 Y101.675 E3.52207
G1 X148.319 Y102.148 E3.54041
G1 X148.476 Y102.502 E3.55329
G1 X149 Y103.871 E3.60204
G1 X149.159 Y104.398 E3.62035
G1 X149.223 Y104.768 E3.63284
G1 X149.4 Y106.216 E3.68136
G1 X149.428 Y106.677 E3.69672
G1 X149.428 Y130.305 E4.48259
G1 X149.4 Y130.765 E4.49792
G1 X149.223 Y132.217 E4.54657
G1 X149.117 Y132.757 E4.56487
G1 X148.999 Y133.117 E4.57747
G1 X148.481 Y134.468 E4.6256
G1 X148.324 Y134.823 E4.63851
G1 X148.039 Y135.302 E4.65704
G1 X147.203 Y136.497 E4.70555
G1 X146.855 Y136.925 E4.7239
G1 X146.586 Y137.183 E4.7363
G1 X145.493 Y138.136 E4.78453
G1 X145.092 Y138.442 E4.8013
G1 X144.709 Y138.666 E4.81606
G1 X143.406 Y139.33 E4.8647
G1 X142.981 Y139.515 E4.88012
G1 X138.98 Y140.972 E5.02174
G1 X138.985 Y146.842 E5.21698
G1 X138.983 Y147.032 E5.2233
G1 X138.937 Y147.581 E5.24162
G1 X138.722 Y148.375 E5.26898
G1 X138.611 Y148.659 E5.27912
G1 X138.374 Y149.157 E5.29747
G1 X138.055 Y149.631 E5.31647
G1 X138.04 Y149.65 E5.31727
G1 X137.668 Y150.056 E5.33559
G1 X137.241 Y150.405 E5.35393
G1 X136.576 Y150.778 E5.37929
G1 X136.271 Y150.911 E5.39036
G1 X135.751 Y151.094 E5.40869
G1 X135.21 Y151.2 E5.42703
G1 X134.752 Y151.228 E5.44229
G1 X72.745 Y151.227 E7.50465
G1 X72.195 Y151.187 E7.52299
G1 X71.657 Y151.068 E7.54132
G1 X71.249 Y150.92 E7.55576
G1 X70.943 Y150.789 E7.56683
G1 X70.454 Y150.536 E7.58514
G1 X70.006 Y150.215 E7.60347
G1 X69.61 Y149.833 E7.62177
G1 X69.407 Y149.587 E7.63238
G1 X69.105 Y149.127 E7.65068
G1 X68.898 Y148.69 E7.66676
G1 X68.784 Y148.405 E7.67697
G1 X68.617 Y147.88 E7.6953
G1 X68.527 Y147.336 E7.71364
G1 X68.512 Y146.994 E7.72502
G1 X68.513 Y73.001 E10.18604
G1 X68.553 Y72.451 E10.20438
G1 X68.672 Y71.913 E10.22271
G1 X68.818 Y71.508 E10.23702
G1 X68.947 Y71.206 E10.24795
G1 X69.2 Y70.717 E10.26626
G1 X69.521 Y70.269 E10.28459
G1 X69.763 Y70.004 E10.29653
G0 F6000 X70.046 Y70.287
G1 F1200 X70.442 Y69.948 E10.31386
G1 X70.884 Y69.673 E10.33118
G1 X71.263 Y69.505 E10.34497
G1 X71.561 Y69.394 E10.35554
G1 X72.062 Y69.25 E10.37288
G1 X72.748 Y69.18 E10.39582
G1 X134.748 Y69.179 E12.45795
G1 X135.268 Y69.219 E12.47529
G1 X135.951 Y69.399 E12.49878
G1 X136.247 Y69.511 E12.50931
G1 X136.719 Y69.732 E12.52664
G1 X137.178 Y70.044 E12.5451
G1 X137.559 Y70.4 E12.56245
G1 X137.881 Y70.81 E12.57979
G1 X138.182 Y71.367 E12.60084
G1 X138.311 Y71.67 E12.6118
G1 X138.478 Y72.164 E12.62914
G1 X138.567 Y72.677 E12.64646
G1 X138.583 Y73.003 E12.65731
G1 X138.579 Y96.294 E13.43198
G1 X142.853 Y97.85 E13.58326
G1 X143.227 Y98.013 E13.59683
G1 X144.516 Y98.667 E13.6449
G1 X144.962 Y98.938 E13.66226
G1 X145.206 Y99.131 E13.67261
G1 X146.316 Y100.094 E13.72148
G1 X146.682 Y100.464 E13.73879
G1 X146.871 Y100.725 E13.74951
G1 X146.877 Y100.721 E13.74975
G1 X147.709 Y101.905 E13.79788
G1 X147.975 Y102.353 E13.81521
G1 X148.102 Y102.645 E13.8258
G1 X148.626 Y104.014 E13.87456
G1 X148.775 Y104.513 E13.89188
G1 X148.826 Y104.816 E13.9021
G1 X149.003 Y106.264 E13.95062
G1 X149.028 Y106.677 E13.96438
G1 X149.028 Y130.305 E14.75025
G1 X149.003 Y130.716 E14.76394
G1 X148.826 Y132.168 E14.81259
G1 X148.723 Y132.679 E14.82993
G1 X148.626 Y132.974 E14.84026
G1 X148.108 Y134.325 E14.88838
G1 X147.966 Y134.645 E14.90003
G1 X147.711 Y135.073 E14.9166
G1 X146.875 Y136.268 E14.96511
G1 X146.544 Y136.671 E14.98245
G1 X146.323 Y136.882 E14.99261
G1 X145.23 Y137.835 E15.04084
G1 X144.87 Y138.109 E15.05589
G1 X144.528 Y138.309 E15.06907
G1 X143.225 Y138.973 E15.11771
G1 X142.844 Y139.139 E15.13153
G1 X138.58 Y140.692 E15.28247
G1 X138.585 Y146.838 E15.48688
G1 X138.583 Y147.028 E15.4932
G1 X138.537 Y147.547 E15.51053
G1 X138.35 Y148.23 E15.53409
G1 X138.239 Y148.514 E15.54423
G1 X138.012 Y148.983 E15.56156
G1 X137.741 Y149.383 E15.57763
G1 X137.726 Y149.402 E15.57843
G1 X137.372 Y149.785 E15.59578
G1 X136.965 Y150.109 E15.61308
G1 X136.416 Y150.412 E15.63394
G1 X136.111 Y150.545 E15.64501
G1 X135.619 Y150.716 E15.66233
G1 X135.106 Y150.81 E15.67968
G1 X134.752 Y150.828 E15.69147
G1 X72.745 Y150.827 E17.75383
G1 X72.225 Y150.787 E17.77117
G1 X71.718 Y150.668 E17.78849
G1 X71.407 Y150.553 E17.79952
G1 X71.101 Y150.422 E17.81059
G1 X70.639 Y150.18 E17.82794
G1 X70.219 Y149.871 E17.84528
G1 X69.738 Y149.361 E17.8686
G1 X69.725 Y149.344 E17.86931
G1 X69.441 Y148.907 E17.88665
G1 X69.269 Y148.542 E17.90007
G1 X69.155 Y148.257 E17.91028
G1 X68.999 Y147.759 E17.92763
G1 X68.912 Y146.994 E17.95324
G1 X68.913 Y73.001 E20.41426
G1 X68.953 Y72.481 E20.4316
G1 X69.072 Y71.974 E20.44893
G1 X69.186 Y71.665 E20.45988
G1 X69.315 Y71.363 E20.4708
G1 X69.556 Y70.901 E20.48813
G1 X70.046 Y70.287 E20.51426
G0 F6000 X70.329 Y70.57
G1 F1200 X70.702 Y70.253 E20.53054
G1 X71.122 Y70.001 E20.54683
G1 X71.403 Y69.88 E20.55701
G1 X71.701 Y69.769 E20.56759
G1 X72.172 Y69.636 E20.58386
G1 X72.748 Y69.58 E20.60311
G1 X134.748 Y69.579 E22.66524
G1 X135.236 Y69.619 E22.68153
G1 X135.81 Y69.773 E22.70129
G1 X136.106 Y69.885 E22.71182
G1 X136.548 Y70.095 E22.72809
G1 X136.928 Y70.356 E22.74343
G1 X137.284 Y70.692 E22.75971
G1 X137.581 Y71.082 E22.77601
G1 X137.814 Y71.524 E22.79263
G1 X137.943 Y71.827 E22.80358
G1 X138.098 Y72.291 E22.81986
G1 X138.183 Y73.002 E22.84367
G1 X138.179 Y96.574 E23.62768
G1 X142.716 Y98.226 E23.78827
G1 X143.046 Y98.37 E23.80025
G1 X144.335 Y99.024 E23.84832
G1 X144.752 Y99.28 E23.8646
G1 X144.944 Y99.433 E23.87276
G1 X146.054 Y100.396 E23.92164
G1 X146.396 Y100.746 E23.93792
G1 X146.536 Y100.961 E23.94645
G1 X146.55 Y100.951 E23.94702
G1 X147.382 Y102.135 E23.99515
G1 X147.629 Y102.557 E24.01142
G1 X147.729 Y102.788 E24.01979
G1 X148.253 Y104.157 E24.06854
G1 X148.429 Y104.865 E24.09281
G1 X148.606 Y106.313 E24.14133
G1 X148.628 Y106.677 E24.15345
G1 X148.628 Y130.305 E24.93933
G1 X148.606 Y130.668 E24.95142
G1 X148.429 Y132.12 E25.00007
G1 X148.252 Y132.831 E25.02444
G1 X147.734 Y134.182 E25.07257
G1 X147.608 Y134.466 E25.0829
G1 X147.383 Y134.844 E25.09753
G1 X146.547 Y136.039 E25.14604
G1 X146.061 Y136.58 E25.17023
G1 X144.968 Y137.533 E25.21846
G1 X144.648 Y137.776 E25.23182
G1 X144.346 Y137.953 E25.24346
G1 X143.043 Y138.617 E25.2921
G1 X142.707 Y138.763 E25.30429
G1 X138.18 Y140.412 E25.46454
G1 X138.185 Y146.834 E25.67813
G1 X138.183 Y147.024 E25.68445
G1 X138.138 Y147.511 E25.70072
G1 X137.977 Y148.084 E25.72051
G1 X137.866 Y148.368 E25.73066
G1 X137.651 Y148.808 E25.74694
G1 X137.427 Y149.135 E25.76013
G1 X137.412 Y149.154 E25.76093
G1 X137.078 Y149.512 E25.77722
G1 X136.691 Y149.811 E25.79348
G1 X136.256 Y150.045 E25.80991
G1 X135.951 Y150.178 E25.82098
G1 X135.488 Y150.336 E25.83725
G1 X135.005 Y150.417 E25.85354
G1 X134.752 Y150.428 E25.86196
G1 X72.745 Y150.427 E27.92432
G1 X72.257 Y150.387 E27.94061
G1 X71.564 Y150.185 E27.96462
G1 X71.258 Y150.054 E27.97569
G1 X70.826 Y149.825 E27.99195
G1 X70.436 Y149.529 E28.00823
G1 X70.056 Y149.118 E28.02685
G1 X70.043 Y149.101 E28.02756
G1 X69.778 Y148.69 E28.04383
G1 X69.641 Y148.393 E28.05471
G1 X69.527 Y148.108 E28.06492
G1 X69.382 Y147.64 E28.08121
G1 X69.312 Y146.994 E28.10282
G1 X69.313 Y73.001 E30.56384
G1 X69.353 Y72.513 E30.58013
G1 X69.554 Y71.823 E30.60403
G1 X69.683 Y71.521 E30.61495
G1 X69.912 Y71.088 E30.63124
G1 X70.329 Y70.57 E30.65336
G0 F6000 X70.612 Y70.853
G1 F1200 X70.961 Y70.56 E30.66852
G1 X71.542 Y70.255 E30.69034
G1 X71.84 Y70.144 E30.70092
G1 X72.28 Y70.023 E30.7161
G1 X72.748 Y69.98 E30.73173
G1 X134.748 Y69.979 E32.79386
G1 X135.202 Y70.019 E32.80902
G1 X135.668 Y70.147 E32.82509
G1 X135.964 Y70.259 E32.83562
G1 X136.374 Y70.457 E32.85076
G1 X136.678 Y70.669 E32.86309
G1 X137.008 Y70.983 E32.87824
G1 X137.277 Y71.351 E32.8934
G1 X137.446 Y71.681 E32.90573
G1 X137.575 Y71.984 E32.91668
G1 X137.716 Y72.417 E32.93183
G1 X137.783 Y73.002 E32.95141
G1 X137.779 Y96.854 E33.74473
G1 X142.579 Y98.602 E33.91464
G1 X142.865 Y98.726 E33.92501
G1 X144.154 Y99.38 E33.97308
G1 X144.682 Y99.735 E33.99424
G1 X145.792 Y100.698 E34.04312
G1 X146.109 Y101.026 E34.05829
G1 X146.222 Y101.181 E34.06467
G1 X147.054 Y102.365 E34.1128
G1 X147.355 Y102.931 E34.13412
G1 X147.879 Y104.3 E34.18288
G1 X148.032 Y104.914 E34.20392
G1 X148.209 Y106.362 E34.25244
G1 X148.228 Y106.677 E34.26294
G1 X148.228 Y130.305 E35.04881
G1 X148.209 Y130.62 E35.05931
G1 X148.032 Y132.072 E35.10796
G1 X147.879 Y132.688 E35.12907
G1 X147.361 Y134.039 E35.17719
G1 X147.251 Y134.287 E35.18622
G1 X147.055 Y134.614 E35.1989
G1 X146.219 Y135.809 E35.2474
G1 X145.798 Y136.279 E35.26839
G1 X144.705 Y137.232 E35.31662
G1 X144.426 Y137.443 E35.32825
G1 X144.164 Y137.597 E35.33836
G1 X142.861 Y138.261 E35.387
G1 X142.571 Y138.387 E35.39752
G1 X137.78 Y140.132 E35.56711
G1 X137.785 Y146.829 E35.78985
G1 X137.783 Y147.019 E35.79617
G1 X137.738 Y147.473 E35.81135
G1 X137.605 Y147.938 E35.82743
G1 X137.494 Y148.222 E35.83757
G1 X137.291 Y148.631 E35.85276
G1 X137.098 Y148.906 E35.86394
G1 X136.785 Y149.238 E35.87911
G1 X136.419 Y149.509 E35.89426
G1 X136.096 Y149.678 E35.90638
G1 X135.791 Y149.811 E35.91745
G1 X135.359 Y149.956 E35.93261
G1 X134.752 Y150.028 E35.95294
G1 X72.745 Y150.027 E38.0153
G1 X72.291 Y149.987 E38.03046
G1 X71.722 Y149.817 E38.05021
G1 X71.416 Y149.686 E38.06128
G1 X71.014 Y149.471 E38.07644
G1 X70.656 Y149.189 E38.0916
G1 X70.374 Y148.875 E38.10564
G1 X70.361 Y148.858 E38.10635
G1 X70.117 Y148.474 E38.12148
G1 X70.012 Y148.245 E38.12986
G1 X69.898 Y147.96 E38.14007
G1 X69.766 Y147.523 E38.15525
G1 X69.712 Y146.994 E38.17294
G1 X69.713 Y73.001 E40.63396
G1 X69.753 Y72.547 E40.64911
G1 X69.922 Y71.98 E40.66879
G1 X70.051 Y71.678 E40.67971
G1 X70.266 Y71.276 E40.69488
G1 X70.612 Y70.853 E40.71305
G0 F6000 X70.894 Y71.135
G1 F1200 X71.218 Y70.869 E40.727
G1 X71.682 Y70.629 E40.74437
G1 X71.98 Y70.518 E40.75495
G1 X72.385 Y70.41 E40.76889
G1 X72.748 Y70.38 E40.781
G1 X134.748 Y70.379 E42.84313
G1 X135.165 Y70.419 E42.85707
G1 X135.527 Y70.521 E42.86957
G1 X135.823 Y70.633 E42.8801
G1 X136.199 Y70.818 E42.89404
G1 X136.428 Y70.981 E42.90339
G1 X136.729 Y71.273 E42.91733
G1 X136.969 Y71.616 E42.93126
G1 X137.078 Y71.837 E42.93945
G1 X137.207 Y72.14 E42.95041
G1 X137.334 Y72.54 E42.96437
G1 X137.383 Y73.002 E42.97982
G1 X137.379 Y97.134 E43.78245
G1 X142.442 Y98.978 E43.96167
G1 X142.684 Y99.083 E43.97044
G1 X143.973 Y99.737 E44.01852
G1 X144.42 Y100.037 E44.03642
G1 X145.53 Y101 E44.0853
G1 X145.819 Y101.304 E44.09925
G1 X146.727 Y102.595 E44.15175
G1 X146.982 Y103.074 E44.16979
G1 X147.506 Y104.443 E44.21855
G1 X147.635 Y104.962 E44.23634
G1 X147.812 Y106.41 E44.28486
G1 X147.828 Y106.677 E44.29375
G1 X147.828 Y130.305 E45.07962
G1 X147.812 Y130.571 E45.08849
G1 X147.635 Y132.023 E45.13714
G1 X147.505 Y132.545 E45.15503
G1 X146.987 Y133.896 E45.20315
G1 X146.893 Y134.108 E45.21087
G1 X146.728 Y134.385 E45.22159
G1 X145.892 Y135.58 E45.2701
G1 X145.535 Y135.977 E45.28785
G1 X144.442 Y136.93 E45.33609
G1 X144.204 Y137.111 E45.34603
G1 X143.983 Y137.24 E45.35454
G1 X142.68 Y137.904 E45.40318
G1 X142.434 Y138.011 E45.4121
G1 X137.379 Y139.852 E45.59104
G1 X137.385 Y146.825 E45.82296
G1 X137.383 Y147.015 E45.82928
G1 X137.339 Y147.432 E45.84323
G1 X137.232 Y147.793 E45.85575
G1 X137.121 Y148.077 E45.86589
G1 X136.932 Y148.451 E45.87983
G1 X136.784 Y148.658 E45.88829
G1 X136.494 Y148.961 E45.90224
G1 X136.152 Y149.203 E45.91618
G1 X135.936 Y149.312 E45.92422
G1 X135.631 Y149.445 E45.93529
G1 X135.233 Y149.575 E45.94922
G1 X134.752 Y149.628 E45.96531
G1 X72.745 Y149.627 E48.02767
G1 X72.328 Y149.587 E48.04161
G1 X71.879 Y149.449 E48.05723
G1 X71.573 Y149.318 E48.0683
G1 X71.205 Y149.118 E48.08223
G1 X70.882 Y148.851 E48.09617
G1 X70.678 Y148.615 E48.10655
G1 X70.383 Y148.096 E48.1264
G1 X70.269 Y147.811 E48.13661
G1 X70.151 Y147.409 E48.15054
G1 X70.112 Y146.994 E48.16441
G1 X70.113 Y73.001 E50.62543
G1 X70.153 Y72.584 E50.63936
G1 X70.29 Y72.137 E50.65491
G1 X70.419 Y71.835 E50.66583
G1 X70.619 Y71.467 E50.67976
G1 X70.894 Y71.135 E50.6941
G0 F6000 X71.177 Y71.418
G1 F1200 X71.472 Y71.18 E50.70671
G1 X71.822 Y71.004 E50.71974
G1 X72.12 Y70.893 E50.73031
G1 X72.487 Y70.799 E50.74291
G1 X72.748 Y70.78 E50.75162
G1 X134.748 Y70.779 E52.81375
G1 X135.125 Y70.819 E52.82636
G1 X135.385 Y70.895 E52.83537
G1 X135.681 Y71.007 E52.84589
G1 X136.168 Y71.285 E52.86454
G1 X136.448 Y71.56 E52.8776
G1 X136.71 Y71.994 E52.89446
G1 X136.839 Y72.297 E52.90541
G1 X136.95 Y72.659 E52.918
G1 X136.983 Y73.002 E52.92946
G1 X136.979 Y97.414 E53.74141
G1 X142.305 Y99.354 E53.92994
G1 X142.503 Y99.44 E53.93712
G1 X143.792 Y100.094 E53.9852
G1 X144.158 Y100.339 E53.99984
G1 X145.268 Y101.302 E54.04872
G1 X145.526 Y101.579 E54.06131
G1 X146.4 Y102.825 E54.11193
G1 X146.608 Y103.217 E54.12669
G1 X147.132 Y104.586 E54.17545
G1 X147.238 Y105.011 E54.19001
G1 X147.415 Y106.459 E54.23853
G1 X147.428 Y106.677 E54.2458
G1 X147.428 Y130.305 E55.03167
G1 X147.415 Y130.523 E55.03893
G1 X147.238 Y131.975 E55.08758
G1 X147.132 Y132.401 E55.10218
G1 X146.614 Y133.752 E55.15031
G1 X146.535 Y133.929 E55.15675
G1 X146.4 Y134.156 E55.16554
G1 X145.564 Y135.351 E55.21405
G1 X145.272 Y135.676 E55.22858
G1 X144.179 Y136.629 E55.27681
G1 X143.801 Y136.884 E55.29197
G1 X142.498 Y137.548 E55.34061
G1 X142.297 Y137.635 E55.3479
G1 X136.979 Y139.571 E55.53613
G1 X136.985 Y146.821 E55.77727
G1 X136.983 Y147.011 E55.78359
G1 X136.939 Y147.387 E55.79618
G1 X136.859 Y147.647 E55.80523
G1 X136.748 Y147.931 E55.81537
G1 X136.485 Y148.391 E55.83299
G1 X136.47 Y148.41 E55.8338
G1 X136.205 Y148.681 E55.8464
G1 X135.776 Y148.945 E55.86316
G1 X135.471 Y149.078 E55.87423
G1 X135.11 Y149.192 E55.88682
G1 X134.752 Y149.228 E55.89878
G1 X72.745 Y149.227 E57.96115
G1 X72.368 Y149.187 E57.97375
G1 X72.037 Y149.082 E57.9853
G1 X71.731 Y148.951 E57.99638
G1 X71.4 Y148.766 E58.00899
G1 X71.009 Y148.389 E58.02705
