;FLAVOR:Marlin
;TIME:22232
;Filament used: 15.8663m
;Layer height: 0.2
;MINX:69.512
;MINY:41.364
;MINZ:0.2
;MAXX:148.428
;MAXY:178.636
;MAXZ:35.4
;Generated with Cura_SteamEngine 4.13.1
M140 S65
M105
M190 S65
M104 S200
M105
M109 S200
M82 ;absolute extrusion mode
; Script based on an original created by tjjfvi (https://github.com/tjjfvi)
; An up-to-date version of the tjjfvi's original script can be found
; here:  https://csi.t6.fyi/
; Note - This script will only work in Cura V4.2 and above!
; --- Global Settings
; layer_height = 0.2
; smooth_spiralized_contours = True
; magic_mesh_surface_mode = normal
; machine_extruder_count = 1
; --- Single Extruder Settings
; speed_z_hop = 5
; retraction_amount = 6.5
; retraction_hop = 0.2
; retraction_hop_enabled = False
; retraction_enable = True
; retraction_speed = 25
; retraction_retract_speed = 25
; retraction_prime_speed = 25
; speed_travel = 150.0

; Ender 3 Custom Start G-code
G92 E0 ; Reset Extruder
G28 ; Home all axes
G1 Z2.0 F3000 ; Move Z Axis up little to prevent scratching of Heat Bed
G1 X0.1 Y20 Z0.3 F5000.0 ; Move to start position
G1 X0.1 Y200.0 Z0.3 F1500.0 E15 ; Draw the first line
G1 X0.4 Y200.0 Z0.3 F5000.0 ; Move to side a little
G1 X0.4 Y20 Z0.3 F1500.0 E30 ; Draw the second line
G92 E0 ; Reset Extruder
G1 Z2.0 F3000 ; Move Z Axis up little to prevent scratching of Heat Bed
G1 X5 Y20 Z0.3 F5000.0 ; Move over to prevent blob squish
G92 E0
G92 E0
G1 F1500 E-6.5
;LAYER_COUNT:177
;LAYER:0
M107
G0 F6000 X70.126 Y43.427 Z0.2
;TYPE:SKIRT
G1 F1500 E0
G1 F1200 X70.492 Y42.898 E0.0214
G1 X70.506 Y42.881 E0.02213
G1 X70.886 Y42.482 E0.04045
G1 X71.32 Y42.143 E0.05877
G1 X71.92 Y41.814 E0.08153
G1 X72.225 Y41.681 E0.0926
G1 X72.745 Y41.498 E0.11093
G1 X73.286 Y41.392 E0.12927
G1 X73.744 Y41.364 E0.14453
G1 X133.749 Y41.364 E2.1403
G1 X134.299 Y41.404 E2.15865
G1 X134.837 Y41.523 E2.17697
G1 X135.246 Y41.671 E2.19144
G1 X135.554 Y41.803 E2.20258
G1 X136.043 Y42.056 E2.2209
G1 X136.491 Y42.378 E2.23925
G1 X136.887 Y42.76 E2.25755
G1 X137.109 Y43.032 E2.26922
G1 X137.407 Y43.496 E2.28756
G1 X137.595 Y43.894 E2.3022
G1 X137.71 Y44.18 E2.31246
G1 X137.878 Y44.705 E2.33079
G1 X137.968 Y45.249 E2.34913
G1 X137.984 Y45.598 E2.36075
G1 X137.979 Y83.522 E3.62211
G1 X141.989 Y84.982 E3.76405
G1 X142.408 Y85.164 E3.77924
G1 X143.697 Y85.818 E3.82732
G1 X144.169 Y86.103 E3.84565
G1 X144.467 Y86.335 E3.85821
G1 X145.577 Y87.297 E3.90707
G1 X145.966 Y87.687 E3.92539
G1 X146.202 Y88.005 E3.93856
G1 X146.206 Y88.002 E3.93873
G1 X147.035 Y89.182 E3.98669
G1 X147.319 Y89.654 E4.00501
G1 X147.474 Y90.006 E4.01781
G1 X147.999 Y91.376 E4.0666
G1 X148.159 Y91.904 E4.08495
G1 X148.223 Y92.275 E4.09747
G1 X148.4 Y93.724 E4.14603
G1 X148.428 Y94.185 E4.16139
G1 X148.428 Y117.813 E4.94726
G1 X148.4 Y118.273 E4.96259
G1 X148.223 Y119.725 E5.01124
G1 X148.117 Y120.265 E5.02954
G1 X147.999 Y120.625 E5.04214
G1 X147.481 Y121.976 E5.09027
G1 X147.324 Y122.331 E5.10318
G1 X147.039 Y122.81 E5.12171
G1 X146.203 Y124.005 E5.17022
G1 X145.855 Y124.433 E5.18857
G1 X145.585 Y124.692 E5.20101
G1 X144.492 Y125.644 E5.24922
G1 X144.092 Y125.949 E5.26595
G1 X143.709 Y126.173 E5.28071
G1 X142.406 Y126.837 E5.32935
G1 X141.981 Y127.022 E5.34477
G1 X137.978 Y128.48 E5.48646
G1 X137.985 Y173.35 E6.97885
G1 X137.983 Y174.408 E7.01403
G1 X137.942 Y174.958 E7.03238
G1 X137.822 Y175.495 E7.05068
G1 X137.69 Y175.864 E7.06371
G1 X137.602 Y176.075 E7.07132
G1 X137.354 Y176.567 E7.08964
G1 X137.037 Y177.017 E7.10795
G1 X136.573 Y177.493 E7.13006
G1 X136.38 Y177.659 E7.13853
G1 X135.937 Y177.987 E7.15686
G1 X135.272 Y178.322 E7.18163
G1 X135.122 Y178.38 E7.18698
G1 X134.595 Y178.541 E7.2053
G1 X134.051 Y178.624 E7.22361
G1 X133.752 Y178.636 E7.23356
G1 X73.746 Y178.635 E9.22937
G1 X73.196 Y178.595 E9.24771
G1 X72.658 Y178.476 E9.26603
G1 X72.269 Y178.336 E9.27979
G1 X72.058 Y178.247 E9.2874
G1 X71.567 Y177.997 E9.30573
G1 X71.118 Y177.678 E9.32405
G1 X70.653 Y177.223 E9.34569
G1 X70.488 Y177.031 E9.35411
G1 X70.16 Y176.588 E9.37244
G1 X69.826 Y175.924 E9.39716
G1 X69.768 Y175.774 E9.40251
G1 X69.607 Y175.247 E9.42084
G1 X69.524 Y174.703 E9.43914
G1 X69.512 Y174.404 E9.44909
G1 X69.513 Y45.599 E13.73316
G1 X69.553 Y45.049 E13.75151
G1 X69.672 Y44.511 E13.76983
G1 X69.776 Y44.209 E13.78046
G1 X69.888 Y43.924 E13.79064
G1 X70.126 Y43.427 E13.80897
G0 F6000 X70.488 Y43.601
G1 F1200 X70.8 Y43.153 E13.82713
G1 X70.814 Y43.136 E13.82786
G1 X71.176 Y42.76 E13.84522
G1 X71.59 Y42.444 E13.86254
G1 X72.08 Y42.18 E13.88105
G1 X72.385 Y42.047 E13.89212
G1 X72.877 Y41.876 E13.90944
G1 X73.39 Y41.782 E13.92679
G1 X73.744 Y41.764 E13.93858
G1 X133.749 Y41.764 E15.93435
G1 X134.269 Y41.804 E15.9517
G1 X134.776 Y41.923 E15.96902
G1 X135.088 Y42.039 E15.98009
G1 X135.396 Y42.171 E15.99124
G1 X135.858 Y42.412 E16.00857
G1 X136.278 Y42.721 E16.02591
G1 X136.777 Y43.256 E16.05025
G1 X136.789 Y43.272 E16.05091
G1 X137.069 Y43.712 E16.06826
G1 X137.224 Y44.044 E16.08044
G1 X137.339 Y44.33 E16.0907
G1 X137.495 Y44.827 E16.10802
G1 X137.584 Y45.598 E16.13384
G1 X137.579 Y83.801 E17.40447
G1 X141.853 Y85.358 E17.55576
G1 X142.227 Y85.521 E17.56933
G1 X143.516 Y86.175 E17.61741
G1 X143.962 Y86.446 E17.63477
G1 X144.205 Y86.638 E17.64507
G1 X145.315 Y87.6 E17.69392
G1 X145.681 Y87.97 E17.71123
G1 X145.865 Y88.241 E17.72213
G1 X145.879 Y88.231 E17.7227
G1 X146.708 Y89.411 E17.77066
G1 X146.974 Y89.86 E17.78802
G1 X147.101 Y90.149 E17.79852
G1 X147.626 Y91.519 E17.84732
G1 X147.775 Y92.019 E17.86467
G1 X147.826 Y92.324 E17.87496
G1 X148.003 Y93.773 E17.92351
G1 X148.028 Y94.185 E17.93724
G1 X148.028 Y117.813 E18.72311
G1 X148.003 Y118.224 E18.7368
G1 X147.826 Y119.676 E18.78545
G1 X147.723 Y120.187 E18.80279
G1 X147.626 Y120.482 E18.81312
G1 X147.108 Y121.833 E18.86124
G1 X146.966 Y122.153 E18.87289
G1 X146.711 Y122.581 E18.88946
G1 X145.875 Y123.776 E18.93796
G1 X145.544 Y124.179 E18.95531
G1 X145.322 Y124.391 E18.96552
G1 X144.229 Y125.343 E19.01373
G1 X143.87 Y125.616 E19.02873
G1 X143.528 Y125.816 E19.04191
G1 X142.225 Y126.48 E19.09055
G1 X141.844 Y126.646 E19.10437
G1 X137.578 Y128.199 E19.25537
G1 X137.585 Y173.349 E20.75706
G1 X137.583 Y174.407 E20.79225
G1 X137.542 Y174.927 E20.8096
G1 X137.422 Y175.434 E20.82693
G1 X137.321 Y175.71 E20.8367
G1 X137.233 Y175.921 E20.84431
G1 X136.996 Y176.385 E20.86164
G1 X136.691 Y176.808 E20.87898
G1 X136.312 Y177.19 E20.89688
G1 X136.119 Y177.356 E20.90535
G1 X135.699 Y177.664 E20.92267
G1 X135.128 Y177.949 E20.9439
G1 X134.978 Y178.007 E20.94924
G1 X134.479 Y178.157 E20.96658
G1 X133.752 Y178.236 E20.9909
G1 X73.746 Y178.235 E22.98671
G1 X73.226 Y178.195 E23.00405
G1 X72.719 Y178.076 E23.02137
G1 X72.425 Y177.968 E23.03179
G1 X72.214 Y177.879 E23.03941
G1 X71.75 Y177.64 E23.05677
G1 X71.329 Y177.333 E23.0741
G1 X70.956 Y176.962 E23.09159
G1 X70.791 Y176.77 E23.10001
G1 X70.483 Y176.35 E23.11734
G1 X70.199 Y175.78 E23.13852
G1 X70.141 Y175.63 E23.14387
G1 X69.991 Y175.131 E23.1612
G1 X69.912 Y174.404 E23.18552
G1 X69.913 Y45.599 E27.46959
G1 X69.953 Y45.079 E27.48694
G1 X70.149 Y44.355 E27.51189
G1 X70.261 Y44.07 E27.52207
G1 X70.488 Y43.601 E27.5394
G0 F6000 X70.848 Y43.777
G1 F1200 X71.109 Y43.407 E27.55446
G1 X71.123 Y43.39 E27.55519
G1 X71.464 Y43.039 E27.57147
G1 X71.858 Y42.748 E27.58776
G1 X72.24 Y42.547 E27.60212
G1 X72.545 Y42.414 E27.61318
G1 X73.008 Y42.256 E27.62946
G1 X73.491 Y42.175 E27.64575
G1 X73.744 Y42.164 E27.65417
G1 X133.749 Y42.164 E29.64994
G1 X134.237 Y42.204 E29.66623
G1 X134.931 Y42.407 E29.69028
G1 X135.239 Y42.539 E29.70142
G1 X135.671 Y42.767 E29.71767
G1 X136.061 Y43.064 E29.73397
G1 X136.457 Y43.496 E29.75347
G1 X136.469 Y43.512 E29.75413
G1 X136.73 Y43.926 E29.77041
G1 X136.852 Y44.193 E29.78017
G1 X136.967 Y44.479 E29.79042
G1 X137.112 Y44.946 E29.80669
G1 X137.184 Y45.598 E29.82851
G1 X137.179 Y84.082 E31.10849
G1 X141.716 Y85.734 E31.26908
G1 X142.046 Y85.878 E31.28106
G1 X143.335 Y86.532 E31.32913
G1 X143.943 Y86.94 E31.35349
G1 X145.053 Y87.902 E31.40234
G1 X145.395 Y88.252 E31.41862
G1 X145.541 Y88.469 E31.42732
G1 X145.552 Y88.461 E31.42777
G1 X146.381 Y89.641 E31.47573
G1 X146.629 Y90.064 E31.49204
G1 X146.727 Y90.292 E31.50029
G1 X147.252 Y91.662 E31.54909
G1 X147.429 Y92.372 E31.57343
G1 X147.606 Y93.821 E31.62198
G1 X147.628 Y94.185 E31.63411
G1 X147.628 Y117.813 E32.41998
G1 X147.606 Y118.176 E32.43208
G1 X147.429 Y119.628 E32.48073
G1 X147.252 Y120.339 E32.5051
G1 X146.734 Y121.69 E32.55322
G1 X146.608 Y121.974 E32.56356
G1 X146.383 Y122.352 E32.57819
G1 X145.547 Y123.547 E32.62669
G1 X145.059 Y124.089 E32.65095
G1 X143.966 Y125.041 E32.69916
G1 X143.648 Y125.283 E32.71245
G1 X143.346 Y125.46 E32.72409
G1 X142.043 Y126.124 E32.77273
G1 X141.707 Y126.27 E32.78492
G1 X137.178 Y127.919 E32.94523
G1 X137.185 Y173.349 E34.45624
G1 X137.183 Y174.407 E34.49143
G1 X137.142 Y174.894 E34.50768
G1 X136.952 Y175.556 E34.53059
G1 X136.864 Y175.767 E34.53819
G1 X136.639 Y176.202 E34.55448
G1 X136.347 Y176.594 E34.57074
G1 X136.051 Y176.886 E34.58457
G1 X135.858 Y177.052 E34.59303
G1 X135.462 Y177.34 E34.60932
G1 X134.984 Y177.576 E34.62705
G1 X134.834 Y177.634 E34.6324
G1 X134.365 Y177.773 E34.64867
G1 X133.752 Y177.836 E34.66917
G1 X73.746 Y177.835 E36.66497
G1 X73.258 Y177.795 E36.68126
G1 X72.58 Y177.599 E36.70473
G1 X72.369 Y177.51 E36.71235
G1 X71.935 Y177.284 E36.72862
G1 X71.544 Y176.99 E36.74489
G1 X71.26 Y176.701 E36.75837
G1 X71.095 Y176.509 E36.76679
G1 X70.807 Y176.113 E36.78308
G1 X70.572 Y175.636 E36.80076
G1 X70.514 Y175.486 E36.80611
G1 X70.375 Y175.017 E36.82238
G1 X70.312 Y174.404 E36.84288
G1 X70.313 Y45.599 E41.12695
G1 X70.353 Y45.111 E41.14323
G1 X70.521 Y44.502 E41.16425
G1 X70.633 Y44.217 E41.17443
G1 X70.848 Y43.777 E41.19072
G0 F6000 X71.208 Y43.955
G1 F1200 X71.418 Y43.661 E41.20274
G1 X71.432 Y43.644 E41.20347
G1 X71.751 Y43.319 E41.21862
G1 X72.123 Y43.055 E41.23379
G1 X72.4 Y42.914 E41.24412
G1 X72.705 Y42.781 E41.25519
G1 X73.137 Y42.636 E41.27035
G1 X73.744 Y42.564 E41.29068
G1 X133.749 Y42.564 E43.28645
G1 X134.203 Y42.604 E43.30161
G1 X134.773 Y42.774 E43.32139
G1 X135.081 Y42.906 E43.33254
G1 X135.483 Y43.122 E43.34772
G1 X135.84 Y43.404 E43.36285
G1 X136.137 Y43.736 E43.37767
G1 X136.149 Y43.752 E43.37833
G1 X136.481 Y44.342 E43.40085
G1 X136.596 Y44.628 E43.4111
G1 X136.729 Y45.064 E43.42626
G1 X136.784 Y45.598 E43.44412
G1 X136.779 Y84.362 E44.73341
G1 X141.579 Y86.11 E44.90332
G1 X141.865 Y86.234 E44.91369
G1 X143.154 Y86.888 E44.96176
G1 X143.681 Y87.242 E44.98288
G1 X144.791 Y88.204 E45.03173
G1 X145.108 Y88.532 E45.0469
G1 X145.224 Y88.691 E45.05345
G1 X146.053 Y89.871 E45.10141
G1 X146.354 Y90.436 E45.12271
G1 X146.879 Y91.806 E45.1715
G1 X147.032 Y92.421 E45.19258
G1 X147.209 Y93.87 E45.24113
G1 X147.228 Y94.185 E45.25163
G1 X147.228 Y117.813 E46.0375
G1 X147.209 Y118.128 E46.048
G1 X147.032 Y119.58 E46.09665
G1 X146.879 Y120.196 E46.11776
G1 X146.361 Y121.547 E46.16588
G1 X146.251 Y121.795 E46.17491
G1 X146.055 Y122.122 E46.18759
G1 X145.219 Y123.317 E46.23609
G1 X144.797 Y123.788 E46.25713
G1 X143.704 Y124.74 E46.30534
G1 X143.426 Y124.95 E46.31692
G1 X143.164 Y125.104 E46.32703
G1 X141.861 Y125.768 E46.37567
G1 X141.571 Y125.894 E46.38619
G1 X136.778 Y127.639 E46.55584
G1 X136.785 Y173.348 E48.07613
G1 X136.783 Y174.406 E48.11132
G1 X136.742 Y174.86 E48.12648
G1 X136.583 Y175.402 E48.14527
G1 X136.495 Y175.613 E48.15287
G1 X136.283 Y176.016 E48.16801
G1 X136.004 Y176.377 E48.18319
G1 X135.79 Y176.583 E48.19307
G1 X135.597 Y176.749 E48.20154
G1 X135.227 Y177.015 E48.21669
G1 X134.84 Y177.203 E48.231
G1 X134.69 Y177.261 E48.23635
G1 X134.252 Y177.387 E48.25151
G1 X133.752 Y177.436 E48.26822
G1 X73.746 Y177.435 E50.26403
G1 X73.292 Y177.395 E50.27919
G1 X72.736 Y177.231 E50.29847
G1 X72.525 Y177.142 E50.30608
G1 X72.122 Y176.928 E50.32126
G1 X71.763 Y176.648 E50.3364
G1 X71.563 Y176.441 E50.34598
G1 X71.398 Y176.249 E50.3544
G1 X71.133 Y175.878 E50.36956
G1 X70.945 Y175.492 E50.38384
G1 X70.887 Y175.342 E50.38919
G1 X70.761 Y174.904 E50.40435
G1 X70.712 Y174.404 E50.42106
G1 X70.713 Y45.599 E54.70513
G1 X70.753 Y45.145 E54.72029
G1 X70.893 Y44.648 E54.73746
G1 X71.005 Y44.363 E54.74765
G1 X71.208 Y43.955 E54.7628
G0 F6000 X71.567 Y44.136
G1 F1200 X71.741 Y43.898 E54.77261
G1 X72.037 Y43.602 E54.78653
G1 X72.56 Y43.28 E54.80696
G1 X72.865 Y43.147 E54.81803
G1 X73.263 Y43.017 E54.83195
G1 X73.744 Y42.964 E54.84805
G1 X133.749 Y42.964 E56.84382
G1 X134.166 Y43.004 E56.85775
G1 X134.616 Y43.142 E56.87341
G1 X134.924 Y43.274 E56.88456
G1 X135.291 Y43.475 E56.89847
G1 X135.614 Y43.742 E56.91241
G1 X135.829 Y43.992 E56.92338
G1 X136.11 Y44.491 E56.94243
G1 X136.225 Y44.777 E56.95268
G1 X136.344 Y45.179 E56.96662
G1 X136.384 Y45.598 E56.98062
G1 X136.379 Y84.642 E58.27923
G1 X141.442 Y86.486 E58.45845
G1 X141.684 Y86.591 E58.46722
G1 X142.973 Y87.245 E58.5153
G1 X143.419 Y87.544 E58.53316
G1 X144.529 Y88.506 E58.58201
G1 X144.818 Y88.81 E58.59596
G1 X145.726 Y90.101 E58.64846
G1 X145.98 Y90.579 E58.66646
G1 X146.505 Y91.949 E58.71526
G1 X146.635 Y92.469 E58.73308
G1 X146.812 Y93.918 E58.78164
G1 X146.828 Y94.185 E58.79053
G1 X146.828 Y117.813 E59.5764
G1 X146.812 Y118.079 E59.58527
G1 X146.635 Y119.531 E59.63392
G1 X146.505 Y120.053 E59.65181
G1 X145.987 Y121.404 E59.69993
G1 X145.893 Y121.616 E59.70765
G1 X145.728 Y121.893 E59.71837
G1 X144.892 Y123.088 E59.76688
G1 X144.534 Y123.486 E59.78468
G1 X143.441 Y124.438 E59.83289
G1 X143.204 Y124.618 E59.84279
G1 X142.983 Y124.747 E59.8513
G1 X141.68 Y125.411 E59.89994
G1 X141.434 Y125.518 E59.90886
G1 X136.378 Y127.359 E60.08783
G1 X136.385 Y173.347 E61.6174
G1 X136.383 Y174.405 E61.65259
G1 X136.342 Y174.822 E61.66652
G1 X136.213 Y175.248 E61.68133
G1 X136.125 Y175.459 E61.68893
G1 X135.928 Y175.828 E61.70284
G1 X135.53 Y176.28 E61.72287
G1 X135.337 Y176.446 E61.73134
G1 X134.994 Y176.688 E61.7453
G1 X134.695 Y176.83 E61.75631
G1 X134.545 Y176.888 E61.76166
G1 X134.142 Y177.001 E61.77558
G1 X133.752 Y177.036 E61.7886
G1 X73.746 Y177.035 E63.78441
G1 X73.329 Y176.995 E63.79835
G1 X72.891 Y176.862 E63.81357
G1 X72.68 Y176.773 E63.82119
G1 X72.311 Y176.574 E63.83513
G1 X71.866 Y176.18 E63.8549
G1 X71.701 Y175.988 E63.86332
G1 X71.46 Y175.646 E63.87723
G1 X71.318 Y175.347 E63.88824
G1 X71.26 Y175.197 E63.89359
G1 X71.147 Y174.794 E63.90751
G1 X71.112 Y174.404 E63.92054
G1 X71.113 Y45.599 E68.20461
G1 X71.153 Y45.182 E68.21854
G1 X71.265 Y44.794 E68.23197
G1 X71.377 Y44.509 E68.24216
G1 X71.567 Y44.136 E68.25608
G0 F6000 X71.75 Y44.656
G1 F1200 X72.036 Y44.17 E68.27484
G1 X72.05 Y44.153 E68.27557
G1 X72.32 Y43.887 E68.28818
G1 X72.72 Y43.647 E68.30369
G1 X73.025 Y43.514 E68.31476
G1 X73.386 Y43.4 E68.32735
G1 X73.744 Y43.364 E68.33932
G1 X133.749 Y43.364 E70.33509
G1 X134.126 Y43.404 E70.3477
G1 X134.458 Y43.51 E70.35929
G1 X134.766 Y43.642 E70.37044
G1 X135.097 Y43.827 E70.38305
G1 X135.497 Y44.216 E70.40161
G1 X135.509 Y44.232 E70.40227
G1 X135.739 Y44.64 E70.41785
G1 X135.854 Y44.926 E70.4281
G1 X135.958 Y45.291 E70.44073
G1 X135.984 Y45.598 E70.45097
G1 X135.979 Y84.922 E71.75889
G1 X141.305 Y86.862 E71.94742
G1 X141.503 Y86.948 E71.9546
G1 X142.792 Y87.602 E72.00268
G1 X143.157 Y87.847 E72.0173
G1 X144.267 Y88.809 E72.06615
G1 X144.526 Y89.086 E72.07877
G1 X145.399 Y90.331 E72.12934
G1 X145.607 Y90.722 E72.14407
G1 X146.132 Y92.092 E72.19287
G1 X146.238 Y92.518 E72.20747
G1 X146.415 Y93.967 E72.25602
G1 X146.428 Y94.185 E72.26329
G1 X146.428 Y117.813 E73.04916
G1 X146.415 Y118.031 E73.05642
G1 X146.238 Y119.483 E73.10507
G1 X146.132 Y119.909 E73.11967
G1 X145.614 Y121.26 E73.1678
G1 X145.535 Y121.437 E73.17424
G1 X145.4 Y121.664 E73.18303
G1 X144.564 Y122.859 E73.23153
G1 X144.271 Y123.184 E73.24609
G1 X143.178 Y124.136 E73.2943
G1 X142.801 Y124.391 E73.30944
G1 X141.498 Y125.055 E73.35808
G1 X141.297 Y125.142 E73.36536
G1 X135.978 Y127.079 E73.55364
G1 X135.985 Y173.346 E75.09248
G1 X135.983 Y174.404 E75.12767
G1 X135.942 Y174.781 E75.14029
G1 X135.844 Y175.094 E75.1512
G1 X135.756 Y175.305 E75.1588
G1 X135.574 Y175.637 E75.17139
G1 X135.269 Y175.977 E75.18658
