;FLAVOR:Marlin
;TIME:12670
;Filament used: 8.52435m
;Layer height: 0.2
;MINX:69.485
;MINY:69.736
;MINZ:0.2
;MAXX:148.499
;MAXY:150.263
;MAXZ:34
;Generated with Cura_SteamEngine 4.13.1
M140 S65
M105
M190 S65
M104 S200
M105
M109 S200
M82 ;absolute extrusion mode
; Script based on an original created by tjjfvi (https://github.com/tjjfvi)
; An up-to-date version of the tjjfvi's original script can be found
; here:  https://csi.t6.fyi/
; Note - This script will only work in Cura V4.2 and above!
; --- Global Settings
; layer_height = 0.2
; smooth_spiralized_contours = True
; magic_mesh_surface_mode = normal
; machine_extruder_count = 1
; --- Single Extruder Settings
; speed_z_hop = 5
; retraction_amount = 6.5
; retraction_hop = 0.2
; retraction_hop_enabled = False
; retraction_enable = True
; retraction_speed = 25
; retraction_retract_speed = 25
; retraction_prime_speed = 25
; speed_travel = 150.0

; Ender 3 Custom Start G-code
G92 E0 ; Reset Extruder
G28 ; Home all axes
G1 Z2.0 F3000 ; Move Z Axis up little to prevent scratching of Heat Bed
G1 X0.1 Y20 Z0.3 F5000.0 ; Move to start position
G1 X0.1 Y200.0 Z0.3 F1500.0 E15 ; Draw the first line
G1 X0.4 Y200.0 Z0.3 F5000.0 ; Move to side a little
G1 X0.4 Y20 Z0.3 F1500.0 E30 ; Draw the second line
G92 E0 ; Reset Extruder
G1 Z2.0 F3000 ; Move Z Axis up little to prevent scratching of Heat Bed
G1 X5 Y20 Z0.3 F5000.0 ; Move over to prevent blob squish
G92 E0
G92 E0
G1 F1500 E-6.5
;LAYER_COUNT:170
;LAYER:0
M107
G0 F6000 X70.852 Y70.86 Z0.2
;TYPE:SKIRT
G1 F1500 E0
G1 F1200 X71.286 Y70.52 E0.01834
G1 X71.587 Y70.337 E0.03005
G1 X71.686 Y70.283 E0.0338
G1 X72.132 Y70.076 E0.05016
G1 X72.346 Y69.993 E0.05779
G1 X72.873 Y69.832 E0.07612
G1 X73.417 Y69.748 E0.09443
G1 X73.72 Y69.736 E0.10451
G1 X134.102 Y69.736 E2.11283
G1 X134.652 Y69.776 E2.13117
G1 X135.19 Y69.895 E2.1495
G1 X135.462 Y69.988 E2.15906
G1 X135.676 Y70.07 E2.16668
G1 X136.11 Y70.268 E2.18254
G1 X136.209 Y70.321 E2.18628
G1 X136.674 Y70.615 E2.20458
G1 X137.092 Y70.974 E2.2229
G1 X137.454 Y71.39 E2.24125
G1 X137.752 Y71.853 E2.25956
G1 X137.908 Y72.176 E2.27149
G1 X138.03 Y72.461 E2.2818
G1 X138.21 Y72.982 E2.30013
G1 X138.312 Y73.523 E2.31844
G1 X138.337 Y73.954 E2.3328
G1 X138.339 Y78.624 E2.48813
G1 X138.336 Y96.312 E3.07643
G1 X142.155 Y97.703 E3.21162
G1 X142.573 Y97.884 E3.22677
G1 X143.836 Y98.524 E3.27386
G1 X144.308 Y98.808 E3.29218
G1 X144.608 Y99.044 E3.30488
G1 X145.689 Y99.982 E3.35248
G1 X146.078 Y100.372 E3.3708
G1 X146.311 Y100.686 E3.38381
G1 X146.316 Y100.683 E3.384
G1 X147.125 Y101.834 E3.43079
G1 X147.408 Y102.306 E3.4491
G1 X147.564 Y102.659 E3.46193
G1 X148.075 Y103.992 E3.50942
G1 X148.235 Y104.519 E3.52773
G1 X148.299 Y104.892 E3.54032
G1 X148.471 Y106.303 E3.5876
G1 X148.499 Y106.763 E3.60293
G1 X148.499 Y129.786 E4.36867
G1 X148.471 Y130.243 E4.3839
G1 X148.302 Y131.639 E4.43067
G1 X148.197 Y132.179 E4.44897
G1 X148.077 Y132.547 E4.46184
G1 X147.561 Y133.888 E4.50963
G1 X147.326 Y134.386 E4.52795
G1 X147.128 Y134.7 E4.54029
G1 X146.324 Y135.85 E4.58696
G1 X146.1 Y136.141 E4.59918
G1 X145.694 Y136.552 E4.61839
G1 X144.62 Y137.487 E4.66576
G1 X144.179 Y137.818 E4.6841
G1 X143.848 Y138.008 E4.69679
G1 X142.578 Y138.654 E4.74418
G1 X142.155 Y138.838 E4.75952
G1 X138.336 Y140.229 E4.89471
G1 X138.34 Y144.459 E5.0354
G1 X138.336 Y146.045 E5.08815
G1 X138.295 Y146.594 E5.10646
G1 X138.174 Y147.132 E5.1248
G1 X138.07 Y147.432 E5.13536
G1 X137.968 Y147.69 E5.14459
G1 X137.729 Y148.186 E5.1629
G1 X137.491 Y148.55 E5.17736
G1 X137.46 Y148.592 E5.1791
G1 X137.102 Y149.01 E5.19741
G1 X136.687 Y149.372 E5.21572
G1 X136.223 Y149.671 E5.23408
G1 X135.925 Y149.817 E5.24512
G1 X135.646 Y149.939 E5.25525
G1 X134.899 Y150.177 E5.28132
G1 X134.875 Y150.182 E5.28214
G1 X134.1 Y150.262 E5.30805
G1 X73.721 Y150.263 E7.31626
G1 X73.172 Y150.223 E7.33457
G1 X72.629 Y150.103 E7.35307
G1 X72.198 Y149.947 E7.36831
G1 X71.917 Y149.826 E7.37849
G1 X71.428 Y149.572 E7.39682
G1 X70.981 Y149.25 E7.41514
G1 X70.585 Y148.867 E7.43346
G1 X70.318 Y148.53 E7.44776
G1 X70.289 Y148.489 E7.44943
G1 X70.004 Y148.018 E7.46774
G1 X69.867 Y147.718 E7.47871
G1 X69.762 Y147.458 E7.48804
G1 X69.594 Y146.933 E7.50637
G1 X69.503 Y146.39 E7.52469
G1 X69.486 Y146.035 E7.53651
G1 X69.485 Y73.971 E9.93337
G1 X69.559 Y73.226 E9.95827
G1 X69.562 Y73.211 E9.95877
G1 X69.785 Y72.483 E9.9841
G1 X69.904 Y72.2 E9.99431
G1 X70.154 Y71.709 E10.01264
G1 X70.472 Y71.259 E10.03096
G1 X70.852 Y70.86 E10.04929
G0 F6000 X71.184 Y71.1
G1 F1200 X71.779 Y70.688 E10.07336
G1 X71.878 Y70.634 E10.07711
G1 X72.277 Y70.449 E10.09174
G1 X72.491 Y70.366 E10.09937
G1 X72.989 Y70.215 E10.11668
G1 X73.72 Y70.136 E10.14114
G1 X134.102 Y70.136 E12.14945
G1 X134.622 Y70.176 E12.1668
G1 X135.319 Y70.361 E12.19078
G1 X135.533 Y70.443 E12.1984
G1 X135.921 Y70.621 E12.2126
G1 X136.02 Y70.674 E12.21634
G1 X136.459 Y70.954 E12.23365
G1 X136.85 Y71.298 E12.25098
G1 X137.184 Y71.698 E12.26831
G1 X137.541 Y72.333 E12.29254
G1 X137.663 Y72.618 E12.30285
G1 X137.83 Y73.111 E12.32016
G1 X137.921 Y73.625 E12.33752
G1 X137.937 Y73.955 E12.34851
G1 X137.939 Y78.624 E12.5038
G1 X137.935 Y96.593 E13.10145
G1 X142.018 Y98.079 E13.24597
G1 X142.392 Y98.241 E13.25952
G1 X143.655 Y98.881 E13.30662
G1 X144.1 Y99.152 E13.32395
G1 X144.346 Y99.346 E13.33437
G1 X145.427 Y100.284 E13.38197
G1 X145.794 Y100.655 E13.39933
G1 X145.983 Y100.917 E13.41007
G1 X145.989 Y100.913 E13.41031
G1 X146.798 Y102.064 E13.4571
G1 X147.064 Y102.512 E13.47443
G1 X147.191 Y102.802 E13.48496
G1 X147.702 Y104.135 E13.53245
G1 X147.85 Y104.634 E13.54976
G1 X147.902 Y104.941 E13.56011
G1 X148.074 Y106.352 E13.60739
G1 X148.099 Y106.763 E13.62109
G1 X148.099 Y129.786 E14.38683
G1 X148.074 Y130.195 E14.40046
G1 X147.905 Y131.591 E14.44723
G1 X147.803 Y132.102 E14.46456
G1 X147.703 Y132.403 E14.47511
G1 X147.187 Y133.744 E14.5229
G1 X146.963 Y134.215 E14.54025
G1 X146.801 Y134.471 E14.55033
G1 X145.997 Y135.621 E14.597
G1 X145.795 Y135.882 E14.60797
G1 X145.431 Y136.25 E14.62519
G1 X144.357 Y137.185 E14.67255
G1 X143.939 Y137.496 E14.68988
G1 X143.666 Y137.651 E14.70032
G1 X142.396 Y138.297 E14.74771
G1 X142.018 Y138.462 E14.76143
G1 X137.936 Y139.949 E14.90593
G1 X137.94 Y144.458 E15.0559
G1 X137.936 Y146.044 E15.10865
G1 X137.895 Y146.563 E15.12596
G1 X137.698 Y147.285 E15.15085
G1 X137.596 Y147.543 E15.16008
G1 X137.368 Y148.012 E15.17743
G1 X137.17 Y148.312 E15.18938
G1 X137.139 Y148.354 E15.19112
G1 X136.798 Y148.748 E15.20845
G1 X136.401 Y149.086 E15.22579
G1 X135.765 Y149.45 E15.25016
G1 X135.486 Y149.572 E15.26029
G1 X134.817 Y149.786 E15.28365
G1 X134.793 Y149.791 E15.28447
G1 X134.1 Y149.862 E15.30764
G1 X73.721 Y149.863 E17.31585
G1 X73.201 Y149.823 E17.3332
G1 X72.724 Y149.714 E17.34947
G1 X72.356 Y149.58 E17.3625
G1 X72.075 Y149.459 E17.37267
G1 X71.614 Y149.217 E17.38999
G1 X71.195 Y148.907 E17.40733
G1 X70.828 Y148.536 E17.42468
G1 X70.644 Y148.299 E17.43466
G1 X70.615 Y148.258 E17.43633
G1 X70.348 Y147.811 E17.45365
G1 X70.238 Y147.568 E17.46252
G1 X70.133 Y147.308 E17.47185
G1 X69.976 Y146.811 E17.48918
G1 X69.896 Y146.296 E17.50652
G1 X69.886 Y146.035 E17.51521
G1 X69.885 Y73.971 E19.91206
G1 X69.951 Y73.304 E19.93436
G1 X69.954 Y73.289 E19.93487
G1 X70.154 Y72.638 E19.95752
G1 X70.273 Y72.355 E19.96773
G1 X70.511 Y71.892 E19.98504
G1 X70.817 Y71.47 E20.00238
G1 X71.184 Y71.1 E20.01971
G0 F6000 X71.514 Y71.345
G1 F1200 X71.97 Y71.039 E20.03798
G1 X72.069 Y70.985 E20.04173
G1 X72.421 Y70.822 E20.05463
G1 X72.635 Y70.739 E20.06226
G1 X73.104 Y70.6 E20.07853
G1 X73.72 Y70.536 E20.09913
G1 X134.102 Y70.536 E22.10745
G1 X134.59 Y70.576 E22.12373
G1 X135.175 Y70.735 E22.14389
G1 X135.389 Y70.817 E22.15152
G1 X135.732 Y70.973 E22.16405
G1 X135.831 Y71.026 E22.16778
G1 X136.242 Y71.292 E22.18407
G1 X136.605 Y71.62 E22.20034
G1 X136.909 Y72.004 E22.21663
G1 X137.173 Y72.49 E22.23502
G1 X137.295 Y72.775 E22.24534
G1 X137.45 Y73.24 E22.26164
G1 X137.537 Y73.955 E22.2856
G1 X137.539 Y78.624 E22.44089
G1 X137.535 Y96.873 E23.04785
G1 X141.881 Y98.455 E23.20168
G1 X142.211 Y98.598 E23.21364
G1 X143.474 Y99.238 E23.26073
G1 X143.891 Y99.494 E23.27701
G1 X144.084 Y99.648 E23.28522
G1 X145.165 Y100.586 E23.33282
G1 X145.507 Y100.936 E23.3491
G1 X145.648 Y101.152 E23.35768
G1 X145.661 Y101.143 E23.3582
G1 X146.47 Y102.294 E23.405
G1 X146.718 Y102.716 E23.42128
G1 X146.817 Y102.945 E23.42957
G1 X147.328 Y104.278 E23.47706
G1 X147.505 Y104.989 E23.50143
G1 X147.677 Y106.4 E23.5487
G1 X147.699 Y106.763 E23.5608
G1 X147.699 Y129.786 E24.32655
G1 X147.677 Y130.147 E24.33858
G1 X147.508 Y131.543 E24.38535
G1 X147.41 Y132.022 E24.40161
G1 X147.33 Y132.259 E24.40993
G1 X146.814 Y133.6 E24.45772
G1 X146.473 Y134.242 E24.4819
G1 X145.669 Y135.392 E24.52857
G1 X145.489 Y135.624 E24.53833
G1 X145.169 Y135.949 E24.5535
G1 X144.095 Y136.884 E24.60086
G1 X143.701 Y137.174 E24.61714
G1 X143.485 Y137.295 E24.62537
G1 X142.215 Y137.941 E24.67276
G1 X141.882 Y138.086 E24.68484
G1 X137.536 Y139.669 E24.83868
G1 X137.54 Y144.457 E24.99793
G1 X137.536 Y146.043 E25.05068
G1 X137.495 Y146.53 E25.06693
G1 X137.326 Y147.138 E25.08792
G1 X137.224 Y147.396 E25.09715
G1 X137.007 Y147.835 E25.11344
G1 X136.848 Y148.075 E25.12301
G1 X136.817 Y148.117 E25.12475
G1 X136.495 Y148.485 E25.14101
G1 X136.117 Y148.797 E25.15732
G1 X135.605 Y149.084 E25.17684
G1 X135.326 Y149.206 E25.18697
G1 X134.736 Y149.394 E25.20756
G1 X134.712 Y149.399 E25.20838
G1 X134.1 Y149.462 E25.22884
G1 X73.721 Y149.463 E27.23705
G1 X73.233 Y149.423 E27.25334
G1 X72.839 Y149.33 E27.2668
G1 X72.515 Y149.212 E27.27827
G1 X72.234 Y149.091 E27.28845
G1 X71.801 Y148.862 E27.30474
G1 X71.412 Y148.565 E27.32102
G1 X70.971 Y148.068 E27.34312
G1 X70.942 Y148.027 E27.34479
G1 X70.609 Y147.418 E27.36787
G1 X70.504 Y147.158 E27.3772
G1 X70.359 Y146.691 E27.39346
G1 X70.286 Y146.035 E27.41542
G1 X70.285 Y73.971 E29.81228
G1 X70.343 Y73.383 E29.83193
G1 X70.346 Y73.368 E29.83244
G1 X70.523 Y72.793 E29.85245
G1 X70.642 Y72.51 E29.86266
G1 X70.867 Y72.076 E29.87892
G1 X71.161 Y71.684 E29.89521
G1 X71.514 Y71.345 E29.91149
G0 F6000 X71.503 Y71.903
G1 F1200 X71.841 Y71.597 E29.92666
G1 X72.162 Y71.39 E29.93936
G1 X72.261 Y71.336 E29.94311
G1 X72.566 Y71.195 E29.95429
G1 X72.78 Y71.112 E29.96192
G1 X73.217 Y70.985 E29.97706
G1 X73.72 Y70.936 E29.99387
G1 X134.102 Y70.936 E32.00218
G1 X134.556 Y70.976 E32.01734
G1 X135.032 Y71.108 E32.03377
G1 X135.246 Y71.19 E32.04139
G1 X135.543 Y71.326 E32.05225
G1 X135.642 Y71.379 E32.05599
G1 X136.023 Y71.628 E32.07113
G1 X136.355 Y71.94 E32.08628
G1 X136.628 Y72.306 E32.10147
G1 X136.805 Y72.648 E32.11428
G1 X136.927 Y72.933 E32.12459
G1 X137.069 Y73.366 E32.13974
G1 X137.137 Y73.955 E32.15946
G1 X137.139 Y78.624 E32.31476
G1 X137.135 Y97.153 E32.93103
G1 X141.744 Y98.831 E33.09417
G1 X142.03 Y98.955 E33.10454
G1 X143.293 Y99.595 E33.15163
G1 X143.822 Y99.95 E33.17282
G1 X144.903 Y100.888 E33.22042
G1 X145.22 Y101.216 E33.2356
G1 X145.334 Y101.373 E33.24205
G1 X146.143 Y102.524 E33.28884
G1 X146.444 Y103.088 E33.31011
G1 X146.955 Y104.421 E33.35759
G1 X147.108 Y105.037 E33.3787
G1 X147.28 Y106.448 E33.42598
G1 X147.299 Y106.763 E33.43647
G1 X147.299 Y129.786 E34.20222
G1 X147.28 Y130.098 E34.21262
G1 X147.111 Y131.494 E34.25939
G1 X146.957 Y132.116 E34.2807
G1 X146.441 Y133.457 E34.32849
G1 X146.145 Y134.013 E34.34944
G1 X145.341 Y135.163 E34.39611
G1 X145.184 Y135.365 E34.40462
G1 X144.906 Y135.647 E34.41779
G1 X143.832 Y136.582 E34.46515
G1 X143.304 Y136.938 E34.48633
G1 X142.034 Y137.584 E34.53372
G1 X141.745 Y137.71 E34.54421
G1 X137.136 Y139.389 E34.70736
G1 X137.14 Y144.456 E34.87589
G1 X137.136 Y146.042 E34.92864
G1 X137.095 Y146.495 E34.94377
G1 X136.954 Y146.991 E34.96092
G1 X136.852 Y147.249 E34.97014
G1 X136.526 Y147.837 E34.99251
G1 X136.495 Y147.879 E34.99424
G1 X136.193 Y148.22 E35.00939
G1 X135.837 Y148.504 E35.02454
G1 X135.445 Y148.717 E35.03938
G1 X135.166 Y148.839 E35.0495
G1 X134.654 Y149.002 E35.06738
G1 X134.63 Y149.007 E35.06819
G1 X134.1 Y149.062 E35.08591
G1 X73.721 Y149.063 E37.09413
G1 X73.267 Y149.023 E37.10929
G1 X72.954 Y148.947 E37.12
G1 X72.673 Y148.845 E37.12994
G1 X72.392 Y148.724 E37.14012
G1 X71.991 Y148.508 E37.15527
G1 X71.633 Y148.225 E37.17045
G1 X71.297 Y147.837 E37.18752
G1 X71.268 Y147.796 E37.18919
G1 X70.98 Y147.269 E37.20916
G1 X70.875 Y147.009 E37.21849
G1 X70.742 Y146.573 E37.23365
G1 X70.686 Y146.035 E37.25164
G1 X70.685 Y73.971 E39.6485
G1 X70.735 Y73.461 E39.66554
G1 X70.738 Y73.446 E39.66605
G1 X70.891 Y72.948 E39.68338
G1 X71.01 Y72.665 E39.69359
G1 X71.223 Y72.262 E39.70875
G1 X71.503 Y71.903 E39.72389
G0 F6000 X71.842 Y72.126
G1 F1200 X72.164 Y71.858 E39.73783
G1 X72.453 Y71.688 E39.74898
G1 X72.71 Y71.568 E39.75841
G1 X72.924 Y71.485 E39.76605
G1 X73.328 Y71.371 E39.78001
G1 X73.72 Y71.336 E39.7931
G1 X134.102 Y71.336 E41.80141
G1 X134.519 Y71.376 E41.81534
G1 X134.889 Y71.482 E41.82815
G1 X135.103 Y71.564 E41.83577
G1 X135.354 Y71.678 E41.84494
G1 X135.453 Y71.731 E41.84867
G1 X135.802 Y71.964 E41.86263
G1 X136.101 Y72.258 E41.87658
G1 X136.338 Y72.603 E41.8905
G1 X136.437 Y72.805 E41.89798
G1 X136.559 Y73.09 E41.90829
G1 X136.687 Y73.489 E41.92223
G1 X136.737 Y73.955 E41.93782
G1 X136.739 Y78.623 E42.09307
G1 X136.735 Y97.433 E42.7187
G1 X141.608 Y99.207 E42.89118
G1 X141.849 Y99.312 E42.89992
G1 X143.112 Y99.952 E42.94702
G1 X143.56 Y100.252 E42.96495
G1 X144.641 Y101.19 E43.01255
G1 X144.93 Y101.494 E43.0265
G1 X145.816 Y102.754 E43.07773
G1 X146.07 Y103.232 E43.09574
G1 X146.581 Y104.565 E43.14322
G1 X146.711 Y105.086 E43.16108
G1 X146.883 Y106.497 E43.20836
G1 X146.899 Y106.763 E43.21722
G1 X146.899 Y129.786 E43.98297
G1 X146.883 Y130.05 E43.99177
G1 X146.714 Y131.446 E44.03854
G1 X146.583 Y131.972 E44.05656
G1 X146.067 Y133.313 E44.10435
G1 X145.817 Y133.784 E44.12209
G1 X145.013 Y134.934 E44.16876
G1 X144.878 Y135.107 E44.17606
G1 X144.644 Y135.345 E44.18716
G1 X143.57 Y136.28 E44.23452
G1 X143.122 Y136.582 E44.25249
G1 X141.852 Y137.228 E44.29988
G1 X141.608 Y137.334 E44.30873
G1 X136.735 Y139.109 E44.48122
G1 X136.74 Y144.455 E44.65903
G1 X136.736 Y146.041 E44.71178
G1 X136.695 Y146.458 E44.72572
G1 X136.582 Y146.844 E44.7391
G1 X136.48 Y147.102 E44.74832
G1 X136.204 Y147.599 E44.76723
G1 X136.173 Y147.641 E44.76897
G1 X135.893 Y147.953 E44.78291
G1 X135.559 Y148.207 E44.79687
G1 X135.284 Y148.351 E44.80719
G1 X135.005 Y148.473 E44.81732
G1 X134.573 Y148.611 E44.8324
G1 X134.549 Y148.616 E44.83322
G1 X134.1 Y148.662 E44.84823
G1 X73.721 Y148.663 E46.85645
G1 X73.304 Y148.623 E46.87038
G1 X73.069 Y148.564 E46.87844
G1 X72.831 Y148.478 E46.88685
G1 X72.55 Y148.357 E46.89703
G1 X72.183 Y148.155 E46.91096
G1 X71.86 Y147.887 E46.92492
G1 X71.624 Y147.606 E46.93713
G1 X71.595 Y147.565 E46.9388
G1 X71.351 Y147.119 E46.95571
G1 X71.246 Y146.859 E46.96503
G1 X71.127 Y146.457 E46.97898
G1 X71.086 Y146.035 E46.99308
G1 X71.085 Y73.971 E49.38994
G1 X71.128 Y73.54 E49.40434
G1 X71.131 Y73.525 E49.40485
G1 X71.26 Y73.103 E49.41953
G1 X71.379 Y72.82 E49.42974
G1 X71.577 Y72.451 E49.44367
G1 X71.842 Y72.126 E49.45762
G0 F6000 X72.179 Y72.357
G1 F1200 X72.545 Y72.093 E49.47263
G1 X72.855 Y71.941 E49.48411
G1 X73.069 Y71.858 E49.49174
G1 X73.435 Y71.759 E49.50435
G1 X73.72 Y71.736 E49.51386
G1 X134.102 Y71.736 E51.52218
G1 X134.479 Y71.776 E51.53479
G1 X134.746 Y71.855 E51.54405
G1 X135.166 Y72.031 E51.55919
G1 X135.265 Y72.084 E51.56293
G1 X135.578 Y72.297 E51.57552
G1 X135.84 Y72.571 E51.58813
G1 X136.07 Y72.963 E51.60325
G1 X136.192 Y73.248 E51.61356
G1 X136.303 Y73.61 E51.62615
G1 X136.337 Y73.955 E51.63768
G1 X136.339 Y78.623 E51.79294
G1 X136.335 Y97.713 E52.42788
G1 X141.471 Y99.583 E52.60967
G1 X141.669 Y99.668 E52.61684
G1 X142.932 Y100.308 E52.66393
G1 X143.298 Y100.554 E52.6786
G1 X144.379 Y101.492 E52.7262
G1 X144.637 Y101.77 E52.73882
G1 X145.489 Y102.984 E52.78814
G1 X145.697 Y103.375 E52.80288
G1 X146.208 Y104.708 E52.85036
G1 X146.314 Y105.134 E52.86496
G1 X146.486 Y106.545 E52.91224
G1 X146.499 Y106.763 E52.9195
G1 X146.499 Y129.786 E53.68525
G1 X146.486 Y130.002 E53.69244
