;FLAVOR:Marlin
;TIME:7461
;Filament used: 5.02836m
;Layer height: 0.2
;MINX:84.2
;MINY:36.867
;MINZ:0.2
;MAXX:135.8
;MAXY:186.467
;MAXZ:11
;Generated with Cura_SteamEngine 4.13.1
M140 S65
M105
M190 S65
M104 S200
M105
M109 S200
M82 ;absolute extrusion mode
; Script based on an original created by tjjfvi (https://github.com/tjjfvi)
; An up-to-date version of the tjjfvi's original script can be found
; here:  https://csi.t6.fyi/
; Note - This script will only work in Cura V4.2 and above!
; --- Global Settings
; layer_height = 0.2
; smooth_spiralized_contours = True
; magic_mesh_surface_mode = normal
; machine_extruder_count = 1
; --- Single Extruder Settings
; speed_z_hop = 5
; retraction_amount = 6.5
; retraction_hop = 0.2
; retraction_hop_enabled = False
; retraction_enable = True
; retraction_speed = 25
; retraction_retract_speed = 25
; retraction_prime_speed = 25
; speed_travel = 150.0

; Ender 3 Custom Start G-code
G92 E0 ; Reset Extruder
G28 ; Home all axes
G1 Z2.0 F3000 ; Move Z Axis up little to prevent scratching of Heat Bed
G1 X0.1 Y20 Z0.3 F5000.0 ; Move to start position
G1 X0.1 Y200.0 Z0.3 F1500.0 E15 ; Draw the first line
G1 X0.4 Y200.0 Z0.3 F5000.0 ; Move to side a little
G1 X0.4 Y20 Z0.3 F1500.0 E30 ; Draw the second line
G92 E0 ; Reset Extruder
G1 Z2.0 F3000 ; Move Z Axis up little to prevent scratching of Heat Bed
G1 X5 Y20 Z0.3 F5000.0 ; Move over to prevent blob squish
G92 E0
G92 E0
G1 F1500 E-6.5
;LAYER_COUNT:55
;LAYER:0
M107
G0 F6000 X84.831 Y41.71 Z0.2
;TYPE:SKIRT
G1 F1500 E0
G1 F1200 X85.179 Y41.001 E0.02627
G1 X85.597 Y40.33 E0.05256
G1 X86.08 Y39.706 E0.07881
G1 X86.485 Y39.269 E0.09862
G1 X86.602 Y39.152 E0.10413
G1 X87.188 Y38.622 E0.13041
G1 X87.824 Y38.155 E0.15665
G1 X88.504 Y37.754 E0.18291
G1 X89.222 Y37.424 E0.20919
G1 X89.969 Y37.169 E0.23544
G1 X90.738 Y36.99 E0.2617
G1 X91.522 Y36.89 E0.28799
G1 X92.117 Y36.867 E0.3078
G1 X127.883 Y36.867 E1.49738
G1 X128.672 Y36.907 E1.52365
G1 X129.452 Y37.026 E1.5499
G1 X130.217 Y37.224 E1.57618
G1 X130.957 Y37.498 E1.60242
G1 X131.666 Y37.846 E1.62869
G1 X132.337 Y38.264 E1.65499
G1 X132.961 Y38.747 E1.68123
G1 X133.398 Y39.152 E1.70105
G1 X133.515 Y39.269 E1.70655
G1 X134.045 Y39.855 E1.73283
G1 X134.512 Y40.491 E1.75908
G1 X134.913 Y41.171 E1.78533
G1 X135.243 Y41.889 E1.81161
G1 X135.498 Y42.636 E1.83787
G1 X135.677 Y43.405 E1.86413
G1 X135.777 Y44.189 E1.89042
G1 X135.8 Y44.784 E1.91022
G1 X135.8 Y77.166 E2.98725
G1 X135.76 Y77.955 E3.01353
G1 X135.697 Y78.365 E3.02732
G1 X135.777 Y78.988 E3.04821
G1 X135.8 Y79.583 E3.06802
G1 X135.8 Y178.55 E6.35967
G1 X135.76 Y179.339 E6.38595
G1 X135.641 Y180.119 E6.41219
G1 X135.443 Y180.884 E6.43848
G1 X135.169 Y181.624 E6.46472
G1 X134.821 Y182.333 E6.49099
G1 X134.403 Y183.004 E6.51728
G1 X133.92 Y183.628 E6.54353
G1 X133.515 Y184.065 E6.56335
G1 X133.398 Y184.182 E6.56885
G1 X132.812 Y184.712 E6.59513
G1 X132.176 Y185.179 E6.62137
G1 X131.496 Y185.58 E6.64763
G1 X130.778 Y185.91 E6.67391
G1 X130.031 Y186.165 E6.70016
G1 X129.262 Y186.344 E6.72643
G1 X128.478 Y186.444 E6.75271
G1 X127.883 Y186.467 E6.77252
G1 X92.117 Y186.467 E7.9621
G1 X91.328 Y186.427 E7.98838
G1 X90.548 Y186.308 E8.01462
G1 X89.783 Y186.11 E8.0409
G1 X89.043 Y185.836 E8.06715
G1 X88.334 Y185.488 E8.09342
G1 X87.663 Y185.07 E8.11971
G1 X87.039 Y184.587 E8.14595
G1 X86.602 Y184.182 E8.16577
G1 X86.485 Y184.065 E8.17127
G1 X85.955 Y183.479 E8.19755
G1 X85.488 Y182.843 E8.2238
G1 X85.087 Y182.163 E8.25005
G1 X84.757 Y181.445 E8.27634
G1 X84.502 Y180.698 E8.30259
G1 X84.323 Y179.929 E8.32885
G1 X84.223 Y179.145 E8.35514
G1 X84.2 Y178.55 E8.37494
G1 X84.2 Y79.584 E11.66656
G1 X84.24 Y78.795 E11.69284
G1 X84.301 Y78.398 E11.7062
G1 X84.289 Y78.341 E11.70814
G1 X84.2 Y77.167 E11.7473
G1 X84.2 Y44.784 E12.82436
G1 X84.24 Y43.995 E12.85064
G1 X84.359 Y43.215 E12.87688
G1 X84.557 Y42.45 E12.90316
G1 X84.831 Y41.71 E12.92941
G0 F6000 X85.231 Y41.794
G1 F1200 X85.578 Y41.108 E12.95498
G1 X85.994 Y40.461 E12.98056
G1 X86.475 Y39.861 E13.00614
G1 X86.767 Y39.551 E13.0203
G1 X86.884 Y39.434 E13.0258
G1 X87.456 Y38.92 E13.05138
G1 X88.078 Y38.467 E13.07697
G1 X88.743 Y38.081 E13.10255
G1 X89.445 Y37.766 E13.12814
G1 X90.176 Y37.526 E13.15373
G1 X90.927 Y37.363 E13.17929
G1 X91.692 Y37.279 E13.20489
G1 X92.117 Y37.267 E13.21903
G1 X127.883 Y37.267 E14.40861
G1 X128.651 Y37.307 E14.43419
G1 X129.411 Y37.426 E14.45977
G1 X130.154 Y37.624 E14.48535
G1 X130.873 Y37.898 E14.51094
G1 X131.559 Y38.245 E14.53651
G1 X132.206 Y38.661 E14.56209
G1 X132.806 Y39.142 E14.58767
G1 X133.116 Y39.434 E14.60184
G1 X133.233 Y39.551 E14.60734
G1 X133.747 Y40.123 E14.63292
G1 X134.2 Y40.745 E14.65851
G1 X134.586 Y41.41 E14.68408
G1 X134.901 Y42.112 E14.70967
G1 X135.141 Y42.843 E14.73526
G1 X135.304 Y43.594 E14.76082
G1 X135.388 Y44.359 E14.78642
G1 X135.4 Y44.784 E14.80056
G1 X135.4 Y77.166 E15.87759
G1 X135.36 Y77.934 E15.90317
G1 X135.295 Y78.351 E15.91721
G1 X135.304 Y78.393 E15.91864
G1 X135.388 Y79.158 E15.94423
G1 X135.4 Y79.583 E15.95837
G1 X135.4 Y178.55 E19.25003
G1 X135.36 Y179.318 E19.27561
G1 X135.241 Y180.078 E19.30119
G1 X135.043 Y180.821 E19.32677
G1 X134.769 Y181.54 E19.35236
G1 X134.422 Y182.226 E19.37793
G1 X134.006 Y182.873 E19.40351
G1 X133.525 Y183.473 E19.42909
G1 X133.233 Y183.783 E19.44325
G1 X133.116 Y183.9 E19.44876
G1 X132.544 Y184.414 E19.47434
G1 X131.922 Y184.867 E19.49993
G1 X131.257 Y185.253 E19.5255
G1 X130.555 Y185.568 E19.55109
G1 X129.824 Y185.808 E19.57668
G1 X129.073 Y185.971 E19.60224
G1 X128.308 Y186.055 E19.62784
G1 X127.883 Y186.067 E19.64198
G1 X92.117 Y186.067 E20.83156
G1 X91.349 Y186.027 E20.85714
G1 X90.589 Y185.908 E20.88273
G1 X89.846 Y185.71 E20.9083
G1 X89.127 Y185.436 E20.93389
G1 X88.441 Y185.089 E20.95946
G1 X87.794 Y184.673 E20.98505
G1 X87.194 Y184.192 E21.01062
G1 X86.884 Y183.9 E21.02479
G1 X86.767 Y183.783 E21.03029
G1 X86.253 Y183.211 E21.05587
G1 X85.8 Y182.589 E21.08146
G1 X85.414 Y181.924 E21.10704
G1 X85.099 Y181.222 E21.13263
G1 X84.859 Y180.491 E21.15822
G1 X84.696 Y179.74 E21.18378
G1 X84.612 Y178.975 E21.20937
G1 X84.6 Y178.55 E21.22352
G1 X84.6 Y79.584 E24.51514
G1 X84.64 Y78.816 E24.54072
G1 X84.709 Y78.378 E24.55546
G1 X84.633 Y77.864 E24.57275
G1 X84.6 Y77.167 E24.59595
G1 X84.6 Y44.784 E25.67302
G1 X84.64 Y44.016 E25.6986
G1 X84.759 Y43.256 E25.72418
G1 X84.957 Y42.513 E25.74976
G1 X85.231 Y41.794 E25.77535
G0 F6000 X85.63 Y41.881
G1 F1200 X85.977 Y41.218 E25.80024
G1 X86.392 Y40.595 E25.82513
G1 X87.05 Y39.834 E25.8586
G1 X87.167 Y39.717 E25.8641
G1 X87.724 Y39.217 E25.88899
G1 X88.33 Y38.78 E25.91384
G1 X88.98 Y38.409 E25.93874
G1 X89.666 Y38.11 E25.96363
G1 X90.38 Y37.886 E25.98851
G1 X91.113 Y37.739 E26.01338
G1 X92.117 Y37.667 E26.04686
G1 X127.883 Y37.667 E27.23644
G1 X128.63 Y37.707 E27.26132
G1 X129.368 Y37.826 E27.28618
G1 X130.09 Y38.024 E27.31108
G1 X130.786 Y38.297 E27.33595
G1 X131.449 Y38.644 E27.36084
G1 X132.072 Y39.059 E27.38574
G1 X132.833 Y39.717 E27.4192
G1 X132.95 Y39.834 E27.4247
G1 X133.45 Y40.391 E27.4496
G1 X133.887 Y40.997 E27.47445
G1 X134.258 Y41.647 E27.49934
G1 X134.557 Y42.333 E27.52423
G1 X134.781 Y43.047 E27.54912
G1 X134.928 Y43.78 E27.57398
G1 X135 Y44.784 E27.60746
G1 X135 Y77.166 E28.68449
G1 X134.96 Y77.913 E28.70937
G1 X134.886 Y78.371 E28.7248
G1 X134.928 Y78.579 E28.73186
G1 X135 Y79.583 E28.76534
G1 X135 Y178.55 E32.057
G1 X134.96 Y179.297 E32.08188
G1 X134.841 Y180.035 E32.10674
G1 X134.643 Y180.757 E32.13164
G1 X134.37 Y181.453 E32.15651
G1 X134.023 Y182.116 E32.18139
G1 X133.608 Y182.739 E32.20629
G1 X132.95 Y183.5 E32.23975
G1 X132.833 Y183.617 E32.24526
G1 X132.276 Y184.117 E32.27015
G1 X131.67 Y184.554 E32.295
G1 X131.02 Y184.925 E32.31989
G1 X130.334 Y185.224 E32.34478
G1 X129.62 Y185.448 E32.36967
G1 X128.887 Y185.595 E32.39454
G1 X127.883 Y185.667 E32.42802
G1 X92.117 Y185.667 E33.6176
G1 X91.37 Y185.627 E33.64248
G1 X90.632 Y185.508 E33.66734
G1 X89.91 Y185.31 E33.69224
G1 X89.214 Y185.037 E33.71711
G1 X88.551 Y184.69 E33.742
G1 X87.928 Y184.275 E33.7669
G1 X87.167 Y183.617 E33.80036
G1 X87.05 Y183.5 E33.80586
G1 X86.55 Y182.943 E33.83075
G1 X86.113 Y182.337 E33.8556
G1 X85.742 Y181.687 E33.8805
G1 X85.443 Y181.001 E33.90539
G1 X85.219 Y180.287 E33.93028
G1 X85.072 Y179.554 E33.95514
G1 X85 Y178.55 E33.98862
G1 X85 Y79.584 E37.28024
G1 X85.04 Y78.837 E37.30512
G1 X85.114 Y78.377 E37.32062
G1 X85.068 Y78.142 E37.32858
G1 X85 Y77.167 E37.36109
G1 X85 Y44.784 E38.43815
G1 X85.04 Y44.037 E38.46304
G1 X85.159 Y43.299 E38.4879
G1 X85.357 Y42.577 E38.5128
G1 X85.63 Y41.881 E38.53766
G0 F6000 X86.03 Y41.97
G1 F1200 X86.375 Y41.331 E38.56182
G1 X86.789 Y40.734 E38.58598
G1 X87.333 Y40.117 E38.61334
G1 X87.45 Y40 E38.61884
G1 X87.991 Y39.516 E38.64299
G1 X88.582 Y39.093 E38.66716
G1 X89.216 Y38.739 E38.69131
G1 X89.885 Y38.456 E38.71547
G1 X90.581 Y38.248 E38.73963
G1 X91.296 Y38.118 E38.7638
G1 X92.117 Y38.067 E38.79116
G1 X127.883 Y38.067 E39.98074
G1 X128.608 Y38.107 E40.00489
G1 X129.325 Y38.226 E40.02907
G1 X130.024 Y38.424 E40.05323
G1 X130.697 Y38.697 E40.07739
G1 X131.336 Y39.042 E40.10154
G1 X131.933 Y39.456 E40.1257
G1 X132.55 Y40 E40.15306
G1 X132.667 Y40.117 E40.15857
G1 X133.151 Y40.658 E40.18271
G1 X133.574 Y41.249 E40.20688
G1 X133.928 Y41.883 E40.23103
G1 X134.211 Y42.552 E40.25519
G1 X134.419 Y43.248 E40.27935
G1 X134.549 Y43.963 E40.30353
G1 X134.6 Y44.784 E40.33088
G1 X134.6 Y77.166 E41.40791
G1 X134.56 Y77.891 E41.43206
G1 X134.479 Y78.378 E41.44848
G1 X134.549 Y78.762 E41.46147
G1 X134.6 Y79.583 E41.48883
G1 X134.6 Y178.55 E44.78048
G1 X134.56 Y179.275 E44.80463
G1 X134.441 Y179.992 E44.82881
G1 X134.243 Y180.691 E44.85297
G1 X133.97 Y181.364 E44.87713
G1 X133.625 Y182.003 E44.90128
G1 X133.211 Y182.6 E44.92544
G1 X132.667 Y183.217 E44.9528
G1 X132.55 Y183.334 E44.9583
G1 X132.009 Y183.818 E44.98245
G1 X131.418 Y184.241 E45.00662
G1 X130.784 Y184.595 E45.03077
G1 X130.115 Y184.878 E45.05493
G1 X129.419 Y185.086 E45.07909
G1 X128.704 Y185.216 E45.10326
G1 X127.883 Y185.267 E45.13062
G1 X92.117 Y185.267 E46.3202
G1 X91.392 Y185.227 E46.34435
G1 X90.675 Y185.108 E46.36853
G1 X89.976 Y184.91 E46.39269
G1 X89.303 Y184.637 E46.41685
G1 X88.664 Y184.292 E46.441
G1 X88.067 Y183.878 E46.46516
G1 X87.45 Y183.334 E46.49252
G1 X87.333 Y183.217 E46.49803
G1 X86.849 Y182.676 E46.52217
G1 X86.426 Y182.085 E46.54634
G1 X86.072 Y181.451 E46.57049
G1 X85.789 Y180.782 E46.59465
G1 X85.581 Y180.086 E46.61882
G1 X85.451 Y179.371 E46.64299
G1 X85.4 Y178.55 E46.67035
G1 X85.4 Y79.584 E49.96197
G1 X85.44 Y78.859 E49.98612
G1 X85.517 Y78.398 E50.00166
G1 X85.514 Y78.387 E50.00204
G1 X85.419 Y77.667 E50.0262
G1 X85.4 Y77.167 E50.04284
G1 X85.4 Y44.784 E51.1199
G1 X85.44 Y44.059 E51.14405
G1 X85.559 Y43.342 E51.16823
G1 X85.757 Y42.643 E51.19239
G1 X86.03 Y41.97 E51.21655
G0 F6000 X86.429 Y42.063
G1 F1200 X86.774 Y41.449 E51.23997
G1 X87.185 Y40.878 E51.26337
G1 X87.616 Y40.4 E51.28478
G1 X87.733 Y40.283 E51.29028
G1 X88.258 Y39.814 E51.31369
G1 X88.833 Y39.408 E51.33711
G1 X89.451 Y39.07 E51.36053
G1 X90.102 Y38.803 E51.38394
G1 X90.78 Y38.613 E51.40736
G1 X91.475 Y38.5 E51.43078
G1 X92.117 Y38.467 E51.45216
G1 X127.883 Y38.467 E52.64174
G1 X128.586 Y38.507 E52.66516
G1 X129.28 Y38.626 E52.68858
G1 X129.955 Y38.824 E52.71197
G1 X130.604 Y39.096 E52.73538
G1 X131.218 Y39.441 E52.7588
G1 X131.789 Y39.852 E52.7822
G1 X132.267 Y40.283 E52.80361
G1 X132.384 Y40.4 E52.80911
G1 X132.853 Y40.925 E52.83253
G1 X133.259 Y41.5 E52.85594
G1 X133.597 Y42.118 E52.87937
G1 X133.864 Y42.769 E52.90277
G1 X134.054 Y43.447 E52.92619
G1 X134.167 Y44.142 E52.94961
G1 X134.2 Y44.784 E52.97099
G1 X134.2 Y77.166 E54.04802
G1 X134.16 Y77.869 E54.07144
G1 X134.074 Y78.37 E54.08835
G1 X134.167 Y78.941 E54.10759
G1 X134.2 Y79.583 E54.12897
G1 X134.2 Y178.55 E57.42063
G1 X134.16 Y179.253 E57.44405
G1 X134.041 Y179.947 E57.46746
G1 X133.843 Y180.622 E57.49086
G1 X133.571 Y181.271 E57.51427
G1 X133.226 Y181.885 E57.53769
G1 X132.815 Y182.456 E57.56109
G1 X132.384 Y182.934 E57.5825
G1 X132.267 Y183.051 E57.588
G1 X131.742 Y183.52 E57.61141
G1 X131.167 Y183.926 E57.63483
G1 X130.549 Y184.264 E57.65825
G1 X129.898 Y184.531 E57.68166
G1 X129.22 Y184.721 E57.70508
G1 X128.525 Y184.834 E57.7285
G1 X127.883 Y184.867 E57.74988
G1 X92.117 Y184.867 E58.93946
G1 X91.414 Y184.827 E58.96288
G1 X90.72 Y184.708 E58.9863
G1 X90.045 Y184.51 E59.00969
G1 X89.396 Y184.238 E59.0331
G1 X88.782 Y183.893 E59.05652
G1 X88.211 Y183.482 E59.07992
G1 X87.733 Y183.051 E59.10133
G1 X87.616 Y182.934 E59.10683
G1 X87.147 Y182.409 E59.13025
G1 X86.741 Y181.834 E59.15366
G1 X86.403 Y181.216 E59.17709
G1 X86.136 Y180.565 E59.20049
G1 X85.946 Y179.887 E59.22391
G1 X85.833 Y179.192 E59.24733
G1 X85.8 Y178.55 E59.26871
G1 X85.8 Y79.584 E62.56033
G1 X85.84 Y78.881 E62.58375
G1 X85.927 Y78.372 E62.60093
G1 X85.844 Y77.906 E62.61667
G1 X85.8 Y77.167 E62.64129
G1 X85.8 Y44.784 E63.71836
G1 X85.84 Y44.081 E63.74178
G1 X85.959 Y43.387 E63.7652
G1 X86.157 Y42.712 E63.78859
G1 X86.429 Y42.063 E63.812
G0 F6000 X86.556 Y42.782
G1 F1200 X86.828 Y42.158 E63.83464
G1 X87.172 Y41.57 E63.8573
G1 X87.582 Y41.026 E63.87995
G1 X87.899 Y40.683 E63.89549
G1 X88.016 Y40.566 E63.90099
G1 X88.525 Y40.113 E63.92365
G1 X89.083 Y39.724 E63.94628
G1 X89.683 Y39.402 E63.96892
G1 X90.317 Y39.153 E63.99158
G1 X90.976 Y38.98 E64.01424
G1 X91.65 Y38.886 E64.03688
G1 X92.117 Y38.867 E64.05242
G1 X127.883 Y38.867 E65.242
G1 X128.563 Y38.907 E65.26466
G1 X129.233 Y39.026 E65.28729
G1 X129.885 Y39.223 E65.30995
G1 X130.509 Y39.495 E65.33259
G1 X131.097 Y39.839 E65.35524
G1 X131.641 Y40.249 E65.3779
G1 X131.984 Y40.566 E65.39343
G1 X132.101 Y40.683 E65.39894
G1 X132.554 Y41.192 E65.4216
G1 X132.943 Y41.75 E65.44423
G1 X133.265 Y42.35 E65.46687
G1 X133.514 Y42.984 E65.48953
G1 X133.687 Y43.643 E65.51219
G1 X133.781 Y44.317 E65.53482
G1 X133.8 Y44.784 E65.55037
G1 X133.8 Y77.166 E66.6274
G1 X133.76 Y77.846 E66.65005
G1 X133.667 Y78.367 E66.66766
G1 X133.687 Y78.442 E66.67024
G1 X133.781 Y79.116 E66.69287
G1 X133.8 Y79.583 E66.70842
G1 X133.8 Y178.55 E70.00007
G1 X133.76 Y179.23 E70.02273
G1 X133.641 Y179.9 E70.04536
G1 X133.444 Y180.552 E70.06802
G1 X133.172 Y181.176 E70.09066
G1 X132.828 Y181.764 E70.11332
G1 X132.418 Y182.308 E70.13597
G1 X132.101 Y182.651 E70.15151
G1 X131.984 Y182.768 E70.15701
G1 X131.475 Y183.221 E70.17967
G1 X130.917 Y183.61 E70.2023
G1 X130.317 Y183.932 E70.22495
G1 X129.683 Y184.181 E70.2476
G1 X129.024 Y184.354 E70.27026
G1 X128.35 Y184.448 E70.2929
G1 X127.883 Y184.467 E70.30844
G1 X92.117 Y184.467 E71.49802
G1 X91.437 Y184.427 E71.52068
G1 X90.767 Y184.308 E71.54331
G1 X90.115 Y184.111 E71.56597
G1 X89.491 Y183.839 E71.58861
G1 X88.903 Y183.495 E71.61126
G1 X88.359 Y183.085 E71.63392
G1 X88.016 Y182.768 E71.64946
G1 X87.899 Y182.651 E71.65496
G1 X87.446 Y182.142 E71.67762
G1 X87.057 Y181.584 E71.70025
G1 X86.735 Y180.984 E71.72289
G1 X86.486 Y180.35 E71.74555
G1 X86.313 Y179.691 E71.76821
G1 X86.219 Y179.017 E71.79084
G1 X86.2 Y178.55 E71.80639
G1 X86.2 Y79.584 E75.09801
G1 X86.24 Y78.904 E75.12067
G1 X86.335 Y78.366 E75.13884
G1 X86.278 Y78.112 E75.1475
G1 X86.2 Y77.167 E75.17903
G1 X86.2 Y44.784 E76.2561
G1 X86.24 Y44.104 E76.27875
G1 X86.359 Y43.434 E76.30139
G1 X86.556 Y42.782 E76.32404
G0 F6000 X86.956 Y42.855
G1 F1200 X87.228 Y42.257 E76.34589
G1 X87.57 Y41.696 E76.36774
G1 X88.182 Y40.966 E76.39943
G1 X88.299 Y40.849 E76.40493
G1 X88.791 Y40.413 E76.4268
G1 X89.332 Y40.041 E76.44863
G1 X89.914 Y39.737 E76.47047
G1 X90.529 Y39.506 E76.49232
G1 X91.168 Y39.351 E76.51419
G1 X92.117 Y39.267 E76.54588
G1 X127.883 Y39.267 E77.73546
G1 X128.539 Y39.307 E77.75732
G1 X129.185 Y39.426 E77.77917
G1 X129.812 Y39.623 E77.80103
G1 X130.41 Y39.895 E77.82288
G1 X130.971 Y40.237 E77.84473
G1 X131.701 Y40.849 E77.87641
G1 X131.818 Y40.966 E77.88192
G1 X132.254 Y41.458 E77.90378
G1 X132.626 Y41.999 E77.92562
G1 X132.93 Y42.581 E77.94746
G1 X133.161 Y43.196 E77.96931
G1 X133.316 Y43.835 E77.99118
G1 X133.4 Y44.784 E78.02286
G1 X133.4 Y77.166 E79.09989
G1 X133.36 Y77.822 E79.12175
G1 X133.256 Y78.387 E79.14086
