;FLAVOR:Marlin
;TIME:44248
;Filament used: 31.7469m
;Layer height: 0.2
;MINX:57.611
;MINY:21.45
;MINZ:0.2
;MAXX:162.388
;MAXY:165.05
;MAXZ:102
;Generated with Cura_SteamEngine 4.13.1
M140 S65
M105
M190 S65
M104 S200
M105
M109 S200
M82 ;absolute extrusion mode
; Script based on an original created by tjjfvi (https://github.com/tjjfvi)
; An up-to-date version of the tjjfvi's original script can be found
; here:  https://csi.t6.fyi/
; Note - This script will only work in Cura V4.2 and above!
; --- Global Settings
; layer_height = 0.2
; smooth_spiralized_contours = True
; magic_mesh_surface_mode = normal
; machine_extruder_count = 1
; --- Single Extruder Settings
; speed_z_hop = 5
; retraction_amount = 6.5
; retraction_hop = 0.2
; retraction_hop_enabled = False
; retraction_enable = True
; retraction_speed = 25
; retraction_retract_speed = 25
; retraction_prime_speed = 25
; speed_travel = 150.0

; Ender 3 Custom Start G-code
G92 E0 ; Reset Extruder
G28 ; Home all axes
G1 Z2.0 F3000 ; Move Z Axis up little to prevent scratching of Heat Bed
G1 X0.1 Y20 Z0.3 F5000.0 ; Move to start position
G1 X0.1 Y200.0 Z0.3 F1500.0 E15 ; Draw the first line
G1 X0.4 Y200.0 Z0.3 F5000.0 ; Move to side a little
G1 X0.4 Y20 Z0.3 F1500.0 E30 ; Draw the second line
G92 E0 ; Reset Extruder
G1 Z2.0 F3000 ; Move Z Axis up little to prevent scratching of Heat Bed
G1 X5 Y20 Z0.3 F5000.0 ; Move over to prevent blob squish
G92 E0
G92 E0
G1 F1500 E-6.5
;LAYER_COUNT:510
;LAYER:0
M107
G0 F6000 X57.966 Y23.647 Z0.2
;TYPE:SKIRT
G1 F1500 E0
G1 F1200 X58.234 Y23.166 E0.01831
G1 X58.568 Y22.728 E0.03663
G1 X58.963 Y22.344 E0.05496
G1 X59.409 Y22.02 E0.07329
G1 X59.897 Y21.765 E0.09161
G1 X60.417 Y21.582 E0.10994
G1 X60.958 Y21.477 E0.12827
G1 X61.411 Y21.45 E0.14336
G1 X103.91 Y21.45 E1.55689
G1 X104.46 Y21.49 E1.57523
G1 X104.998 Y21.609 E1.59355
G1 X105.513 Y21.805 E1.61188
G1 X105.994 Y22.073 E1.63019
G1 X106.432 Y22.407 E1.64852
G1 X106.816 Y22.802 E1.66684
G1 X107.14 Y23.248 E1.68517
G1 X107.32 Y23.572 E1.6975
G1 X154.177 Y118.797 E5.22737
G1 X154.277 Y118.748 E5.23107
G1 X154.788 Y118.542 E5.2494
G1 X155.324 Y118.412 E5.26774
G1 X155.872 Y118.361 E5.28605
G1 X156.422 Y118.39 E5.30436
G1 X156.963 Y118.498 E5.32271
G1 X157.482 Y118.683 E5.34104
G1 X157.968 Y118.941 E5.35934
G1 X158.413 Y119.267 E5.37769
G1 X158.805 Y119.654 E5.39601
G1 X159.138 Y120.093 E5.41434
G1 X159.361 Y120.488 E5.42942
G1 X162.001 Y125.876 E5.62898
G1 X162.207 Y126.387 E5.64731
G1 X162.337 Y126.923 E5.66565
G1 X162.388 Y127.471 E5.68396
G1 X162.359 Y128.021 E5.70228
G1 X162.251 Y128.562 E5.72063
G1 X162.066 Y129.081 E5.73895
G1 X161.808 Y129.567 E5.75725
G1 X161.482 Y130.012 E5.7756
G1 X161.037 Y130.455 E5.79648
G1 X156.759 Y134.057 E5.98249
G1 X156.349 Y134.353 E5.99931
G1 X140.386 Y147.842 E6.69441
G1 X145.482 Y158.818 E7.09691
G1 X145.677 Y159.333 E7.11522
G1 X145.795 Y159.871 E7.13354
G1 X145.835 Y160.418 E7.15178
G1 X145.835 Y161.25 E7.17946
G1 X145.795 Y161.8 E7.1978
G1 X145.676 Y162.338 E7.21612
G1 X145.48 Y162.853 E7.23445
G1 X145.212 Y163.334 E7.25276
G1 X144.878 Y163.772 E7.27109
G1 X144.483 Y164.156 E7.28941
G1 X144.037 Y164.48 E7.30774
G1 X143.549 Y164.735 E7.32606
G1 X143.029 Y164.918 E7.34439
G1 X142.488 Y165.023 E7.36272
G1 X142.035 Y165.05 E7.37781
G1 X61.411 Y165.05 E10.05938
G1 X60.861 Y165.01 E10.07772
G1 X60.323 Y164.891 E10.09605
G1 X59.808 Y164.695 E10.11437
G1 X59.327 Y164.427 E10.13269
G1 X58.889 Y164.093 E10.15101
G1 X58.505 Y163.698 E10.16933
G1 X58.181 Y163.252 E10.18767
G1 X57.926 Y162.764 E10.20598
G1 X57.743 Y162.244 E10.22431
G1 X57.638 Y161.703 E10.24264
G1 X57.611 Y161.25 E10.25774
G1 X57.611 Y25.25 E14.78112
G1 X57.651 Y24.7 E14.79946
G1 X57.77 Y24.162 E14.81778
G1 X57.966 Y23.647 E14.83611
G0 F6000 X58.365 Y23.74
G1 F1200 X58.631 Y23.292 E14.85344
G1 X58.963 Y22.89 E14.87078
G1 X59.353 Y22.544 E14.88812
G1 X59.791 Y22.261 E14.90547
G1 X60.266 Y22.048 E14.92278
G1 X60.769 Y21.911 E14.94012
G1 X61.411 Y21.85 E14.96157
G1 X103.91 Y21.85 E16.37509
G1 X104.43 Y21.89 E16.39244
G1 X104.937 Y22.009 E16.40976
G1 X105.42 Y22.204 E16.42708
G1 X105.868 Y22.47 E16.44441
G1 X106.27 Y22.802 E16.46175
G1 X106.616 Y23.192 E16.47909
G1 X106.961 Y23.749 E16.50089
G1 X153.994 Y119.332 E20.04402
G1 X154.453 Y119.107 E20.06102
G1 X154.937 Y118.914 E20.07835
G1 X155.445 Y118.798 E20.09568
G1 X155.965 Y118.76 E20.11303
G1 X156.484 Y118.802 E20.13034
G1 X156.991 Y118.924 E20.14769
G1 X157.474 Y119.121 E20.16504
G1 X157.92 Y119.39 E20.18236
G1 X158.32 Y119.723 E20.19967
G1 X158.665 Y120.115 E20.21704
G1 X159.002 Y120.664 E20.23847
G1 X161.642 Y126.052 E20.43803
G1 X161.835 Y126.536 E20.45536
G1 X161.951 Y127.044 E20.47269
G1 X161.989 Y127.564 E20.49003
G1 X161.947 Y128.083 E20.50735
G1 X161.825 Y128.59 E20.52469
G1 X161.628 Y129.073 E20.54204
G1 X161.359 Y129.519 E20.55937
G1 X161.026 Y129.919 E20.57668
G1 X160.779 Y130.149 E20.5879
G1 X156.501 Y133.751 E20.77391
G1 X156.105 Y134.035 E20.79012
G1 X139.895 Y147.734 E21.49601
G1 X145.119 Y158.986 E21.90862
G1 X145.301 Y159.474 E21.92594
G1 X145.407 Y159.985 E21.9433
G1 X145.435 Y160.418 E21.95773
G1 X145.435 Y161.25 E21.9854
G1 X145.395 Y161.77 E22.00275
G1 X145.276 Y162.277 E22.02007
G1 X145.081 Y162.76 E22.03739
G1 X144.815 Y163.208 E22.05472
G1 X144.483 Y163.61 E22.07206
G1 X144.093 Y163.956 E22.0894
G1 X143.655 Y164.239 E22.10675
G1 X143.18 Y164.452 E22.12406
G1 X142.677 Y164.589 E22.1414
G1 X142.035 Y164.65 E22.16285
G1 X61.411 Y164.65 E24.84441
G1 X60.891 Y164.61 E24.86176
G1 X60.384 Y164.491 E24.87908
G1 X59.901 Y164.296 E24.89641
G1 X59.453 Y164.03 E24.91374
G1 X59.051 Y163.698 E24.93108
G1 X58.705 Y163.308 E24.94842
G1 X58.422 Y162.87 E24.96576
G1 X58.209 Y162.395 E24.98308
G1 X58.072 Y161.892 E25.00042
G1 X58.011 Y161.25 E25.02186
G1 X58.011 Y25.25 E29.54524
G1 X58.051 Y24.73 E29.56259
G1 X58.17 Y24.223 E29.57991
G1 X58.365 Y23.74 E29.59723
G0 F6000 X58.764 Y23.838
G1 F1200 X59.029 Y23.426 E29.61353
G1 X59.357 Y23.063 E29.6298
G1 X59.74 Y22.758 E29.64608
G1 X60.168 Y22.52 E29.66237
G1 X60.628 Y22.354 E29.67864
G1 X61.109 Y22.265 E29.69491
G1 X61.411 Y22.25 E29.70496
G1 X103.91 Y22.25 E31.11849
G1 X104.398 Y22.29 E31.13477
G1 X104.873 Y22.409 E31.15106
G1 X105.322 Y22.603 E31.16733
G1 X105.734 Y22.868 E31.18362
G1 X106.097 Y23.196 E31.19989
G1 X106.402 Y23.579 E31.21618
G1 X106.602 Y23.925 E31.22947
G1 X153.812 Y119.866 E34.78589
G1 X154.629 Y119.466 E34.81614
G1 X155.085 Y119.287 E34.83244
G1 X155.563 Y119.185 E34.84869
G1 X156.052 Y119.162 E34.86497
G1 X156.538 Y119.218 E34.88125
G1 X157.009 Y119.354 E34.89755
G1 X157.451 Y119.563 E34.91381
G1 X157.854 Y119.842 E34.93012
G1 X158.205 Y120.183 E34.94639
G1 X158.497 Y120.576 E34.96268
G1 X158.643 Y120.84 E34.97271
G1 X161.283 Y126.228 E35.17227
G1 X161.462 Y126.684 E35.18857
G1 X161.564 Y127.162 E35.20482
G1 X161.587 Y127.651 E35.2211
G1 X161.531 Y128.137 E35.23737
G1 X161.395 Y128.608 E35.25368
G1 X161.186 Y129.05 E35.26994
G1 X160.907 Y129.453 E35.28624
G1 X160.521 Y129.843 E35.3045
G1 X156.243 Y133.445 E35.4905
G1 X155.868 Y133.712 E35.50581
G1 X139.403 Y147.625 E36.22277
G1 X144.756 Y159.155 E36.64558
G1 X144.925 Y159.614 E36.66184
G1 X145.018 Y160.095 E36.67814
G1 X145.035 Y160.418 E36.6889
G1 X145.035 Y161.25 E36.71657
G1 X144.995 Y161.738 E36.73285
G1 X144.876 Y162.213 E36.74914
G1 X144.682 Y162.662 E36.76541
G1 X144.417 Y163.074 E36.7817
G1 X144.089 Y163.437 E36.79798
G1 X143.706 Y163.742 E36.81426
G1 X143.278 Y163.98 E36.83055
G1 X142.818 Y164.146 E36.84681
G1 X142.337 Y164.235 E36.86308
G1 X142.035 Y164.25 E36.87314
G1 X61.411 Y164.25 E39.5547
G1 X60.923 Y164.21 E39.57099
G1 X60.448 Y164.091 E39.58728
G1 X59.999 Y163.897 E39.60355
G1 X59.587 Y163.632 E39.61984
G1 X59.224 Y163.304 E39.63611
G1 X58.919 Y162.921 E39.65239
G1 X58.681 Y162.493 E39.66868
G1 X58.515 Y162.033 E39.68495
G1 X58.426 Y161.552 E39.70122
G1 X58.411 Y161.25 E39.71127
G1 X58.411 Y25.25 E44.23465
G1 X58.451 Y24.762 E44.25094
G1 X58.57 Y24.287 E44.26723
G1 X58.764 Y23.838 E44.28349
G0 F6000 X58.969 Y24.356
G1 F1200 X59.163 Y23.944 E44.29864
G1 X59.426 Y23.571 E44.31382
G1 X59.749 Y23.25 E44.32897
G1 X60.124 Y22.991 E44.34412
G1 X60.538 Y22.801 E44.35927
G1 X60.979 Y22.686 E44.37443
G1 X61.411 Y22.65 E44.38885
G1 X103.91 Y22.65 E45.80237
G1 X104.364 Y22.69 E45.81753
G1 X104.804 Y22.808 E45.83268
G1 X105.216 Y23.002 E45.84783
G1 X105.589 Y23.265 E45.86301
G1 X105.91 Y23.588 E45.87816
G1 X106.243 Y24.102 E45.89853
G1 X153.629 Y120.401 E49.46821
G1 X154.805 Y119.825 E49.51177
G1 X155.23 Y119.661 E49.52692
G1 X155.677 Y119.574 E49.54206
G1 X156.133 Y119.567 E49.55723
G1 X156.583 Y119.638 E49.57238
G1 X157.013 Y119.788 E49.58753
G1 X157.411 Y120.01 E49.60269
G1 X157.764 Y120.298 E49.61784
G1 X158.061 Y120.644 E49.63301
G1 X158.284 Y121.016 E49.64743
G1 X160.924 Y126.404 E49.84699
G1 X161.088 Y126.829 E49.86215
G1 X161.175 Y127.276 E49.87729
G1 X161.182 Y127.732 E49.89246
G1 X161.111 Y128.182 E49.90761
G1 X160.961 Y128.612 E49.92276
G1 X160.739 Y129.01 E49.93792
G1 X160.451 Y129.363 E49.95307
G1 X160.264 Y129.537 E49.96157
G1 X155.986 Y133.139 E50.14757
G1 X155.637 Y133.384 E50.16175
G1 X138.912 Y147.517 E50.89004
G1 X144.393 Y159.323 E51.32297
G1 X144.548 Y159.752 E51.33814
G1 X144.635 Y160.418 E51.36048
G1 X144.635 Y161.25 E51.38815
G1 X144.595 Y161.704 E51.40331
G1 X144.477 Y162.144 E51.41846
G1 X144.283 Y162.556 E51.43361
G1 X144.02 Y162.929 E51.44879
G1 X143.697 Y163.25 E51.46393
G1 X143.322 Y163.509 E51.47909
G1 X142.908 Y163.699 E51.49424
G1 X142.467 Y163.814 E51.5094
G1 X142.035 Y163.85 E51.52382
G1 X61.411 Y163.85 E54.20538
G1 X60.957 Y163.81 E54.22054
G1 X60.517 Y163.692 E54.23569
G1 X60.105 Y163.498 E54.25084
G1 X59.732 Y163.235 E54.26602
G1 X59.411 Y162.912 E54.28116
G1 X59.152 Y162.537 E54.29632
G1 X58.962 Y162.123 E54.31147
G1 X58.847 Y161.682 E54.32663
G1 X58.811 Y161.25 E54.34105
G1 X58.811 Y25.25 E58.86443
G1 X58.851 Y24.796 E58.87959
G1 X58.969 Y24.356 E58.89474
G0 F6000 X59.369 Y24.431
G1 F1200 X59.562 Y24.059 E58.90868
G1 X59.821 Y23.73 E58.9226
G1 X60.138 Y23.456 E58.93654
G1 X60.501 Y23.247 E58.95047
G1 X60.898 Y23.111 E58.96443
G1 X61.411 Y23.05 E58.98161
G1 X103.91 Y23.05 E60.39513
G1 X104.327 Y23.09 E60.40907
G1 X104.729 Y23.208 E60.423
G1 X105.101 Y23.401 E60.43694
G1 X105.43 Y23.66 E60.45087
G1 X105.704 Y23.977 E60.4648
G1 X105.884 Y24.279 E60.4765
G1 X153.457 Y120.958 E64.06027
G1 X153.634 Y120.844 E64.06727
G1 X154.981 Y120.184 E64.11716
G1 X155.373 Y120.037 E64.13109
G1 X155.786 Y119.966 E64.14502
G1 X156.205 Y119.975 E64.15896
G1 X156.615 Y120.063 E64.17291
G1 X157 Y120.227 E64.18683
G1 X157.348 Y120.462 E64.2008
G1 X157.644 Y120.758 E64.21472
G1 X157.925 Y121.192 E64.23191
G1 X160.565 Y126.58 E64.43148
G1 X160.712 Y126.972 E64.4454
G1 X160.783 Y127.385 E64.45934
G1 X160.774 Y127.804 E64.47328
G1 X160.686 Y128.214 E64.48723
G1 X160.522 Y128.599 E64.50114
G1 X160.287 Y128.947 E64.51511
G1 X160.006 Y129.231 E64.5284
G1 X155.728 Y132.833 E64.7144
G1 X155.407 Y133.055 E64.72739
G1 X138.42 Y147.409 E65.46707
G1 X144.03 Y159.492 E65.91016
G1 X144.17 Y159.887 E65.9241
G1 X144.235 Y160.418 E65.94189
G1 X144.235 Y161.25 E65.96956
G1 X144.195 Y161.667 E65.9835
G1 X144.077 Y162.069 E65.99743
G1 X143.884 Y162.441 E66.01137
G1 X143.625 Y162.77 E66.0253
G1 X143.308 Y163.044 E66.03923
G1 X142.945 Y163.253 E66.05316
G1 X142.548 Y163.389 E66.06712
G1 X142.035 Y163.45 E66.0843
G1 X61.411 Y163.45 E68.76587
G1 X60.994 Y163.41 E68.7798
G1 X60.592 Y163.292 E68.79374
G1 X60.22 Y163.099 E68.80768
G1 X59.891 Y162.84 E68.8216
G1 X59.617 Y162.523 E68.83554
G1 X59.408 Y162.16 E68.84947
G1 X59.272 Y161.763 E68.86343
G1 X59.211 Y161.25 E68.88061
G1 X59.211 Y25.25 E73.40399
G1 X59.251 Y24.833 E73.41792
G1 X59.369 Y24.431 E73.43186
G0 F6000 X59.769 Y24.513
G1 F1200 X59.959 Y24.186 E73.44444
G1 X60.214 Y23.905 E73.45706
G1 X60.523 Y23.685 E73.46967
G1 X60.87 Y23.533 E73.48227
G1 X61.411 Y23.45 E73.50048
G1 X103.91 Y23.45 E74.914
G1 X104.287 Y23.49 E74.92661
G1 X104.647 Y23.608 E74.93921
G1 X104.974 Y23.798 E74.95179
G1 X105.255 Y24.053 E74.96441
G1 X105.525 Y24.455 E74.98052
G1 X153.313 Y121.572 E78.58052
G1 X153.361 Y121.516 E78.58297
G1 X153.81 Y121.204 E78.60116
G1 X155.157 Y120.544 E78.65105
G1 X155.513 Y120.414 E78.66365
G1 X155.888 Y120.361 E78.67625
G1 X156.266 Y120.388 E78.68885
G1 X156.63 Y120.494 E78.70146
G1 X156.964 Y120.673 E78.71406
G1 X157.253 Y120.919 E78.72669
G1 X157.565 Y121.368 E78.74487
G1 X160.205 Y126.756 E78.94443
G1 X160.335 Y127.112 E78.95704
G1 X160.388 Y127.487 E78.96964
G1 X160.361 Y127.865 E78.98224
G1 X160.255 Y128.229 E78.99485
G1 X160.076 Y128.563 E79.00745
G1 X159.748 Y128.925 E79.0237
G1 X155.47 Y132.527 E79.20971
G1 X155.183 Y132.721 E79.22123
G1 X137.93 Y147.3 E79.97251
G1 X143.668 Y159.66 E80.42574
G1 X143.79 Y160.019 E80.43835
G1 X143.835 Y160.418 E80.45171
G1 X143.835 Y161.25 E80.47938
G1 X143.795 Y161.627 E80.49199
G1 X143.677 Y161.987 E80.50459
G1 X143.487 Y162.314 E80.51717
G1 X143.232 Y162.595 E80.52979
G1 X142.923 Y162.815 E80.5424
G1 X142.576 Y162.967 E80.555
G1 X142.035 Y163.05 E80.57321
G1 X61.411 Y163.05 E83.25477
G1 X61.034 Y163.01 E83.26738
G1 X60.674 Y162.892 E83.27998
G1 X60.347 Y162.702 E83.29256
G1 X60.066 Y162.447 E83.30518
G1 X59.846 Y162.138 E83.3178
G1 X59.694 Y161.791 E83.3304
G1 X59.611 Y161.25 E83.3486
G1 X59.611 Y25.25 E87.87198
G1 X59.651 Y24.873 E87.88459
G1 X59.769 Y24.513 E87.89719
G0 F6000 X60.168 Y24.606
G1 F1200 X60.356 Y24.329 E87.90833
G1 X60.604 Y24.106 E87.91942
G1 X60.898 Y23.947 E87.93054
G1 X61.222 Y23.863 E87.94167
G1 X61.411 Y23.85 E87.94797
G1 X103.91 Y23.85 E89.36149
G1 X104.242 Y23.89 E89.37261
G1 X104.554 Y24.007 E89.3837
G1 X104.831 Y24.195 E89.39483
G1 X105.054 Y24.443 E89.40592
G1 X105.166 Y24.632 E89.41323
G1 X153.274 Y122.398 E93.0373
G1 X153.374 Y122.147 E93.04629
G1 X153.569 Y121.876 E93.05739
G1 X153.822 Y121.658 E93.0685
G1 X153.986 Y121.563 E93.0748
G1 X155.333 Y120.903 E93.12469
G1 X155.648 Y120.793 E93.13579
G1 X155.981 Y120.76 E93.14692
G1 X156.312 Y120.808 E93.15804
G1 X156.622 Y120.932 E93.16915
G1 X156.893 Y121.126 E93.18023
G1 X157.111 Y121.38 E93.19137
G1 X157.206 Y121.544 E93.19767
G1 X159.846 Y126.932 E93.39723
G1 X159.956 Y127.247 E93.40833
G1 X159.989 Y127.58 E93.41946
G1 X159.941 Y127.911 E93.43058
G1 X159.817 Y128.221 E93.44169
G1 X159.623 Y128.492 E93.45277
G1 X159.491 Y128.619 E93.45887
G1 X155.213 Y132.221 E93.64487
G1 X154.954 Y132.391 E93.65518
G1 X137.438 Y147.191 E94.41788
G1 X143.305 Y159.828 E94.88128
G1 X143.408 Y160.146 E94.89239
G1 X143.435 Y160.418 E94.90149
G1 X143.435 Y161.25 E94.92916
G1 X143.395 Y161.582 E94.94028
G1 X143.278 Y161.894 E94.95136
G1 X143.09 Y162.171 E94.9625
G1 X142.842 Y162.394 E94.97359
G1 X142.548 Y162.553 E94.98471
G1 X142.224 Y162.637 E94.99584
G1 X142.035 Y162.65 E95.00214
G1 X61.411 Y162.65 E97.68371
G1 X61.079 Y162.61 E97.69483
G1 X60.767 Y162.493 E97.70591
G1 X60.49 Y162.305 E97.71705
G1 X60.267 Y162.057 E97.72814
G1 X60.108 Y161.763 E97.73926
G1 X60.024 Y161.439 E97.75039
G1 X60.011 Y161.25 E97.75669
G1 X60.011 Y25.25 E102.28007
G1 X60.051 Y24.918 E102.29119
G1 X60.168 Y24.606 E102.30227
G0 F6000 X60.567 Y24.714
G1 F1200 X60.75 Y24.499 E102.31166
G1 X60.986 Y24.345 E102.32104
G1 X61.256 Y24.262 E102.33043
G1 X61.411 Y24.25 E102.3356
G1 X103.91 Y24.25 E103.74912
G1 X104.189 Y24.29 E103.7585
G1 X104.446 Y24.406 E103.76788
G1 X104.661 Y24.589 E103.77727
G1 X104.807 Y24.808 E103.78602
G1 X155.135 Y127.086 E107.57734
G1 X155.449 Y126.822 E107.59099
G1 X153.704 Y123.26 E107.72291
G1 X153.617 Y122.992 E107.73228
G1 X153.608 Y122.71 E107.74167
G1 X153.678 Y122.436 E107.75107
G1 X153.822 Y122.194 E107.76044
G1 X154.028 Y122.001 E107.76983
G1 X154.162 Y121.922 E107.775
G1 X155.509 Y121.262 E107.82489
G1 X155.777 Y121.175 E107.83426
G1 X156.059 Y121.166 E107.84365
G1 X156.333 Y121.236 E107.85305
G1 X156.575 Y121.38 E107.86242
G1 X156.768 Y121.586 E107.87181
G1 X156.847 Y121.72 E107.87698
G1 X159.487 Y127.108 E108.07654
G1 X159.574 Y127.376 E108.08591
G1 X159.583 Y127.658 E108.0953
G1 X159.513 Y127.932 E108.1047
