;FLAVOR:Marlin
;TIME:3979
;Filament used: 2.90777m
;Layer height: 0.2
;MINX:79.9
;MINY:38.2
;MINZ:0.2
;MAXX:140.1
;MAXY:181.8
;MAXZ:4
;Generated with Cura_SteamEngine 4.13.1
M140 S65
M105
M190 S65
M104 S200
M105
M109 S200
M82 ;absolute extrusion mode
; Script based on an original created by tjjfvi (https://github.com/tjjfvi)
; An up-to-date version of the tjjfvi's original script can be found
; here:  https://csi.t6.fyi/
; Note - This script will only work in Cura V4.2 and above!
; --- Global Settings
; layer_height = 0.2
; smooth_spiralized_contours = True
; magic_mesh_surface_mode = normal
; machine_extruder_count = 1
; --- Single Extruder Settings
; speed_z_hop = 5
; retraction_amount = 6.5
; retraction_hop = 0.2
; retraction_hop_enabled = False
; retraction_enable = True
; retraction_speed = 25
; retraction_retract_speed = 25
; retraction_prime_speed = 25
; speed_travel = 150.0

; Ender 3 Custom Start G-code
G92 E0 ; Reset Extruder
G28 ; Home all axes
G1 Z2.0 F3000 ; Move Z Axis up little to prevent scratching of Heat Bed
G1 X0.1 Y20 Z0.3 F5000.0 ; Move to start position
G1 X0.1 Y200.0 Z0.3 F1500.0 E15 ; Draw the first line
G1 X0.4 Y200.0 Z0.3 F5000.0 ; Move to side a little
G1 X0.4 Y20 Z0.3 F1500.0 E30 ; Draw the second line
G92 E0 ; Reset Extruder
G1 Z2.0 F3000 ; Move Z Axis up little to prevent scratching of Heat Bed
G1 X5 Y20 Z0.3 F5000.0 ; Move over to prevent blob squish
G92 E0
G92 E0
G1 F1500 E-6.5
;LAYER_COUNT:20
;LAYER:0
M107
G0 F6000 X130.391 Y40.322 Z0.2
;TYPE:SKIRT
G1 F1500 E0
G1 F1200 X130.67 Y39.847 E0.01832
G1 X131.014 Y39.417 E0.03664
G1 X131.417 Y39.041 E0.05497
G1 X131.87 Y38.727 E0.0733
G1 X132.364 Y38.482 E0.09164
G1 X132.888 Y38.311 E0.10998
G1 X133.431 Y38.218 E0.1283
G1 X133.801 Y38.2 E0.14062
G1 X136.3 Y38.2 E0.22374
G1 X136.85 Y38.24 E0.24208
G1 X137.388 Y38.359 E0.2604
G1 X137.903 Y38.555 E0.27873
G1 X138.384 Y38.823 E0.29705
G1 X138.822 Y39.157 E0.31537
G1 X139.206 Y39.552 E0.33369
G1 X139.53 Y39.998 E0.35202
G1 X139.785 Y40.486 E0.37034
G1 X139.968 Y41.006 E0.38867
G1 X140.073 Y41.547 E0.407
G1 X140.1 Y42 E0.42209
G1 X140.1 Y128 E3.28247
G1 X140.06 Y128.55 E3.30081
G1 X139.941 Y129.088 E3.31913
G1 X139.745 Y129.603 E3.33746
G1 X139.477 Y130.084 E3.35578
G1 X139.143 Y130.522 E3.3741
G1 X138.748 Y130.906 E3.39242
G1 X138.302 Y131.23 E3.41075
G1 X137.814 Y131.485 E3.42907
G1 X137.294 Y131.668 E3.4474
G1 X136.753 Y131.773 E3.46573
G1 X136.3 Y131.8 E3.48083
G1 X130.23 Y131.8 E3.68271
G1 X130.23 Y149.2 E4.26144
G1 X136.3 Y149.2 E4.46333
G1 X136.85 Y149.24 E4.48167
G1 X137.388 Y149.359 E4.5
G1 X137.903 Y149.555 E4.51832
G1 X138.384 Y149.823 E4.53664
G1 X138.822 Y150.157 E4.55496
G1 X139.206 Y150.552 E4.57328
G1 X139.53 Y150.998 E4.59162
G1 X139.785 Y151.486 E4.60993
G1 X139.968 Y152.006 E4.62827
G1 X140.073 Y152.547 E4.64659
G1 X140.1 Y153 E4.66169
G1 X140.1 Y178 E5.49319
G1 X140.06 Y178.55 E5.51153
G1 X139.941 Y179.088 E5.52986
G1 X139.745 Y179.603 E5.54819
G1 X139.477 Y180.084 E5.5665
G1 X139.143 Y180.522 E5.58482
G1 X138.748 Y180.906 E5.60314
G1 X138.302 Y181.23 E5.62148
G1 X137.814 Y181.485 E5.63979
G1 X137.294 Y181.668 E5.65813
G1 X136.753 Y181.773 E5.67646
G1 X136.3 Y181.8 E5.69155
G1 X95.7 Y181.8 E7.04191
G1 X95.15 Y181.76 E7.06025
G1 X94.612 Y181.641 E7.07858
G1 X94.097 Y181.445 E7.09691
G1 X93.616 Y181.177 E7.11522
G1 X93.178 Y180.843 E7.13354
G1 X92.794 Y180.448 E7.15186
G1 X92.47 Y180.002 E7.1702
G1 X92.215 Y179.514 E7.18851
G1 X92.032 Y178.994 E7.20685
G1 X91.927 Y178.453 E7.22518
G1 X91.9 Y178 E7.24027
G1 X91.9 Y177.095 E7.27037
G1 X91.94 Y176.545 E7.28871
G1 X92.059 Y176.007 E7.30704
G1 X92.253 Y175.495 E7.32525
G1 X97.319 Y164.583 E7.72539
G1 X81.247 Y151.002 E8.42524
G1 X80.853 Y150.617 E8.44356
G1 X80.519 Y150.179 E8.46188
G1 X80.252 Y149.697 E8.48021
G1 X80.057 Y149.182 E8.49852
G1 X79.939 Y148.644 E8.51684
G1 X79.9 Y148.094 E8.53518
G1 X79.941 Y147.545 E8.55349
G1 X80.061 Y147.007 E8.57183
G1 X80.293 Y146.417 E8.59291
G1 X81.319 Y144.341 E8.66993
G1 X81.292 Y144.306 E8.6714
G1 X81.026 Y143.824 E8.68971
G1 X80.833 Y143.308 E8.70804
G1 X80.716 Y142.769 E8.72638
G1 X80.678 Y142.22 E8.74469
G1 X80.72 Y141.67 E8.76303
G1 X80.841 Y141.133 E8.78134
G1 X81.068 Y140.557 E8.80193
G1 X130.391 Y40.322 E12.51752
G0 F6000 X130.75 Y40.499
G1 F1200 X131.016 Y40.05 E12.53488
G1 X131.346 Y39.647 E12.55221
G1 X131.735 Y39.3 E12.56954
G1 X132.172 Y39.016 E12.58688
G1 X132.647 Y38.802 E12.60421
G1 X133.149 Y38.663 E12.62153
G1 X133.801 Y38.6 E12.64332
G1 X136.3 Y38.6 E12.72644
G1 X136.82 Y38.64 E12.74378
G1 X137.327 Y38.759 E12.7611
G1 X137.81 Y38.954 E12.77843
G1 X138.258 Y39.22 E12.79576
G1 X138.66 Y39.552 E12.8131
G1 X139.006 Y39.942 E12.83044
G1 X139.289 Y40.38 E12.84778
G1 X139.502 Y40.855 E12.8651
G1 X139.639 Y41.358 E12.88244
G1 X139.7 Y42 E12.90388
G1 X139.7 Y128 E15.76426
G1 X139.66 Y128.52 E15.7816
G1 X139.541 Y129.027 E15.79892
G1 X139.346 Y129.51 E15.81625
G1 X139.08 Y129.958 E15.83358
G1 X138.748 Y130.36 E15.85092
G1 X138.358 Y130.706 E15.86826
G1 X137.92 Y130.989 E15.8856
G1 X137.445 Y131.202 E15.90292
G1 X136.942 Y131.339 E15.92026
G1 X136.3 Y131.4 E15.94171
G1 X129.83 Y131.4 E16.1569
G1 X129.83 Y149.6 E16.76223
G1 X136.3 Y149.6 E16.97743
G1 X136.82 Y149.64 E16.99477
G1 X137.327 Y149.759 E17.01209
G1 X137.81 Y149.954 E17.02942
G1 X138.258 Y150.22 E17.04675
G1 X138.66 Y150.552 E17.06409
G1 X139.006 Y150.942 E17.08143
G1 X139.289 Y151.38 E17.09877
G1 X139.502 Y151.855 E17.11609
G1 X139.639 Y152.358 E17.13343
G1 X139.7 Y153 E17.15488
G1 X139.7 Y178 E17.98638
G1 X139.66 Y178.52 E18.00373
G1 X139.541 Y179.027 E18.02105
G1 X139.346 Y179.51 E18.03837
G1 X139.08 Y179.958 E18.0557
G1 X138.748 Y180.36 E18.07304
G1 X138.358 Y180.706 E18.09038
G1 X137.92 Y180.989 E18.10773
G1 X137.445 Y181.202 E18.12504
G1 X136.942 Y181.339 E18.14238
G1 X136.3 Y181.4 E18.16383
G1 X95.7 Y181.4 E19.51419
G1 X95.18 Y181.36 E19.53154
G1 X94.673 Y181.241 E19.54886
G1 X94.19 Y181.046 E19.56618
G1 X93.742 Y180.78 E19.58351
G1 X93.34 Y180.448 E19.60085
G1 X92.994 Y180.058 E19.61819
G1 X92.711 Y179.62 E19.63554
G1 X92.498 Y179.145 E19.65285
G1 X92.361 Y178.642 E19.67019
G1 X92.3 Y178 E19.69164
G1 X92.3 Y177.095 E19.72174
G1 X92.34 Y176.575 E19.73909
G1 X92.459 Y176.068 E19.75641
G1 X92.616 Y175.663 E19.77085
G1 X97.81 Y164.475 E20.18111
G1 X81.506 Y150.697 E20.89109
G1 X81.134 Y150.331 E20.90844
G1 X80.824 Y149.913 E20.92575
G1 X80.58 Y149.452 E20.9431
G1 X80.41 Y148.959 E20.96045
G1 X80.318 Y148.446 E20.97778
G1 X80.304 Y147.925 E20.99511
G1 X80.371 Y147.408 E21.01245
G1 X80.516 Y146.908 E21.02977
G1 X80.652 Y146.594 E21.04115
G1 X81.786 Y144.299 E21.12629
G1 X81.568 Y143.993 E21.13879
G1 X81.333 Y143.527 E21.15615
G1 X81.173 Y143.031 E21.17348
G1 X81.09 Y142.517 E21.1908
G1 X81.086 Y141.996 E21.20813
G1 X81.163 Y141.48 E21.22548
G1 X81.317 Y140.982 E21.24282
G1 X81.427 Y140.734 E21.25184
G1 X130.75 Y40.499 E24.96743
G0 F6000 X131.109 Y40.675
G1 F1200 X131.36 Y40.255 E24.98371
G1 X131.677 Y39.882 E24.99999
G1 X132.049 Y39.564 E25.01627
G1 X132.469 Y39.312 E25.03256
G1 X132.924 Y39.131 E25.04884
G1 X133.402 Y39.027 E25.06511
G1 X133.801 Y39 E25.07841
G1 X136.3 Y39 E25.16153
G1 X136.788 Y39.04 E25.17782
G1 X137.263 Y39.159 E25.1941
G1 X137.712 Y39.353 E25.21037
G1 X138.124 Y39.618 E25.22666
G1 X138.487 Y39.946 E25.24294
G1 X138.792 Y40.329 E25.25922
G1 X139.03 Y40.757 E25.27551
G1 X139.196 Y41.217 E25.29177
G1 X139.285 Y41.698 E25.30804
G1 X139.3 Y42 E25.3181
G1 X139.3 Y128 E28.17847
G1 X139.26 Y128.488 E28.19476
G1 X139.141 Y128.963 E28.21105
G1 X138.947 Y129.412 E28.22731
G1 X138.682 Y129.824 E28.24361
G1 X138.354 Y130.187 E28.25988
G1 X137.971 Y130.492 E28.27616
G1 X137.543 Y130.73 E28.29245
G1 X137.083 Y130.896 E28.30872
G1 X136.602 Y130.985 E28.32499
G1 X136.3 Y131 E28.33504
G1 X129.43 Y131 E28.56354
G1 X129.43 Y150 E29.19548
G1 X136.3 Y150 E29.42398
G1 X136.788 Y150.04 E29.44027
G1 X137.263 Y150.159 E29.45655
G1 X137.712 Y150.353 E29.47282
G1 X138.124 Y150.618 E29.48911
G1 X138.487 Y150.946 E29.50539
G1 X138.792 Y151.329 E29.52167
G1 X139.03 Y151.757 E29.53796
G1 X139.196 Y152.217 E29.55422
G1 X139.285 Y152.698 E29.57049
G1 X139.3 Y153 E29.58055
G1 X139.3 Y178 E30.41205
G1 X139.26 Y178.488 E30.42834
G1 X139.141 Y178.963 E30.44463
G1 X138.947 Y179.412 E30.46089
G1 X138.682 Y179.824 E30.47719
G1 X138.354 Y180.187 E30.49346
G1 X137.971 Y180.492 E30.50974
G1 X137.543 Y180.73 E30.52603
G1 X137.083 Y180.896 E30.5423
G1 X136.602 Y180.985 E30.55857
G1 X136.3 Y181 E30.56862
G1 X95.7 Y181 E31.91898
G1 X95.212 Y180.96 E31.93527
G1 X94.737 Y180.841 E31.95156
G1 X94.288 Y180.647 E31.96783
G1 X93.876 Y180.382 E31.98412
G1 X93.513 Y180.054 E32.00039
G1 X93.208 Y179.671 E32.01667
G1 X92.97 Y179.243 E32.03296
G1 X92.804 Y178.783 E32.04923
G1 X92.715 Y178.302 E32.0655
G1 X92.7 Y178 E32.07555
G1 X92.7 Y177.095 E32.10566
G1 X92.74 Y176.607 E32.12194
G1 X92.859 Y176.132 E32.13823
G1 X92.979 Y175.832 E32.14897
G1 X98.302 Y164.366 E32.56943
G1 X81.764 Y150.391 E33.28957
G1 X81.417 Y150.046 E33.30585
G1 X81.131 Y149.649 E33.32212
G1 X80.913 Y149.21 E33.33842
G1 X80.77 Y148.742 E33.3547
G1 X80.704 Y148.257 E33.37098
G1 X80.718 Y147.768 E33.38725
G1 X80.812 Y147.288 E33.40352
G1 X81.01 Y146.771 E33.42193
G1 X82.26 Y144.241 E33.51579
G1 X82.121 Y144.091 E33.52259
G1 X81.85 Y143.683 E33.53888
G1 X81.65 Y143.236 E33.55517
G1 X81.525 Y142.763 E33.57144
G1 X81.478 Y142.276 E33.58772
G1 X81.512 Y141.787 E33.60402
G1 X81.624 Y141.311 E33.62028
G1 X81.786 Y140.91 E33.63467
G1 X131.109 Y40.675 E37.35026
G0 F6000 X131.468 Y40.852
G1 F1200 X131.704 Y40.462 E37.36542
G1 X132.005 Y40.12 E37.38058
G1 X132.361 Y39.835 E37.39574
G1 X132.761 Y39.617 E37.41089
G1 X133.193 Y39.472 E37.42605
G1 X133.801 Y39.4 E37.44641
G1 X136.3 Y39.4 E37.52953
G1 X136.754 Y39.44 E37.54469
G1 X137.194 Y39.558 E37.55984
G1 X137.606 Y39.752 E37.57499
G1 X137.979 Y40.015 E37.59017
G1 X138.3 Y40.338 E37.60531
G1 X138.559 Y40.713 E37.62047
G1 X138.749 Y41.127 E37.63562
G1 X138.864 Y41.568 E37.65078
G1 X138.9 Y42 E37.6652
G1 X138.9 Y128 E40.52557
G1 X138.86 Y128.454 E40.54073
G1 X138.742 Y128.894 E40.55588
G1 X138.548 Y129.306 E40.57103
G1 X138.285 Y129.679 E40.58621
G1 X137.962 Y130 E40.60135
G1 X137.587 Y130.259 E40.61651
G1 X137.173 Y130.449 E40.63166
G1 X136.732 Y130.564 E40.64682
G1 X136.3 Y130.6 E40.66124
G1 X129.03 Y130.6 E40.90304
G1 X129.03 Y150.4 E41.56159
G1 X136.3 Y150.4 E41.80339
G1 X136.754 Y150.44 E41.81855
G1 X137.194 Y150.558 E41.8337
G1 X137.606 Y150.752 E41.84885
G1 X137.979 Y151.015 E41.86403
G1 X138.3 Y151.338 E41.87917
G1 X138.559 Y151.713 E41.89433
G1 X138.749 Y152.127 E41.90948
G1 X138.864 Y152.568 E41.92464
G1 X138.9 Y153 E41.93906
G1 X138.9 Y178 E42.77056
G1 X138.86 Y178.454 E42.78572
G1 X138.742 Y178.894 E42.80087
G1 X138.548 Y179.306 E42.81602
G1 X138.285 Y179.679 E42.8312
G1 X137.962 Y180 E42.84634
G1 X137.587 Y180.259 E42.8615
G1 X137.173 Y180.449 E42.87665
G1 X136.732 Y180.564 E42.89181
G1 X136.3 Y180.6 E42.90623
G1 X95.7 Y180.6 E44.25659
G1 X95.246 Y180.56 E44.27175
G1 X94.806 Y180.442 E44.2869
G1 X94.394 Y180.248 E44.30205
G1 X94.021 Y179.985 E44.31723
G1 X93.7 Y179.662 E44.33237
G1 X93.441 Y179.287 E44.34753
G1 X93.251 Y178.873 E44.36268
G1 X93.136 Y178.432 E44.37784
G1 X93.1 Y178 E44.39226
G1 X93.1 Y177.095 E44.42236
G1 X93.14 Y176.641 E44.43752
G1 X93.342 Y176 E44.45987
G1 X98.793 Y164.258 E44.89044
G1 X82.022 Y150.086 E45.62074
G1 X81.701 Y149.762 E45.63591
G1 X81.441 Y149.388 E45.65106
G1 X81.251 Y148.974 E45.66621
G1 X81.136 Y148.533 E45.68136
G1 X81.1 Y148.079 E45.69651
G1 X81.144 Y147.625 E45.71168
G1 X81.266 Y147.186 E45.72684
G1 X81.369 Y146.948 E45.73546
G1 X82.744 Y144.164 E45.83874
G1 X82.678 Y144.111 E45.84155
G1 X82.378 Y143.768 E45.85671
G1 X82.143 Y143.378 E45.87185
G1 X81.979 Y142.953 E45.887
G1 X81.892 Y142.505 E45.90218
G1 X81.885 Y142.05 E45.91732
G1 X81.957 Y141.6 E45.93248
G1 X82.145 Y141.087 E45.95065
G1 X131.468 Y40.852 E49.66624
G0 F6000 X131.827 Y41.029
G1 F1200 X132.047 Y40.672 E49.68019
G1 X132.331 Y40.364 E49.69412
G1 X132.668 Y40.114 E49.70808
G1 X133.046 Y39.934 E49.722
G1 X133.451 Y39.828 E49.73593
G1 X133.801 Y39.8 E49.74761
G1 X136.3 Y39.8 E49.83072
G1 X136.717 Y39.84 E49.84466
G1 X137.119 Y39.958 E49.85859
G1 X137.491 Y40.151 E49.87253
G1 X137.82 Y40.41 E49.88646
G1 X138.094 Y40.727 E49.90039
G1 X138.303 Y41.09 E49.91432
G1 X138.439 Y41.487 E49.92828
G1 X138.5 Y42 E49.94546
G1 X138.5 Y128 E52.80584
G1 X138.46 Y128.417 E52.81977
G1 X138.342 Y128.819 E52.8337
G1 X138.149 Y129.191 E52.84764
G1 X137.89 Y129.52 E52.86157
G1 X137.573 Y129.794 E52.8755
G1 X137.21 Y130.003 E52.88944
G1 X136.813 Y130.139 E52.90339
G1 X136.3 Y130.2 E52.92058
G1 X128.63 Y130.2 E53.17568
G1 X128.63 Y150.8 E53.86084
G1 X136.3 Y150.8 E54.11595
G1 X136.717 Y150.84 E54.12988
G1 X137.119 Y150.958 E54.14381
G1 X137.491 Y151.151 E54.15775
G1 X137.82 Y151.41 E54.17168
G1 X138.094 Y151.727 E54.18562
G1 X138.303 Y152.09 E54.19955
G1 X138.439 Y152.487 E54.2135
G1 X138.5 Y153 E54.23069
G1 X138.5 Y178 E55.06219
G1 X138.46 Y178.417 E55.07612
G1 X138.342 Y178.819 E55.09006
G1 X138.149 Y179.191 E55.104
G1 X137.89 Y179.52 E55.11792
G1 X137.573 Y179.794 E55.13186
G1 X137.21 Y180.003 E55.14579
G1 X136.813 Y180.139 E55.15975
G1 X136.3 Y180.2 E55.17693
G1 X95.7 Y180.2 E56.52729
G1 X95.283 Y180.16 E56.54123
G1 X94.881 Y180.042 E56.55516
G1 X94.509 Y179.849 E56.5691
G1 X94.18 Y179.59 E56.58303
G1 X93.906 Y179.273 E56.59696
G1 X93.697 Y178.91 E56.61089
G1 X93.561 Y178.513 E56.62485
G1 X93.5 Y178 E56.64203
G1 X93.5 Y177.095 E56.67213
G1 X93.54 Y176.678 E56.68607
G1 X93.705 Y176.169 E56.70386
G1 X99.285 Y164.15 E57.1446
G1 X82.28 Y149.78 E57.88509
G1 X81.987 Y149.481 E57.89901
G1 X81.756 Y149.131 E57.91296
G1 X81.596 Y148.744 E57.92689
G1 X81.512 Y148.333 E57.94084
G1 X81.508 Y147.914 E57.95478
G1 X81.583 Y147.502 E57.96871
G1 X81.728 Y147.125 E57.98214
G1 X83.245 Y144.055 E58.09604
G1 X83.228 Y144.045 E58.09669
G1 X82.907 Y143.775 E58.11064
G1 X82.643 Y143.449 E58.12459
G1 X82.447 Y143.079 E58.13852
G1 X82.323 Y142.679 E58.15245
G1 X82.278 Y142.262 E58.1664
G1 X82.313 Y141.845 E58.18032
G1 X82.504 Y141.264 E58.20066
G1 X131.827 Y41.029 E61.91625
G0 F6000 X132.186 Y41.205
G1 F1200 X132.388 Y40.885 E61.92884
G1 X132.653 Y40.614 E61.94144
G1 X132.969 Y40.404 E61.95406
G1 X133.321 Y40.265 E61.96665
G1 X133.801 Y40.2 E61.98276
G1 X136.3 Y40.2 E62.06588
G1 X136.677 Y40.24 E62.07849
G1 X137.037 Y40.358 E62.09109
G1 X137.364 Y40.548 E62.10367
G1 X137.645 Y40.803 E62.11629
G1 X137.865 Y41.112 E62.1289
G1 X138.017 Y41.459 E62.1415
G1 X138.1 Y42 E62.15971
G1 X138.1 Y128 E65.02008
G1 X138.06 Y128.377 E65.03269
G1 X137.942 Y128.737 E65.04529
G1 X137.752 Y129.064 E65.05787
G1 X137.497 Y129.345 E65.07049
G1 X137.188 Y129.565 E65.08311
G1 X136.841 Y129.717 E65.09571
G1 X136.3 Y129.8 E65.11391
G1 X128.23 Y129.8 E65.38232
G1 X128.23 Y151.2 E66.09409
G1 X136.3 Y151.2 E66.3625
G1 X136.677 Y151.24 E66.37511
G1 X137.037 Y151.358 E66.38771
G1 X137.364 Y151.548 E66.40028
G1 X137.645 Y151.803 E66.4129
G1 X137.865 Y152.112 E66.42552
G1 X138.017 Y152.459 E66.43812
G1 X138.1 Y153 E66.45633
G1 X138.1 Y178 E67.28783
G1 X138.06 Y178.377 E67.30044
G1 X137.942 Y178.737 E67.31304
G1 X137.752 Y179.064 E67.32562
G1 X137.497 Y179.345 E67.33824
G1 X137.188 Y179.565 E67.35085
G1 X136.841 Y179.717 E67.36345
G1 X136.3 Y179.8 E67.38166
G1 X95.7 Y179.8 E68.73202
G1 X95.323 Y179.76 E68.74463
G1 X94.963 Y179.642 E68.75723
G1 X94.636 Y179.452 E68.76981
G1 X94.355 Y179.197 E68.78243
G1 X94.135 Y178.888 E68.79505
G1 X93.983 Y178.541 E68.80765
G1 X93.9 Y178 E68.82585
G1 X93.9 Y177.095 E68.85595
G1 X93.94 Y176.718 E68.86856
G1 X94.067 Y176.337 E68.88192
G1 X99.775 Y164.041 E69.3328
G1 X82.538 Y149.475 E70.08339
G1 X82.276 Y149.201 E70.096
G1 X82.077 Y148.879 E70.10859
G1 X81.95 Y148.522 E70.12119
G1 X81.901 Y148.146 E70.13381
G1 X81.931 Y147.768 E70.14642
G1 X82.086 Y147.303 E70.16272
G1 X83.772 Y143.891 E70.2893
G1 X83.754 Y143.883 E70.28996
G1 X83.425 Y143.695 E70.30256
G1 X83.143 Y143.442 E70.31516
G1 X82.92 Y143.136 E70.32775
G1 X82.766 Y142.79 E70.34035
G1 X82.687 Y142.419 E70.35297
